%
O1001
(T23 D=2. CR=1. - ZMIN=-1. - BALL END MILL)
G90 G94 G17 G49 G40 G80
G21
G28 G91 Z0.
G90

(2D CONTOUR1)
T23 M06
S22000 M03
G17 G90 G94
G54
M08
G00 X0.546 Y2.804
G43 Z15. H23
G00 Z5.
G01 Z0.4 F500.
Z-0.8
X0.551 Y2.8 Z-0.852 F1000.
X0.565 Y2.785 Z-0.9
X0.587 Y2.763 Z-0.941
X0.617 Y2.734 Z-0.973
X0.651 Y2.7 Z-0.993
X0.688 Y2.663 Z-1.
X0.829 Y2.522
G03 X1.112 Y2.523 I0.141 J0.142
G02 X2.377 Y2.65 I0.709 J-0.705 F2475.
G01 X2.388 Y2.643
X2.421 Y2.621
X2.475 Y2.584
X2.551 Y2.533
X2.649 Y2.468
X2.769 Y2.388
X2.911 Y2.293
X3.074 Y2.184
X3.259 Y2.06
X3.466 Y1.922
X3.695 Y1.769
X3.946 Y1.602
X4.218 Y1.42
X4.512 Y1.223
X4.828 Y1.012
X5.166 Y0.787
G02 X5.504 Y-0.494 I-0.555 J-0.832
G01 X5.313 Y-0.873
X5.285 Y-0.925
X5.076 Y-1.286
X5.045 Y-1.336
X4.819 Y-1.679
X4.785 Y-1.727
X4.542 Y-2.052
X4.505 Y-2.098
X4.247 Y-2.403
X4.208 Y-2.447
X3.935 Y-2.734
X3.893 Y-2.775
X3.607 Y-3.043
X3.564 Y-3.081
X3.265 Y-3.33
X3.219 Y-3.365
X2.909 Y-3.595
X2.862 Y-3.627
X2.541 Y-3.837
X2.492 Y-3.867
X2.162 Y-4.058
X2.112 Y-4.084
X1.772 Y-4.255
X1.721 Y-4.279
X1.374 Y-4.429
X1.322 Y-4.45
X0.969 Y-4.581
X0.916 Y-4.599
X0.556 Y-4.709
X0.502 Y-4.724
X0.138 Y-4.813
X0.083 Y-4.825
X-0.285 Y-4.894
X-0.34 Y-4.903
X-0.711 Y-4.951
X-0.767 Y-4.957
X-1.139 Y-4.984
X-1.196 Y-4.987
X-1.569 Y-4.993
X-1.626 Y-4.992
X-2. Y-4.977
X-2.057 Y-4.973
X-2.429 Y-4.936
X-2.487 Y-4.929
X-2.857 Y-4.87
X-2.915 Y-4.859
X-3.282 Y-4.779
X-3.339 Y-4.765
X-3.702 Y-4.663
X-3.759 Y-4.645
X-4.118 Y-4.521
X-4.174 Y-4.499
X-4.526 Y-4.353
X-4.582 Y-4.327
X-4.927 Y-4.158
X-4.981 Y-4.13
X-5.318 Y-3.938
X-5.371 Y-3.906
X-5.699 Y-3.691
X-5.75 Y-3.656
X-6.069 Y-3.418
X-6.117 Y-3.379
X-6.425 Y-3.119
X-6.478 Y-3.071
X-6.823 Y-2.733
X-6.877 Y-2.676
X-7.199 Y-2.306
X-7.247 Y-2.248
X-7.548 Y-1.846
X-7.589 Y-1.787
X-7.868 Y-1.352
X-7.903 Y-1.294
X-8.16 Y-0.826
X-8.189 Y-0.77
X-8.424 Y-0.27
X-8.448 Y-0.216
X-8.661 Y0.316
X-8.68 Y0.367
X-8.872 Y0.932
X-8.887 Y0.98
X-9.056 Y1.577
X-9.068 Y1.622
X-9.216 Y2.252
X-9.225 Y2.294
X-9.351 Y2.957
X-9.357 Y2.995
X-9.462 Y3.69
X-9.465 Y3.711
X-9.478 Y3.819
X-9.485 Y3.892
X-9.486 Y3.966
X-9.478 Y4.365
Y4.389
X-9.461 Y4.78
X-9.459 Y4.804
X-9.433 Y5.186
X-9.431 Y5.212
X-9.396 Y5.584
X-9.393 Y5.611
X-9.349 Y5.975
X-9.345 Y6.003
X-9.292 Y6.358
X-9.287 Y6.387
X-9.225 Y6.733
X-9.219 Y6.763
X-9.148 Y7.1
X-9.141 Y7.131
X-9.061 Y7.46
X-9.053 Y7.491
X-8.963 Y7.811
X-8.953 Y7.844
X-8.855 Y8.154
X-8.844 Y8.188
X-8.736 Y8.489
X-8.724 Y8.524
X-8.607 Y8.817
X-8.592 Y8.851
X-8.467 Y9.135
X-8.451 Y9.17
X-8.316 Y9.446
X-8.298 Y9.481
X-8.154 Y9.747
X-8.134 Y9.783
X-7.982 Y10.04
X-7.96 Y10.075
X-7.798 Y10.324
X-7.774 Y10.359
X-7.603 Y10.598
X-7.578 Y10.633
X-7.398 Y10.864
X-7.371 Y10.897
X-7.182 Y11.119
X-7.153 Y11.152
X-6.955 Y11.364
X-6.925 Y11.396
X-6.718 Y11.6
X-6.686 Y11.63
X-6.47 Y11.825
X-6.437 Y11.853
X-6.212 Y12.039
X-6.178 Y12.066
X-5.944 Y12.244
X-5.91 Y12.268
X-5.667 Y12.437
X-5.632 Y12.46
X-5.38 Y12.62
X-5.345 Y12.641
X-5.084 Y12.792
X-5.049 Y12.811
X-4.778 Y12.953
X-4.743 Y12.97
X-4.464 Y13.103
X-4.429 Y13.119
X-4.141 Y13.243
X-4.047 Y13.278
X-3.949 Y13.304
X-3.61 Y13.374
X-3.583 Y13.379
X-3.249 Y13.439
X-3.22 Y13.444
X-2.892 Y13.493
X-2.862 Y13.497
X-2.538 Y13.535
X-2.507 Y13.538
X-2.188 Y13.566
X-2.155 Y13.568
X-1.842 Y13.585
X-1.808 Y13.586
X-1.5 Y13.592
X-1.465
X-1.161 Y13.588
X-1.125 Y13.586
X-0.826 Y13.571
X-0.789 Y13.568
X-0.496 Y13.542
X-0.458 Y13.538
X-0.17 Y13.501
X-0.131 Y13.496
X0.152 Y13.448
X0.192 Y13.441
X0.47 Y13.382
X0.51 Y13.373
X0.783 Y13.304
X0.823 Y13.293
X1.091 Y13.214
X1.131 Y13.201
X1.394 Y13.11
X1.434 Y13.096
X1.692 Y12.994
X1.731 Y12.978
X1.984 Y12.866
X2.023 Y12.848
X2.271 Y12.725
X2.309 Y12.706
X2.552 Y12.572
X2.589 Y12.551
X2.826 Y12.407
X2.862 Y12.384
X3.095 Y12.229
X3.129 Y12.206
X3.357 Y12.04
X3.389 Y12.016
X3.611 Y11.839
X3.643 Y11.814
X3.86 Y11.627
X3.89 Y11.6
X4.102 Y11.403
X4.129 Y11.376
X4.337 Y11.168
X4.363 Y11.141
X4.565 Y10.922
X4.589 Y10.895
X4.786 Y10.665
X4.809 Y10.638
X5.001 Y10.397
X5.022 Y10.37
X5.209 Y10.119
X5.228 Y10.092
X5.41 Y9.83
G02 X5.106 Y8.404 I-0.821 J-0.571
G01 X5.095 Y8.397
X5.062 Y8.377
X5.006 Y8.344
X4.928 Y8.297
X4.828 Y8.236
X4.706 Y8.162
X4.562 Y8.075
X4.395 Y7.974
X4.206 Y7.86
X3.995 Y7.732
X3.762 Y7.591
X3.506 Y7.437
X3.228 Y7.269
X2.928 Y7.087
X2.606 Y6.893
X2.262 Y6.684
G02 X0.937 Y6.95 I-0.517 J0.856
G01 X0.741 Y7.218
X0.56 Y7.437
X0.376 Y7.631
X0.19 Y7.802
X0.004 Y7.951
X-0.182 Y8.078
X-0.367 Y8.186
X-0.551 Y8.274
X-0.733 Y8.345
X-0.913 Y8.399
X-1.091 Y8.436
X-1.267 Y8.458
X-1.44 Y8.466
X-1.612 Y8.459
X-1.781 Y8.438
X-1.947 Y8.403
X-2.112 Y8.355
X-2.273 Y8.292
X-2.432 Y8.216
X-2.586 Y8.125
X-2.737 Y8.021
X-2.884 Y7.902
X-3.024 Y7.768
X-3.159 Y7.619
X-3.287 Y7.456
X-3.408 Y7.277
X-3.519 Y7.083
X-3.621 Y6.874
X-3.713 Y6.649
X-3.793 Y6.409
X-3.86 Y6.153
X-3.914 Y5.879
X-3.972 Y5.464
X-4.009 Y5.057
X-4.025 Y4.663
X-4.019 Y4.28
X-3.993 Y3.908
X-3.946 Y3.547
X-3.878 Y3.196
X-3.79 Y2.851
X-3.71 Y2.597
X-3.619 Y2.353
X-3.518 Y2.123
X-3.409 Y1.909
X-3.291 Y1.711
X-3.166 Y1.531
X-3.033 Y1.368
X-2.893 Y1.222
X-2.746 Y1.094
X-2.59 Y0.981
X-2.425 Y0.884
X-2.248 Y0.802
X-2.056 Y0.735
X-1.847 Y0.684
X-1.617 Y0.65
X-1.363 Y0.636
X-1.179 Y0.641
X-0.996 Y0.66
X-0.817 Y0.692
X-0.642 Y0.738
X-0.472 Y0.797
X-0.307 Y0.869
X-0.149 Y0.952
X0.002 Y1.048
X0.146 Y1.154
X0.282 Y1.271
X0.408 Y1.398
X0.525 Y1.534
X0.632 Y1.68
X0.728 Y1.835
X0.812 Y1.999
X0.9 Y2.207
G02 X1.112 Y2.523 I0.922 J-0.388
G03 X1.111 Y2.806 I-0.142 J0.141 F1000.
G01 X0.97 Y2.947
X0.933 Y2.984 Z-0.993
X0.899 Y3.018 Z-0.973
X0.869 Y3.047 Z-0.941
X0.847 Y3.069 Z-0.9
X0.833 Y3.083 Z-0.852
X0.828 Y3.088 Z-0.8
G00 Z5.
X-13.83 Y-4.534
G01 Z0.4 F500.
Z-0.8
Y-4.541 Z-0.852 F1000.
Y-4.561 Z-0.9
Y-4.593 Z-0.941
Y-4.634 Z-0.973
Y-4.683 Z-0.993
Y-4.734 Z-1.
Y-4.934
G03 X-13.631 Y-5.135 I0.2
G01 X62.081 Y-5.242 F2475.
G02 X63.074 Y-6.139 I-0.001 J-1.
G01 X63.158 Y-6.942
X63.159 Y-6.952
X63.233 Y-7.75
X63.234 Y-7.76
X63.3 Y-8.552
X63.301 Y-8.562
X63.358 Y-9.348
X63.359 Y-9.359
X63.408 Y-10.139
Y-10.15
X63.449 Y-10.925
Y-10.936
X63.48 Y-11.705
X63.481 Y-11.716
X63.504 Y-12.479
Y-12.49
X63.518 Y-13.248
Y-13.259
X63.524 Y-14.012
Y-14.023
X63.521 Y-14.77
Y-14.781
X63.509 Y-15.522
Y-15.534
X63.488 Y-16.269
Y-16.281
X63.459 Y-17.01
X63.458 Y-17.022
X63.421 Y-17.746
X63.42 Y-17.759
X63.374 Y-18.477
X63.373 Y-18.489
X63.318 Y-19.201
X63.317 Y-19.214
X63.253 Y-19.921
X63.252 Y-19.934
X63.18 Y-20.635
X63.178 Y-20.648
X63.098 Y-21.343
X63.096 Y-21.356
X63.006 Y-22.046
X63.005 Y-22.059
X62.906 Y-22.743
X62.904 Y-22.756
X62.798 Y-23.435
X62.795 Y-23.448
X62.68 Y-24.121
X62.678 Y-24.135
X62.554 Y-24.802
X62.551 Y-24.815
X62.418 Y-25.477
X62.415 Y-25.491
X62.274 Y-26.146
X62.271 Y-26.16
X62.121 Y-26.81
X62.118 Y-26.824
X61.959 Y-27.468
X61.955 Y-27.483
X61.788 Y-28.121
X61.784 Y-28.136
X61.608 Y-28.768
X61.604 Y-28.783
X61.42 Y-29.41
X61.416 Y-29.425
X61.222 Y-30.046
X61.218 Y-30.06
X61.016 Y-30.676
X61.011 Y-30.691
X60.801 Y-31.301
X60.795 Y-31.315
X60.576 Y-31.92
X60.571 Y-31.935
X60.343 Y-32.533
X60.338 Y-32.548
X60.101 Y-33.141
X60.095 Y-33.156
X59.85 Y-33.743
X59.844 Y-33.758
X59.591 Y-34.339
X59.584 Y-34.354
X59.322 Y-34.93
X59.315 Y-34.945
X59.044 Y-35.515
X59.037 Y-35.53
X58.757 Y-36.094
X58.75 Y-36.109
X58.462 Y-36.668
X58.454 Y-36.682
X58.158 Y-37.235
X58.15 Y-37.25
X57.844 Y-37.797
X57.836 Y-37.812
X57.522 Y-38.353
X57.514 Y-38.368
X57.191 Y-38.904
X57.183 Y-38.918
X56.851 Y-39.448
X56.842 Y-39.462
X56.503 Y-39.987
X56.493 Y-40.001
X56.145 Y-40.52
X56.136 Y-40.534
X55.778 Y-41.047
X55.769 Y-41.061
X55.403 Y-41.568
X55.393 Y-41.582
X55.019 Y-42.084
X55.009 Y-42.097
X54.626 Y-42.593
X54.615 Y-42.606
X54.224 Y-43.097
X54.213 Y-43.11
X53.813 Y-43.595
X53.802 Y-43.607
X53.393 Y-44.086
X53.383 Y-44.099
X52.965 Y-44.572
X52.954 Y-44.584
X52.528 Y-45.052
X52.517 Y-45.064
X52.082 Y-45.526
X52.071 Y-45.538
X51.628 Y-45.995
X51.616 Y-46.006
X51.164 Y-46.457
X51.153 Y-46.468
X50.704 Y-46.902
X50.243 Y-47.378
X50.231 Y-47.39
X49.749 Y-47.871
X49.737 Y-47.883
X49.247 Y-48.355
X49.235 Y-48.367
X48.737 Y-48.831
X48.724 Y-48.843
X48.217 Y-49.3
X48.205 Y-49.311
X47.69 Y-49.76
X47.677 Y-49.771
X47.153 Y-50.212
X47.14 Y-50.222
X46.608 Y-50.655
X46.595 Y-50.666
X46.055 Y-51.091
X46.042 Y-51.101
X45.493 Y-51.518
X45.48 Y-51.528
X44.922 Y-51.938
X44.909 Y-51.947
X44.343 Y-52.349
X44.33 Y-52.358
X43.756 Y-52.752
X43.742 Y-52.761
X43.16 Y-53.147
X43.146 Y-53.155
X42.555 Y-53.533
X42.542 Y-53.541
X41.942 Y-53.911
X41.929 Y-53.92
X41.321 Y-54.282
X41.307 Y-54.29
X40.691 Y-54.644
X40.677 Y-54.651
X40.053 Y-54.998
X40.039 Y-55.005
X39.406 Y-55.343
X39.393 Y-55.351
X38.751 Y-55.681
X38.738 Y-55.688
X38.087 Y-56.01
X38.074 Y-56.017
X37.416 Y-56.332
X37.402 Y-56.338
X36.735 Y-56.645
X36.722 Y-56.651
X36.047 Y-56.95
X36.034 Y-56.955
X35.35 Y-57.246
X35.337 Y-57.252
X34.645 Y-57.535
X34.632 Y-57.54
X33.931 Y-57.815
X33.918 Y-57.82
X33.209 Y-58.088
X33.196 Y-58.092
X32.479 Y-58.352
X32.466 Y-58.356
X31.74 Y-58.608
X31.728 Y-58.612
X30.993 Y-58.856
X30.981 Y-58.86
X30.238 Y-59.096
X30.226 Y-59.1
X29.474 Y-59.328
X29.462 Y-59.331
X28.703 Y-59.551
X28.691 Y-59.555
X27.922 Y-59.767
X27.91 Y-59.77
X27.134 Y-59.974
X27.122 Y-59.977
X26.337 Y-60.174
X26.326 Y-60.177
X25.532 Y-60.365
X25.521 Y-60.368
X24.719 Y-60.548
X24.708 Y-60.551
X23.897 Y-60.723
X23.886 Y-60.726
X23.068 Y-60.891
X23.057 Y-60.893
X22.23 Y-61.05
X22.219 Y-61.052
X21.383 Y-61.201
X21.372 Y-61.203
X20.528 Y-61.344
X20.518 Y-61.345
X19.665 Y-61.479
X19.655 Y-61.48
X18.794 Y-61.606
X18.784 Y-61.607
X17.915 Y-61.724
X17.905 Y-61.726
X17.027 Y-61.835
X17.017 Y-61.836
X16.131 Y-61.938
X16.121 Y-61.939
X15.226 Y-62.033
X15.217 Y-62.034
X14.314 Y-62.12
X14.305 Y-62.121
X13.393 Y-62.199
X13.384 Y-62.2
X12.464 Y-62.27
X12.455
X11.526 Y-62.333
X11.517
X10.581 Y-62.388
X10.572
X9.626 Y-62.434
X9.618 Y-62.435
X8.664 Y-62.473
X8.656 Y-62.474
X7.694 Y-62.504
X7.685 Y-62.505
X6.715 Y-62.527
X6.706 Y-62.528
X5.727 Y-62.542
X5.719 Y-62.543
X4.732 Y-62.55
X4.724
X3.728 Y-62.549
X3.72
X2.747 Y-62.54
X1.039 Y-62.632
X1.024 Y-62.633
X-0.698 Y-62.7
X-0.713
X-2.418 Y-62.741
X-2.433
X-4.12 Y-62.754
X-4.136
X-5.806 Y-62.74
X-5.822
X-7.474 Y-62.7
X-7.491 Y-62.699
X-9.126 Y-62.632
X-9.143 Y-62.631
X-10.76 Y-62.537
X-10.777 Y-62.536
X-12.377 Y-62.415
X-12.395 Y-62.413
X-13.977 Y-62.265
X-13.995 Y-62.263
X-15.56 Y-62.089
X-15.578 Y-62.086
X-17.126 Y-61.885
X-17.144 Y-61.882
X-18.674 Y-61.654
X-18.693 Y-61.651
X-20.206 Y-61.395
X-20.225 Y-61.392
X-21.72 Y-61.11
X-21.739 Y-61.106
X-23.217 Y-60.797
X-23.236 Y-60.793
X-24.697 Y-60.457
X-24.716 Y-60.452
X-26.159 Y-60.089
X-26.179 Y-60.084
X-27.604 Y-59.695
X-27.624 Y-59.689
X-29.032 Y-59.272
X-29.052 Y-59.266
X-30.443 Y-58.823
X-30.463 Y-58.816
X-31.836 Y-58.346
X-31.856 Y-58.339
X-33.212 Y-57.842
X-33.232 Y-57.834
X-34.57 Y-57.31
X-34.591 Y-57.302
X-35.912 Y-56.751
X-35.932 Y-56.743
X-37.235 Y-56.165
X-37.255 Y-56.156
X-38.541 Y-55.551
X-38.561 Y-55.542
X-39.83 Y-54.91
X-39.85 Y-54.9
X-41.101 Y-54.242
X-41.12 Y-54.231
X-42.354 Y-53.546
X-42.374 Y-53.535
X-43.59 Y-52.823
X-43.609 Y-52.811
X-44.808 Y-52.073
X-44.824 Y-52.062
X-45.458 Y-51.655
X-45.473 Y-51.645
X-46.096 Y-51.228
X-46.112 Y-51.217
X-46.723 Y-50.791
X-46.738 Y-50.779
X-47.339 Y-50.344
X-47.354 Y-50.332
X-47.943 Y-49.887
X-47.959 Y-49.875
X-48.537 Y-49.42
X-48.552 Y-49.408
X-49.119 Y-48.943
X-49.134 Y-48.931
X-49.689 Y-48.457
X-49.704 Y-48.444
X-50.248 Y-47.961
X-50.263 Y-47.947
X-50.796 Y-47.455
X-50.811 Y-47.441
X-51.333 Y-46.939
X-51.347 Y-46.925
X-51.858 Y-46.413
X-51.872 Y-46.399
X-52.371 Y-45.878
X-52.385 Y-45.863
X-52.874 Y-45.332
X-52.887 Y-45.317
X-53.364 Y-44.777
X-53.378 Y-44.762
X-53.844 Y-44.212
X-53.857 Y-44.197
X-54.311 Y-43.638
X-54.324 Y-43.622
X-54.767 Y-43.054
X-54.78 Y-43.037
X-55.212 Y-42.46
X-55.224 Y-42.443
X-55.645 Y-41.856
X-55.657 Y-41.839
X-56.067 Y-41.243
X-56.078 Y-41.226
X-56.476 Y-40.62
X-56.487 Y-40.603
X-56.875 Y-39.987
X-56.885 Y-39.97
X-57.262 Y-39.345
X-57.272 Y-39.328
X-57.637 Y-38.694
X-57.646 Y-38.677
X-58. Y-38.033
X-58.009 Y-38.015
X-58.352 Y-37.362
X-58.361 Y-37.345
X-58.692 Y-36.682
X-58.701 Y-36.664
X-59.021 Y-35.992
X-59.029 Y-35.975
X-59.338 Y-35.293
X-59.346 Y-35.276
X-59.644 Y-34.584
X-59.651 Y-34.567
X-59.938 Y-33.866
X-59.944 Y-33.849
X-60.22 Y-33.139
X-60.226 Y-33.122
X-60.491 Y-32.403
X-60.497 Y-32.386
X-60.75 Y-31.657
X-60.755 Y-31.64
X-60.997 Y-30.901
X-61.003 Y-30.885
X-61.233 Y-30.136
X-61.238 Y-30.12
X-61.458 Y-29.363
X-61.462 Y-29.346
X-61.671 Y-28.579
X-61.675 Y-28.563
X-61.872 Y-27.787
X-61.876 Y-27.771
X-62.062 Y-26.985
X-62.065 Y-26.969
X-62.24 Y-26.174
X-62.243 Y-26.158
X-62.407 Y-25.353
X-62.41 Y-25.338
X-62.562 Y-24.524
X-62.565 Y-24.509
X-62.706 Y-23.685
X-62.709 Y-23.67
X-62.839 Y-22.837
X-62.841 Y-22.822
X-62.959 Y-21.98
X-62.961 Y-21.965
X-63.069 Y-21.113
X-63.071 Y-21.099
X-63.167 Y-20.237
X-63.168 Y-20.223
X-63.254 Y-19.352
X-63.255 Y-19.339
X-63.329 Y-18.458
X-63.33 Y-18.445
X-63.393 Y-17.555
Y-17.542
X-63.445 Y-16.642
X-63.446 Y-16.629
X-63.486 Y-15.72
Y-15.708
X-63.516 Y-14.789
Y-14.777
X-63.534 Y-13.849
Y-13.837
X-63.541 Y-12.899
Y-12.888
X-63.536 Y-11.941
Y-11.929
X-63.521 Y-10.973
Y-10.961
X-63.494 Y-9.996
X-63.493 Y-9.984
X-63.455 Y-9.009
Y-8.998
X-63.406 Y-8.014
X-63.405 Y-8.003
X-63.345 Y-7.009
X-63.344 Y-6.998
X-63.272 Y-5.995
G02 X-62.273 Y-5.066 I0.997 J-0.071
G01 X-13.631 Y-5.135
G03 X-13.43 Y-4.935 J0.2 F1000.
G01 Y-4.735
Y-4.683 Z-0.993
Y-4.635 Z-0.973
Y-4.594 Z-0.941
Y-4.562 Z-0.9
Y-4.542 Z-0.852
Y-4.535 Z-0.8
G00 Z5.
X-3.841 Y-14.854
G01 Z0.4 F500.
Z-0.8
X-3.84 Y-14.861 Z-0.852 F1000.
X-3.836 Y-14.88 Z-0.9
X-3.83 Y-14.912 Z-0.941
X-3.822 Y-14.952 Z-0.973
X-3.812 Y-15. Z-0.993
X-3.802 Y-15.05 Z-1.
X-3.763 Y-15.247
G03 X-3.528 Y-15.404 I0.196 J0.039
G01 X-3.051 Y-15.309 F2475.
X-3.016 Y-15.303
X-2.428 Y-15.208
X-2.392 Y-15.203
X-1.802 Y-15.13
X-1.767 Y-15.126
X-1.175 Y-15.073
X-1.139 Y-15.071
X-0.546 Y-15.039
X-0.51 Y-15.038
X0.084 Y-15.028
X0.119
X0.713 Y-15.038
X0.748 Y-15.039
X1.342 Y-15.071
X1.377 Y-15.073
X1.969 Y-15.126
X2.004 Y-15.13
X2.595 Y-15.203
X2.63 Y-15.208
X3.218 Y-15.303
X3.253 Y-15.309
X3.838 Y-15.425
X3.873 Y-15.433
X4.455 Y-15.569
X4.49 Y-15.578
X5.067 Y-15.736
X5.102 Y-15.746
X5.675 Y-15.925
X5.709 Y-15.936
X6.276 Y-16.136
X6.31 Y-16.149
X6.872 Y-16.37
X6.905 Y-16.384
X7.461 Y-16.625
X7.494 Y-16.641
X8.042 Y-16.904
X8.075 Y-16.92
X8.201 Y-16.986
X8.167 Y-7.861
X-8.086 Y-7.9
X-8.018 Y-16.996
X-7.873 Y-16.92
X-7.84 Y-16.904
X-7.291 Y-16.641
X-7.258 Y-16.625
X-6.703 Y-16.384
X-6.67 Y-16.37
X-6.108 Y-16.149
X-6.074 Y-16.136
X-5.506 Y-15.936
X-5.472 Y-15.925
X-4.899 Y-15.746
X-4.865 Y-15.736
X-4.287 Y-15.578
X-4.252 Y-15.569
X-3.671 Y-15.433
X-3.636 Y-15.425
X-3.528 Y-15.404
G03 X-3.371 Y-15.169 I-0.039 J0.196 F1000.
G01 X-3.41 Y-14.973
X-3.42 Y-14.922 Z-0.993
X-3.429 Y-14.875 Z-0.973
X-3.437 Y-14.834 Z-0.941
X-3.444 Y-14.803 Z-0.9
X-3.447 Y-14.783 Z-0.852
X-3.449 Y-14.777 Z-0.8
G00 Z5.
X-3.357 Y-22.67
G01 Z0.4 F500.
Z-0.8
X-3.351 Y-22.667 Z-0.852 F1000.
X-3.332 Y-22.659 Z-0.9
X-3.303 Y-22.646 Z-0.941
X-3.265 Y-22.629 Z-0.973
X-3.221 Y-22.61 Z-0.993
X-3.174 Y-22.588 Z-1.
X-2.991 Y-22.507
G03 X-2.89 Y-22.243 I-0.081 J0.183
G01 X-2.931 Y-22.15 F2475.
X-2.948 Y-22.112
X-3.035 Y-21.891
X-3.05 Y-21.85
X-3.126 Y-21.63
X-3.14 Y-21.587
X-3.205 Y-21.369
X-3.217 Y-21.323
X-3.271 Y-21.105
X-3.282 Y-21.058
X-3.324 Y-20.841
X-3.333 Y-20.792
X-3.364 Y-20.576
X-3.37 Y-20.525
X-3.39 Y-20.31
X-3.393 Y-20.258
X-3.402 Y-20.044
X-3.403 Y-19.992
X-3.401 Y-19.778
X-3.399 Y-19.725
X-3.385 Y-19.512
X-3.38 Y-19.46
X-3.356 Y-19.248
X-3.348 Y-19.196
X-3.312 Y-18.985
X-3.302 Y-18.934
X-3.255 Y-18.723
X-3.242 Y-18.674
X-3.184 Y-18.464
X-3.169 Y-18.416
X-3.099 Y-18.208
X-3.082 Y-18.162
X-3.054 Y-18.088
X-3.365 Y-18.152
X-3.818 Y-18.266
X-4.275 Y-18.4
X-4.738 Y-18.555
X-5.207 Y-18.731
X-5.681 Y-18.929
X-6.161 Y-19.147
X-6.646 Y-19.387
X-7.136 Y-19.649
X-7.632 Y-19.933
X-8.133 Y-20.238
X-8.329 Y-20.365
X-8.403 Y-20.635
X-8.566 Y-21.256
X-8.718 Y-21.864
X-8.86 Y-22.458
X-8.992 Y-23.039
X-9.113 Y-23.607
X-9.224 Y-24.162
X-9.324 Y-24.703
X-9.414 Y-25.231
X-9.493 Y-25.745
X-9.562 Y-26.246
X-9.621 Y-26.734
X-9.67 Y-27.207
X-9.708 Y-27.667
X-9.736 Y-28.113
X-9.754 Y-28.546
X-9.763 Y-28.964
X-9.761 Y-29.368
X-9.749 Y-29.759
X-9.728 Y-30.135
X-9.697 Y-30.496
X-9.657 Y-30.844
X-9.607 Y-31.177
X-9.549 Y-31.495
X-9.481 Y-31.799
X-9.406 Y-32.089
X-9.321 Y-32.365
X-9.229 Y-32.626
X-9.129 Y-32.873
X-9.022 Y-33.106
X-8.907 Y-33.326
X-8.791 Y-33.523
X-8.528 Y-33.901
X-8.252 Y-34.264
X-7.975 Y-34.596
X-7.698 Y-34.898
X-7.42 Y-35.171
X-7.144 Y-35.415
X-6.871 Y-35.629
X-6.601 Y-35.815
X-6.335 Y-35.973
X-6.074 Y-36.104
X-5.819 Y-36.209
X-5.57 Y-36.29
X-5.327 Y-36.347
X-5.09 Y-36.381
X-4.858 Y-36.394
X-4.629 Y-36.386
X-4.402 Y-36.356
X-4.177 Y-36.306
X-3.952 Y-36.234
X-3.727 Y-36.139
X-3.5 Y-36.02
X-3.272 Y-35.875
X-3.043 Y-35.703
X-2.814 Y-35.504
X-2.586 Y-35.275
X-2.359 Y-35.017
X-2.136 Y-34.729
X-1.916 Y-34.41
X-1.702 Y-34.06
X-1.493 Y-33.679
X-1.406 Y-33.5
X-1.461 Y-33.455
X-1.489 Y-33.43
X-1.783 Y-33.167
X-1.812 Y-33.139
X-2.085 Y-32.874
X-2.116 Y-32.843
X-2.368 Y-32.576
X-2.399 Y-32.541
X-2.631 Y-32.271
X-2.663 Y-32.233
X-2.874 Y-31.961
X-2.906 Y-31.918
X-3.097 Y-31.644
X-3.127 Y-31.597
X-3.298 Y-31.32
X-3.327 Y-31.269
X-3.478 Y-30.989
X-3.505 Y-30.934
X-3.635 Y-30.652
X-3.66 Y-30.593
X-3.769 Y-30.309
X-3.791 Y-30.246
X-3.88 Y-29.959
X-3.898 Y-29.894
X-3.966 Y-29.605
X-3.98 Y-29.537
X-4.028 Y-29.245
X-4.037 Y-29.176
X-4.064 Y-28.883
X-4.068 Y-28.813
X-4.075 Y-28.517
Y-28.448
X-4.061 Y-28.15
X-4.056 Y-28.083
X-4.022 Y-27.782
X-4.013 Y-27.718
X-3.958 Y-27.414
X-3.945 Y-27.353
X-3.87 Y-27.048
X-3.854 Y-26.99
X-3.759 Y-26.682
X-3.741 Y-26.628
X-3.625 Y-26.318
X-3.605 Y-26.268
X-3.469 Y-25.955
X-3.447 Y-25.909
X-3.291 Y-25.594
X-3.269 Y-25.552
X-3.091 Y-25.235
X-3.069 Y-25.196
X-2.871 Y-24.877
X-2.849 Y-24.842
X-2.631 Y-24.52
X-2.609 Y-24.488
X-2.37 Y-24.163
X-2.348 Y-24.135
X-2.089 Y-23.808
X-2.068 Y-23.782
X-2.024 Y-23.731
X-2.064 Y-23.676
X-2.083 Y-23.65
X-2.237 Y-23.425
X-2.255 Y-23.397
X-2.399 Y-23.172
X-2.417 Y-23.143
X-2.549 Y-22.919
X-2.567 Y-22.887
X-2.688 Y-22.664
X-2.706 Y-22.63
X-2.816 Y-22.408
X-2.833 Y-22.372
X-2.89 Y-22.243
G03 X-3.154 Y-22.142 I-0.183 J-0.081 F1000.
G01 X-3.337 Y-22.223
X-3.384 Y-22.244 Z-0.993
X-3.428 Y-22.264 Z-0.973
X-3.466 Y-22.281 Z-0.941
X-3.495 Y-22.294 Z-0.9
X-3.513 Y-22.302 Z-0.852
X-3.52 Y-22.304 Z-0.8
G00 Z5.
X1.902 Y-18.565
G01 Z0.4 F500.
Z-0.8
X1.903 Y-18.558 Z-0.852 F1000.
X1.907 Y-18.539 Z-0.9
X1.913 Y-18.507 Z-0.941
X1.92 Y-18.467 Z-0.973
X1.929 Y-18.419 Z-0.993
X1.938 Y-18.368 Z-1.
X1.974 Y-18.171
G03 X1.813 Y-17.939 I-0.197 J0.036
G01 X1.638 Y-17.907 F2475.
X0.785 Y-17.778
X0.373 Y-17.728
X0.137 Y-17.991
X-0.085 Y-18.28
X-0.191 Y-18.439
X-0.338 Y-18.69
X-0.453 Y-18.932
X-0.542 Y-19.169
X-0.606 Y-19.404
X-0.647 Y-19.639
X-0.665 Y-19.875
X-0.661 Y-20.115
X-0.633 Y-20.362
X-0.581 Y-20.618
X-0.504 Y-20.884
X-0.398 Y-21.16
X-0.264 Y-21.447
X-0.1 Y-21.744
X0.095 Y-22.052
X0.232 Y-22.243
X0.251 Y-22.24
X0.821 Y-22.161
X0.865 Y-22.156
X1.431 Y-22.102
X1.477 Y-22.099
X2.04 Y-22.072
X2.086 Y-22.07
X2.646 Y-22.069
X2.693 Y-22.07
X3.249 Y-22.094
X3.296 Y-22.098
X3.849 Y-22.148
X3.896 Y-22.153
X4.446 Y-22.23
X4.492 Y-22.237
X5.039 Y-22.34
X5.084 Y-22.349
X5.627 Y-22.478
X5.672 Y-22.489
X6.212 Y-22.643
X6.256 Y-22.657
X6.792 Y-22.837
X6.834 Y-22.853
X7.367 Y-23.059
X7.408 Y-23.075
X7.937 Y-23.308
X7.976 Y-23.326
X8.502 Y-23.584
X8.539 Y-23.603
X9.062 Y-23.887
X9.097 Y-23.907
X9.616 Y-24.217
X9.649 Y-24.237
X10.165 Y-24.573
X10.196 Y-24.594
X10.708 Y-24.956
X10.737 Y-24.978
X11.246 Y-25.365
X11.274 Y-25.387
X11.779 Y-25.801
X11.805 Y-25.822
X12.307 Y-26.262
X12.331 Y-26.283
X12.829 Y-26.749
X12.851 Y-26.77
X13.347 Y-27.262
X13.367 Y-27.283
X13.859 Y-27.8
X13.878 Y-27.821
X14.367 Y-28.364
X14.384 Y-28.384
X14.819 Y-28.894
X14.78 Y-28.745
X14.671 Y-28.37
X14.557 Y-28.001
X14.436 Y-27.641
X14.31 Y-27.293
X14.033 Y-26.602
X13.733 Y-25.945
X13.408 Y-25.316
X13.057 Y-24.714
X12.682 Y-24.139
X12.282 Y-23.59
X11.857 Y-23.067
X11.408 Y-22.569
X10.934 Y-22.096
X10.435 Y-21.647
X9.911 Y-21.221
X9.362 Y-20.819
X8.787 Y-20.441
X8.187 Y-20.085
X7.561 Y-19.752
X6.91 Y-19.442
X6.233 Y-19.155
X5.531 Y-18.89
X4.803 Y-18.648
X4.049 Y-18.429
X3.271 Y-18.232
X2.467 Y-18.058
X1.813 Y-17.939
G03 X1.581 Y-18.1 I-0.036 J-0.197 F1000.
G01 X1.545 Y-18.296
X1.535 Y-18.347 Z-0.993
X1.527 Y-18.395 Z-0.973
X1.519 Y-18.435 Z-0.941
X1.514 Y-18.467 Z-0.9
X1.51 Y-18.486 Z-0.852
X1.509 Y-18.493 Z-0.8
G00 Z5.
X2.279 Y-30.118
G01 Z0.4 F500.
Z-0.8
X2.28 Y-30.125 Z-0.852 F1000.
X2.283 Y-30.144 Z-0.9
X2.288 Y-30.176 Z-0.941
X2.294 Y-30.217 Z-0.973
X2.302 Y-30.264 Z-0.993
X2.31 Y-30.315 Z-1.
X2.341 Y-30.513
G03 X2.57 Y-30.679 I0.198 J0.031
G01 X2.694 Y-30.659 F2475.
X2.755 Y-30.652
X3.062 Y-30.622
X3.127 Y-30.618
X3.427 Y-30.609
X3.496
X3.789 Y-30.62
X3.86 Y-30.626
X4.146 Y-30.657
X4.219 Y-30.668
X4.497 Y-30.72
X4.571 Y-30.737
X4.842 Y-30.809
X4.916 Y-30.833
X5.179 Y-30.925
X5.251 Y-30.954
X5.506 Y-31.067
X5.576 Y-31.101
X5.823 Y-31.235
X5.888 Y-31.273
X6.128 Y-31.427
X6.188 Y-31.468
X6.421 Y-31.643
X6.476 Y-31.686
X6.701 Y-31.881
X6.75 Y-31.926
X6.968 Y-32.141
X7.011 Y-32.186
X7.221 Y-32.422
X7.259 Y-32.467
X7.462 Y-32.723
X7.495 Y-32.766
X7.69 Y-33.043
X7.719 Y-33.085
X7.907 Y-33.382
X7.931 Y-33.422
X8.112 Y-33.739
X8.133 Y-33.778
X8.306 Y-34.115
X8.324 Y-34.151
X8.489 Y-34.509
X8.504 Y-34.543
X8.663 Y-34.921
X8.675 Y-34.954
X8.826 Y-35.352
X8.837 Y-35.382
X8.851 Y-35.423
X8.872 Y-35.421
X9.135 Y-35.393
X9.175 Y-35.389
X9.433 Y-35.372
X9.475 Y-35.37
X9.73 Y-35.364
X9.773
X10.025 Y-35.369
X10.069 Y-35.371
X10.317 Y-35.386
X10.362 Y-35.39
X10.607 Y-35.417
X10.652 Y-35.422
X10.894 Y-35.46
X10.94 Y-35.468
X11.178 Y-35.516
X11.224 Y-35.527
X11.458 Y-35.586
X11.503 Y-35.599
X11.734 Y-35.669
X11.779 Y-35.683
X12.006 Y-35.764
X12.051 Y-35.781
X12.274 Y-35.873
X12.317 Y-35.892
X12.537 Y-35.995
X12.579 Y-36.015
X12.795 Y-36.129
X12.836 Y-36.151
X13.049 Y-36.276
X13.087 Y-36.299
X13.296 Y-36.435
X13.333 Y-36.459
X13.539 Y-36.605
X13.573 Y-36.631
X13.776 Y-36.788
X13.807 Y-36.814
X14.006 Y-36.982
X14.037 Y-37.008
X14.232 Y-37.187
X14.26 Y-37.214
X14.452 Y-37.404
X14.478 Y-37.43
X14.667 Y-37.631
X14.691 Y-37.657
X14.876 Y-37.869
X14.898 Y-37.895
X14.983 Y-38.
X15.029 Y-37.849
X15.116 Y-37.523
X15.199 Y-37.174
X15.277 Y-36.802
X15.351 Y-36.407
X15.419 Y-35.989
X15.482 Y-35.55
X15.54 Y-35.088
X15.593 Y-34.603
X15.606 Y-34.46
X15.297 Y-34.028
X14.778 Y-33.326
X14.261 Y-32.653
X13.745 Y-32.006
X13.23 Y-31.388
X12.717 Y-30.797
X12.206 Y-30.234
X11.696 Y-29.698
X11.188 Y-29.19
X10.682 Y-28.709
X10.179 Y-28.256
X9.677 Y-27.83
X9.178 Y-27.431
X8.682 Y-27.06
X8.187 Y-26.716
X7.696 Y-26.399
X7.207 Y-26.109
X6.721 Y-25.845
X6.238 Y-25.608
X5.758 Y-25.397
X5.281 Y-25.212
X4.807 Y-25.053
X4.335 Y-24.918
X3.865 Y-24.809
X3.398 Y-24.725
X2.932 Y-24.666
X2.468 Y-24.631
X2.005 Y-24.62
X1.543 Y-24.633
X1.081 Y-24.671
X0.618 Y-24.734
X0.47 Y-24.761
X0.429 Y-24.808
X0.188 Y-25.099
X-0.034 Y-25.386
X-0.238 Y-25.667
X-0.422 Y-25.942
X-0.588 Y-26.212
X-0.736 Y-26.475
X-0.866 Y-26.733
X-0.978 Y-26.984
X-1.073 Y-27.228
X-1.151 Y-27.466
X-1.214 Y-27.698
X-1.26 Y-27.923
X-1.292 Y-28.142
X-1.308 Y-28.356
X-1.311 Y-28.566
X-1.3 Y-28.771
X-1.275 Y-28.974
X-1.237 Y-29.174
X-1.184 Y-29.374
X-1.117 Y-29.573
X-1.036 Y-29.772
X-0.938 Y-29.972
X-0.824 Y-30.174
X-0.694 Y-30.377
X-0.546 Y-30.581
X-0.38 Y-30.787
X-0.195 Y-30.993
X0.008 Y-31.201
X0.23 Y-31.409
X0.254 Y-31.429
X0.417 Y-31.351
X0.453 Y-31.334
X0.805 Y-31.183
X0.845 Y-31.166
X1.19 Y-31.035
X1.233 Y-31.02
X1.57 Y-30.908
X1.618 Y-30.894
X1.948 Y-30.803
X2. Y-30.79
X2.322 Y-30.72
X2.379 Y-30.709
X2.57 Y-30.679
G03 X2.736 Y-30.45 I-0.031 J0.198 F1000.
G01 X2.705 Y-30.253
X2.697 Y-30.202 Z-0.993
X2.689 Y-30.154 Z-0.973
X2.683 Y-30.113 Z-0.941
X2.678 Y-30.082 Z-0.9
X2.675 Y-30.062 Z-0.852
X2.674 Y-30.055 Z-0.8
G00 Z5.
X5.264 Y-38.128
G01 Z0.4 F500.
Z-0.8
X5.27 Y-38.131 Z-0.852 F1000.
X5.287 Y-38.141 Z-0.9
X5.315 Y-38.156 Z-0.941
X5.352 Y-38.176 Z-0.973
X5.394 Y-38.199 Z-0.993
X5.44 Y-38.223 Z-1.
X5.615 Y-38.319
G03 X5.887 Y-38.239 I0.095 J0.176
G01 X6.05 Y-37.938 F2475.
X6.232 Y-37.552
X6.392 Y-37.157
X6.457 Y-36.966
X6.435 Y-36.84
X6.366 Y-36.499
X6.288 Y-36.177
X6.203 Y-35.874
X6.111 Y-35.591
X6.012 Y-35.328
X5.907 Y-35.084
X5.795 Y-34.86
X5.679 Y-34.654
X5.558 Y-34.467
X5.433 Y-34.297
X5.303 Y-34.145
X5.17 Y-34.009
X5.032 Y-33.887
X4.89 Y-33.78
X4.742 Y-33.685
X4.587 Y-33.602
X4.425 Y-33.53
X4.254 Y-33.469
X4.072 Y-33.42
X3.879 Y-33.382
X3.673 Y-33.355
X3.454 Y-33.341
X3.221
X2.975 Y-33.354
X2.716 Y-33.382
X2.442 Y-33.425
X2.155 Y-33.483
X1.855 Y-33.558
X1.541 Y-33.649
X1.265 Y-33.74
X1.235 Y-33.81
X1.224 Y-33.834
X1.018 Y-34.279
X1.006 Y-34.305
X0.796 Y-34.727
X0.782 Y-34.754
X0.567 Y-35.155
X0.551 Y-35.184
X0.332 Y-35.562
X0.314 Y-35.592
X0.091 Y-35.948
X0.069 Y-35.98
X-0.158 Y-36.314
X-0.182 Y-36.347
X-0.414 Y-36.659
X-0.442 Y-36.694
X-0.678 Y-36.983
X-0.71 Y-37.02
X-0.95 Y-37.286
X-0.987 Y-37.324
X-1.232 Y-37.568
X-1.273 Y-37.607
X-1.522 Y-37.829
X-1.569 Y-37.868
X-1.822 Y-38.067
X-1.874 Y-38.106
X-2.132 Y-38.283
X-2.19 Y-38.32
X-2.452 Y-38.474
X-2.516 Y-38.509
X-2.782 Y-38.641
X-2.85 Y-38.672
X-3.121 Y-38.782
X-3.194 Y-38.808
X-3.469 Y-38.896
X-3.545 Y-38.917
X-3.825 Y-38.983
X-3.903 Y-38.998
X-4.186 Y-39.041
X-4.265 Y-39.05
X-4.553 Y-39.07
X-4.63 Y-39.073
X-4.923 Y-39.071
X-4.998 Y-39.068
X-5.294 Y-39.044
X-5.366 Y-39.036
X-5.667 Y-38.99
X-5.734 Y-38.977
X-6.04 Y-38.908
X-6.102 Y-38.892
X-6.412 Y-38.801
X-6.47 Y-38.782
X-6.784 Y-38.669
X-6.836 Y-38.649
X-7.155 Y-38.513
X-7.203 Y-38.491
X-7.526 Y-38.333
X-7.569 Y-38.311
X-7.759 Y-38.206
X-7.763 Y-38.212
X-7.805 Y-38.271
X-8.096 Y-38.644
X-8.145 Y-38.701
X-8.459 Y-39.047
X-8.513 Y-39.102
X-8.85 Y-39.421
X-8.909 Y-39.471
X-9.269 Y-39.763
X-9.331 Y-39.809
X-9.715 Y-40.073
X-9.779 Y-40.114
X-10.186 Y-40.351
X-10.251 Y-40.385
X-10.682 Y-40.595
X-10.747 Y-40.624
X-11.201 Y-40.806
X-11.264 Y-40.829
X-11.741 Y-40.984
X-11.803 Y-41.002
X-12.303 Y-41.13
X-12.362 Y-41.143
X-12.886 Y-41.243
X-12.941 Y-41.252
X-13.09 Y-41.272
X-12.895 Y-41.57
X-12.627 Y-41.96
X-12.355 Y-42.339
X-12.076 Y-42.708
X-11.793 Y-43.068
X-11.504 Y-43.417
X-11.21 Y-43.756
X-10.911 Y-44.086
X-10.606 Y-44.405
X-10.296 Y-44.715
X-9.981 Y-45.015
X-9.664 Y-45.302
X-9.18 Y-45.239
X-8.285 Y-45.107
X-7.416 Y-44.965
X-6.573 Y-44.812
X-5.756 Y-44.649
X-4.965 Y-44.476
X-4.2 Y-44.293
X-3.461 Y-44.099
X-2.748 Y-43.896
X-2.062 Y-43.682
X-1.402 Y-43.459
X-0.768 Y-43.226
X-0.161 Y-42.984
X0.42 Y-42.732
X0.975 Y-42.471
X1.503 Y-42.201
X2.005 Y-41.922
X2.481 Y-41.634
X2.931 Y-41.338
X3.355 Y-41.034
X3.753 Y-40.722
X4.125 Y-40.401
X4.473 Y-40.073
X4.795 Y-39.737
X5.094 Y-39.393
X5.368 Y-39.042
X5.618 Y-38.682
X5.846 Y-38.314
X5.887 Y-38.239
G03 X5.806 Y-37.967 I-0.176 J0.095 F1000.
G01 X5.631 Y-37.872
X5.585 Y-37.847 Z-0.993
X5.543 Y-37.824 Z-0.973
X5.506 Y-37.804 Z-0.941
X5.478 Y-37.789 Z-0.9
X5.461 Y-37.78 Z-0.852
X5.455 Y-37.777 Z-0.8
G00 Z5.
X12.066 Y-42.186
G01 Z0.4 F500.
Z-0.8
X12.072 Y-42.19 Z-0.852 F1000.
X12.088 Y-42.201 Z-0.9
X12.114 Y-42.22 Z-0.941
X12.148 Y-42.243 Z-0.973
X12.188 Y-42.271 Z-0.993
X12.23 Y-42.301 Z-1.
X12.393 Y-42.416
G03 X12.672 Y-42.368 I0.115 J0.163
G01 X12.778 Y-42.218 F2475.
X13.006 Y-41.871
X13.223 Y-41.514
X13.429 Y-41.147
X13.623 Y-40.771
X13.625 Y-40.767
X13.582 Y-40.668
X13.475 Y-40.444
X13.364 Y-40.232
X13.249 Y-40.031
X13.131 Y-39.841
X13.009 Y-39.663
X12.883 Y-39.495
X12.754 Y-39.338
X12.621 Y-39.192
X12.485 Y-39.055
X12.345 Y-38.928
X12.202 Y-38.81
X12.055 Y-38.701
X11.903 Y-38.601
X11.747 Y-38.51
X11.587 Y-38.426
X11.421 Y-38.35
X11.249 Y-38.282
X11.072 Y-38.223
X10.888 Y-38.171
X10.697 Y-38.127
X10.499 Y-38.091
X10.294 Y-38.063
X10.081 Y-38.044
X9.861 Y-38.033
X9.633 Y-38.032
X9.397 Y-38.039
X9.153 Y-38.056
X8.93 Y-38.079
X8.763 Y-38.484
X8.742 Y-38.533
X8.53 Y-38.978
X8.507 Y-39.025
X8.271 Y-39.46
X8.245 Y-39.505
X7.986 Y-39.93
X7.958 Y-39.973
X7.675 Y-40.387
X7.646 Y-40.428
X7.339 Y-40.831
X7.309 Y-40.87
X6.978 Y-41.262
X6.946 Y-41.298
X6.592 Y-41.68
X6.56 Y-41.713
X6.182 Y-42.084
X6.15 Y-42.115
X5.748 Y-42.475
X5.715 Y-42.503
X5.29 Y-42.853
X5.258 Y-42.879
X4.809 Y-43.218
X4.777 Y-43.241
X4.304 Y-43.57
X4.273 Y-43.591
X3.776 Y-43.908
X3.746 Y-43.927
X3.226 Y-44.234
X3.196 Y-44.251
X2.652 Y-44.548
X2.623 Y-44.563
X2.056 Y-44.849
X2.028 Y-44.862
X1.436 Y-45.137
X1.41 Y-45.149
X0.795 Y-45.414
X0.769 Y-45.425
X0.13 Y-45.678
X0.105 Y-45.688
X-0.557 Y-45.931
X-0.581 Y-45.939
X-1.267 Y-46.172
X-1.289 Y-46.179
X-1.999 Y-46.401
X-2.021 Y-46.408
X-2.755 Y-46.619
X-2.775 Y-46.624
X-3.533 Y-46.825
X-3.552 Y-46.83
X-4.333 Y-47.02
X-4.352 Y-47.024
X-5.157 Y-47.203
X-5.175 Y-47.207
X-5.937 Y-47.362
X-5.776 Y-47.431
X-5.435 Y-47.565
X-5.086 Y-47.69
X-4.731 Y-47.805
X-4.369 Y-47.912
X-4.002 Y-48.009
X-3.629 Y-48.098
X-3.251 Y-48.176
X-2.868 Y-48.246
X-2.481 Y-48.306
X-2.09 Y-48.357
X-1.695 Y-48.398
X-1.297 Y-48.43
X-0.896 Y-48.452
X-0.492 Y-48.465
X-0.087 Y-48.468
X0.32 Y-48.461
X0.729 Y-48.445
X1.139 Y-48.419
X1.549 Y-48.384
X1.959 Y-48.339
X2.369 Y-48.284
X2.778 Y-48.22
X3.187 Y-48.146
X3.594 Y-48.063
X4. Y-47.97
X4.403 Y-47.867
X4.804 Y-47.754
X5.203 Y-47.632
X5.598 Y-47.501
X5.989 Y-47.359
X6.377 Y-47.209
X6.76 Y-47.048
X7.139 Y-46.879
X7.512 Y-46.699
X7.881 Y-46.511
X8.243 Y-46.312
X8.6 Y-46.105
X8.95 Y-45.888
X9.294 Y-45.661
X9.63 Y-45.426
X9.959 Y-45.181
X10.281 Y-44.926
X10.594 Y-44.662
X10.899 Y-44.389
X11.196 Y-44.107
X11.484 Y-43.816
X11.762 Y-43.515
X12.031 Y-43.205
X12.29 Y-42.885
X12.539 Y-42.556
X12.672 Y-42.368
G03 X12.624 Y-42.09 I-0.163 J0.115 F1000.
G01 X12.46 Y-41.974
X12.418 Y-41.944 Z-0.993
X12.379 Y-41.917 Z-0.973
X12.345 Y-41.893 Z-0.941
X12.319 Y-41.874 Z-0.9
X12.303 Y-41.863 Z-0.852
X12.297 Y-41.859 Z-0.8
G00 Z5.
X7.521 Y-55.661
G01 Z0.4 F500.
Z-0.8
X7.528 Z-0.852 F1000.
X7.548 Z-0.9
X7.58 Z-0.941
X7.621 Z-0.973
X7.669 Z-0.993
X7.721 Z-1.
X7.921 Y-55.662
G03 X8.121 Y-55.462 J0.2
G01 X8.122 Y-55.184 F2475.
Y-55.183
X8.123 Y-54.64
Y-54.638
X8.126 Y-54.07
Y-54.069
X8.129 Y-53.475
Y-53.473
X8.133 Y-52.854
Y-52.853
X8.138 Y-52.208
Y-52.207
X8.145 Y-51.537
Y-51.535
X8.153 Y-50.84
Y-50.838
X8.161 Y-50.117
Y-50.116
X8.169 Y-49.528
X8.03 Y-49.598
X7.998 Y-49.614
X7.446 Y-49.87
X7.413 Y-49.884
X6.855 Y-50.119
X6.822 Y-50.132
X6.259 Y-50.346
X6.225 Y-50.358
X5.657 Y-50.551
X5.623 Y-50.562
X5.05 Y-50.734
X5.016 Y-50.743
X4.44 Y-50.895
X4.405 Y-50.903
X3.825 Y-51.034
X3.791 Y-51.041
X3.208 Y-51.151
X3.173 Y-51.157
X2.588 Y-51.246
X2.553 Y-51.25
X1.966 Y-51.319
X1.931 Y-51.322
X1.342 Y-51.37
X1.307 Y-51.372
X0.718 Y-51.398
X0.683 Y-51.399
X0.093 Y-51.405
X0.058
X-0.532 Y-51.39
X-0.567 Y-51.389
X-1.156 Y-51.353
X-1.191 Y-51.351
X-1.779 Y-51.294
X-1.814 Y-51.29
X-2.4 Y-51.214
X-2.435 Y-51.208
X-3.019 Y-51.111
X-3.053 Y-51.105
X-3.635 Y-50.986
X-3.67 Y-50.979
X-4.248 Y-50.84
X-4.282 Y-50.831
X-4.857 Y-50.672
X-4.891 Y-50.662
X-5.462 Y-50.482
X-5.495 Y-50.471
X-6.062 Y-50.27
X-6.094 Y-50.258
X-6.656 Y-50.037
X-6.688 Y-50.023
X-7.244 Y-49.782
X-7.276 Y-49.767
X-7.826 Y-49.505
X-7.857 Y-49.489
X-7.999 Y-49.415
X-7.997 Y-50.053
X-7.995 Y-50.789
X-7.992 Y-51.5
X-7.99 Y-52.185
X-7.988 Y-52.844
X-7.986 Y-53.477
X-7.984 Y-54.084
X-7.982 Y-54.665
X-7.98 Y-55.221
X-7.978 Y-55.75
X-7.977 Y-56.254
X-7.975 Y-56.732
X-7.974 Y-57.184
X-7.972 Y-57.611
X-7.971 Y-58.011
X-7.97 Y-58.386
X-7.969 Y-58.735
X-7.967 Y-59.058
X-7.966 Y-59.355
Y-59.626
X-7.965 Y-59.872
Y-59.912
X8.144 Y-59.755
Y-59.741
Y-59.739
X8.141 Y-59.5
Y-59.499
X8.138 Y-59.234
Y-59.233
X8.135 Y-58.943
Y-58.942
X8.132 Y-58.627
Y-58.625
X8.129 Y-58.285
Y-58.284
X8.126 Y-57.918
Y-57.917
X8.124 Y-57.526
Y-57.524
X8.123 Y-57.108
Y-57.107
X8.121 Y-56.665
Y-56.664
Y-56.197
Y-56.195
Y-55.703
Y-55.702
Y-55.462
G03 X7.922 Y-55.262 I-0.2 F1000.
G01 X7.722 Y-55.261
X7.67 Z-0.993
X7.622 Z-0.973
X7.58 Z-0.941
X7.548 Z-0.9
X7.528 Z-0.852
X7.522 Z-0.8
G00 Z5.
X3.171 Y-71.814
G01 Z0.4 F500.
Z-0.8
X3.175 Y-71.819 Z-0.852 F1000.
X3.188 Y-71.834 Z-0.9
X3.209 Y-71.858 Z-0.941
X3.236 Y-71.89 Z-0.973
X3.267 Y-71.926 Z-0.993
X3.301 Y-71.965 Z-1.
X3.432 Y-72.117
G03 X3.714 Y-72.137 I0.151 J0.131
G01 X9.927 Y-66.771 F2475.
G02 X10.502 Y-66.531 I0.654 J-0.757
G01 X11.536 Y-66.449
X12.557 Y-66.36
X13.568 Y-66.262
X14.57 Y-66.156
X15.563 Y-66.041
X16.546 Y-65.919
X17.52 Y-65.788
X18.485 Y-65.648
X19.441 Y-65.501
X20.388 Y-65.345
X21.325 Y-65.18
X22.253 Y-65.008
X23.171 Y-64.827
X24.081 Y-64.638
X24.981 Y-64.44
X25.871 Y-64.234
X26.753 Y-64.021
X27.625 Y-63.798
X28.488 Y-63.568
X29.342 Y-63.329
X30.187 Y-63.082
X31.022 Y-62.827
X31.848 Y-62.563
X32.665 Y-62.292
X33.472 Y-62.012
X34.271 Y-61.724
X35.06 Y-61.427
X35.84 Y-61.123
X36.61 Y-60.81
X37.372 Y-60.489
X38.124 Y-60.16
X38.867 Y-59.822
X39.601 Y-59.477
X40.326 Y-59.123
X41.041 Y-58.761
X41.747 Y-58.391
X42.444 Y-58.013
X43.132 Y-57.627
X43.811 Y-57.232
X44.481 Y-56.829
X45.142 Y-56.418
X45.793 Y-55.999
X46.436 Y-55.572
X47.069 Y-55.136
X47.693 Y-54.693
X48.308 Y-54.241
X48.915 Y-53.781
X49.512 Y-53.313
X50.1 Y-52.837
X50.679 Y-52.352
X51.249 Y-51.859
X51.81 Y-51.359
X52.362 Y-50.85
X52.905 Y-50.332
X53.439 Y-49.807
X53.964 Y-49.273
X54.48 Y-48.731
X54.988 Y-48.181
X55.486 Y-47.622
X55.976 Y-47.055
X56.456 Y-46.48
X56.928 Y-45.897
X57.39 Y-45.305
X57.837 Y-44.716
X58.521 Y-43.729
X59.184 Y-42.722
X59.821 Y-41.701
X60.432 Y-40.666
X61.017 Y-39.618
X61.576 Y-38.556
X62.109 Y-37.48
X62.616 Y-36.39
X63.097 Y-35.286
X63.553 Y-34.168
X63.982 Y-33.036
X64.386 Y-31.89
X64.763 Y-30.73
X65.115 Y-29.556
X65.441 Y-28.368
X65.74 Y-27.165
X66.014 Y-25.948
X66.262 Y-24.717
X66.484 Y-23.472
X66.68 Y-22.212
X66.85 Y-20.938
X66.994 Y-19.649
X67.112 Y-18.347
X67.204 Y-17.029
X67.27 Y-15.697
X67.31 Y-14.351
X67.323 Y-12.99
X67.311 Y-11.615
X67.272 Y-10.226
X67.207 Y-8.821
X67.116 Y-7.403
X66.998 Y-5.961
G02 X67.281 Y-5.179 I0.997 J0.082
G01 X67.685 Y-4.767
X68.077 Y-4.368
X68.455 Y-3.981
X68.821 Y-3.608
X69.174 Y-3.248
X69.514 Y-2.901
X69.841 Y-2.568
X70.156 Y-2.247
X70.457 Y-1.939
X70.746 Y-1.645
X71.022 Y-1.363
X71.285 Y-1.095
X71.535 Y-0.84
X71.772 Y-0.597
X71.997 Y-0.368
X72.209 Y-0.152
X72.408 Y0.051
X72.594 Y0.24
X72.767 Y0.417
X72.927 Y0.581
X73.075 Y0.731
X73.21 Y0.869
X73.219 Y0.878
X72.94 Y1.214
X72.931 Y1.224
X72.099 Y2.254
X72.09 Y2.265
X71.282 Y3.294
X71.273 Y3.306
X70.488 Y4.334
X70.479 Y4.346
X69.719 Y5.375
X69.71 Y5.387
X68.975 Y6.415
X68.966 Y6.428
X68.254 Y7.456
X68.245 Y7.469
X67.557 Y8.497
X67.548 Y8.51
X66.885 Y9.537
X66.876 Y9.551
X66.236 Y10.578
X66.228 Y10.593
X65.612 Y11.619
X65.603 Y11.634
X65.012 Y12.661
X65.004 Y12.676
X64.437 Y13.702
X64.428 Y13.718
X63.885 Y14.744
X63.877 Y14.76
X63.358 Y15.785
X63.35 Y15.802
X62.855 Y16.827
X62.847 Y16.844
X62.377 Y17.869
X62.369 Y17.887
X61.923 Y18.911
X61.915 Y18.93
X61.493 Y19.954
X61.485 Y19.972
X61.087 Y20.996
X61.08 Y21.015
X60.706 Y22.039
X60.699 Y22.058
X60.35 Y23.082
X60.343 Y23.102
X60.018 Y24.124
X60.011 Y24.145
X59.71 Y25.167
X59.704 Y25.188
X59.427 Y26.21
X59.421 Y26.232
X59.168 Y27.254
X59.163 Y27.275
X58.934 Y28.297
X58.929 Y28.319
X58.725 Y29.34
X58.721 Y29.362
X58.54 Y30.383
X58.536 Y30.406
X58.38 Y31.427
X58.376 Y31.449
X58.244 Y32.47
X58.241 Y32.493
X58.133 Y33.513
X58.131 Y33.536
X58.047 Y34.556
X58.045 Y34.579
X57.985 Y35.598
X57.984 Y35.622
X57.948 Y36.641
Y36.665
X57.936 Y37.683
Y37.707
X57.949 Y38.725
Y38.749
X57.986 Y39.767
X57.987 Y39.79
X58.048 Y40.808
X58.05 Y40.832
X58.135 Y41.849
X58.137 Y41.872
X58.246 Y42.889
X58.249 Y42.913
X58.382 Y43.929
X58.385 Y43.953
X58.543 Y44.969
X58.546 Y44.992
X58.728 Y46.008
X58.732 Y46.03
X58.938 Y47.046
X58.943 Y47.068
X59.173 Y48.084
X59.178 Y48.106
X59.432 Y49.121
X59.438 Y49.143
X59.716 Y50.157
X59.722 Y50.179
X60.024 Y51.193
X60.03 Y51.214
X60.357 Y52.228
X60.364 Y52.249
X60.714 Y53.262
X60.721 Y53.282
X61.096 Y54.296
X61.104 Y54.315
X61.502 Y55.329
X61.51 Y55.348
X61.933 Y56.36
X61.941 Y56.379
X62.388 Y57.392
X62.396 Y57.41
X62.868 Y58.422
X62.876 Y58.44
X63.372 Y59.452
X63.38 Y59.469
X63.9 Y60.48
X63.909 Y60.497
X64.452 Y61.508
X64.461 Y61.525
X65.029 Y62.535
X65.038 Y62.551
X65.63 Y63.562
X65.639 Y63.577
X66.255 Y64.587
X66.265 Y64.602
X66.905 Y65.612
X66.914 Y65.626
X67.193 Y66.05
X67.134 Y66.128
X67.042 Y66.25
X66.944 Y66.382
X66.836 Y66.526
X66.722 Y66.679
X66.599 Y66.843
X66.468 Y67.018
X66.329 Y67.204
X66.183 Y67.4
X66.028 Y67.606
X65.866 Y67.823
X65.696 Y68.051
X65.517 Y68.29
X65.331 Y68.538
X65.137 Y68.798
X64.935 Y69.068
X64.725 Y69.349
X64.507 Y69.64
X64.281 Y69.942
X64.047 Y70.255
X63.962 Y70.368
X63.199 Y70.163
X63.178 Y70.157
X61.771 Y69.81
X61.75 Y69.805
X60.354 Y69.492
X60.333 Y69.488
X58.949 Y69.209
X58.926 Y69.205
X57.553 Y68.961
X57.53 Y68.957
X56.169 Y68.748
X56.145 Y68.745
X54.795 Y68.571
X54.771 Y68.568
X53.432 Y68.428
X53.407 Y68.426
X52.08 Y68.32
X52.055 Y68.319
X50.739 Y68.248
X50.713 Y68.247
X49.409 Y68.211
X49.382
X48.089 Y68.209
X48.062 Y68.21
X46.781 Y68.243
X46.753 Y68.244
X45.483 Y68.312
X45.455 Y68.314
X44.196 Y68.416
X44.168 Y68.419
X42.921 Y68.556
X42.893 Y68.559
X41.657 Y68.731
X41.628 Y68.735
X40.404 Y68.942
X40.375 Y68.947
X39.162 Y69.188
X39.133 Y69.194
X37.932 Y69.469
X37.903 Y69.476
X36.713 Y69.786
X36.684 Y69.794
X35.506 Y70.139
X35.477 Y70.148
X34.31 Y70.527
X34.282 Y70.537
X33.126 Y70.951
X33.098 Y70.961
X31.953 Y71.41
X31.926 Y71.421
X30.793 Y71.904
X30.766 Y71.916
X29.644 Y72.434
X29.618 Y72.446
X28.508 Y72.999
X28.482 Y73.012
X27.383 Y73.599
X27.358 Y73.613
X26.27 Y74.234
X26.246 Y74.249
X25.17 Y74.905
X25.146 Y74.92
X24.62 Y75.261
X24.364 Y75.098
X24.352 Y75.091
X23.554 Y74.6
X23.542 Y74.593
X22.746 Y74.118
X22.733 Y74.111
X21.938 Y73.653
X21.925 Y73.645
X21.131 Y73.203
X21.118 Y73.196
X20.325 Y72.77
X20.312 Y72.763
X19.52 Y72.353
X19.506 Y72.346
X18.715 Y71.952
X18.701 Y71.945
X17.911 Y71.567
X17.896 Y71.56
X17.108 Y71.199
X17.092 Y71.192
X16.305 Y70.847
X16.289 Y70.84
X15.503 Y70.511
X15.487 Y70.505
X14.702 Y70.192
X14.686 Y70.185
X13.901 Y69.889
X13.885 Y69.882
X13.101 Y69.602
X13.085 Y69.596
X12.303 Y69.331
X12.285 Y69.326
X11.504 Y69.077
X11.486 Y69.072
X10.707 Y68.84
X10.688 Y68.834
X9.91 Y68.618
X9.891 Y68.613
X9.114 Y68.414
X9.095 Y68.409
X8.318 Y68.225
X8.299 Y68.221
X7.524 Y68.053
X7.504 Y68.049
X6.73 Y67.898
X6.71 Y67.894
X5.937 Y67.759
X5.917 Y67.756
X5.145 Y67.637
X5.125 Y67.634
X4.353 Y67.531
X4.333 Y67.528
X3.563 Y67.442
X3.542 Y67.439
X2.773 Y67.369
X2.753 Y67.367
X1.985 Y67.313
X1.964 Y67.311
X1.197 Y67.273
X1.176 Y67.272
X0.41 Y67.25
X0.389
X-0.375 Y67.244
X-0.396
X-1.16 Y67.254
X-1.181
X-1.944 Y67.281
X-1.965 Y67.282
X-2.726 Y67.324
X-2.747 Y67.326
X-3.508 Y67.384
X-3.529 Y67.386
X-4.288 Y67.461
X-4.309 Y67.463
X-5.067 Y67.554
X-5.088 Y67.557
X-5.845 Y67.664
X-5.866 Y67.667
X-6.622 Y67.79
X-6.643 Y67.794
X-7.398 Y67.933
X-7.418 Y67.937
X-8.172 Y68.093
X-8.192 Y68.097
X-8.945 Y68.269
X-8.965 Y68.274
X-9.717 Y68.462
X-9.737 Y68.467
X-10.487 Y68.671
X-10.507 Y68.676
X-11.256 Y68.897
X-11.275 Y68.902
X-12.024 Y69.139
X-12.043 Y69.145
X-12.79 Y69.398
X-12.808 Y69.404
X-13.555 Y69.673
X-13.573 Y69.679
X-14.318 Y69.964
X-14.336 Y69.971
X-15.08 Y70.272
X-15.097 Y70.28
X-15.84 Y70.597
X-15.858 Y70.604
X-16.599 Y70.938
X-16.616 Y70.945
X-17.357 Y71.295
X-17.373 Y71.303
X-18.113 Y71.668
X-18.129 Y71.676
X-18.868 Y72.058
X-18.883 Y72.066
X-19.621 Y72.464
X-19.636 Y72.473
X-20.372 Y72.887
X-20.387 Y72.895
X-21.123 Y73.326
X-21.137 Y73.334
X-21.871 Y73.78
X-21.885 Y73.789
X-22.618 Y74.252
X-22.632 Y74.261
X-23.364 Y74.739
X-23.377 Y74.748
X-24.108 Y75.243
X-24.121 Y75.252
X-24.303 Y75.38
X-24.874 Y75.016
X-24.896 Y75.002
X-26.037 Y74.316
X-26.06 Y74.302
X-27.208 Y73.653
X-27.232 Y73.64
X-28.386 Y73.028
X-28.411 Y73.015
X-29.573 Y72.44
X-29.598 Y72.428
X-30.766 Y71.89
X-30.793 Y71.878
X-31.968 Y71.377
X-31.995 Y71.366
X-33.177 Y70.902
X-33.204 Y70.891
X-34.393 Y70.464
X-34.421 Y70.454
X-35.618 Y70.064
X-35.646 Y70.055
X-36.849 Y69.702
X-36.878 Y69.694
X-38.088 Y69.377
X-38.117 Y69.37
X-39.334 Y69.091
X-39.363 Y69.084
X-40.587 Y68.842
X-40.616 Y68.836
X-41.847 Y68.631
X-41.877 Y68.626
X-43.114 Y68.457
X-43.144 Y68.454
X-44.388 Y68.322
X-44.418 Y68.319
X-45.669 Y68.225
X-45.699 Y68.223
X-46.957 Y68.165
X-46.987 Y68.164
X-48.252 Y68.143
X-48.281
X-49.553 Y68.159
X-49.582 Y68.16
X-50.86 Y68.213
X-50.889 Y68.215
X-52.175 Y68.305
X-52.202 Y68.307
X-53.495 Y68.434
X-53.523 Y68.437
X-54.822 Y68.601
X-54.849 Y68.605
X-56.155 Y68.806
X-56.182 Y68.81
X-57.495 Y69.048
X-57.521 Y69.053
X-58.841 Y69.328
X-58.866 Y69.334
X-60.193 Y69.645
X-60.217 Y69.651
X-61.551 Y70.
X-61.575 Y70.007
X-62.916 Y70.392
X-62.939 Y70.399
X-63.607 Y70.609
X-67.043 Y65.968
X-66.751 Y65.529
X-66.742 Y65.515
X-66.085 Y64.491
X-66.076 Y64.476
X-65.445 Y63.451
X-65.436 Y63.436
X-64.83 Y62.411
X-64.82 Y62.395
X-64.239 Y61.371
X-64.23 Y61.354
X-63.675 Y60.329
X-63.666 Y60.313
X-63.135 Y59.287
X-63.126 Y59.27
X-62.62 Y58.245
X-62.612 Y58.227
X-62.131 Y57.202
X-62.123 Y57.183
X-61.667 Y56.158
X-61.659 Y56.139
X-61.228 Y55.113
X-61.22 Y55.094
X-60.814 Y54.068
X-60.807 Y54.049
X-60.426 Y53.023
X-60.419 Y53.003
X-60.063 Y51.977
X-60.056 Y51.956
X-59.725 Y50.931
X-59.718 Y50.91
X-59.413 Y49.884
X-59.406 Y49.863
X-59.125 Y48.837
X-59.12 Y48.815
X-58.864 Y47.79
X-58.858 Y47.767
X-58.627 Y46.742
X-58.623 Y46.719
X-58.416 Y45.694
X-58.412 Y45.671
X-58.231 Y44.646
X-58.227 Y44.623
X-58.071 Y43.598
X-58.067 Y43.574
X-57.936 Y42.549
X-57.933 Y42.525
X-57.826 Y41.501
X-57.824 Y41.477
X-57.742 Y40.453
X-57.741 Y40.428
X-57.684 Y39.404
X-57.683 Y39.38
X-57.651 Y38.356
X-57.65 Y38.332
X-57.643 Y37.308
Y37.284
X-57.661 Y36.261
X-57.662 Y36.237
X-57.704 Y35.213
X-57.705 Y35.189
X-57.773 Y34.167
X-57.774 Y34.143
X-57.866 Y33.12
X-57.869 Y33.096
X-57.986 Y32.074
X-57.989 Y32.051
X-58.13 Y31.029
X-58.134 Y31.006
X-58.3 Y29.984
X-58.304 Y29.961
X-58.495 Y28.94
X-58.5 Y28.917
X-58.716 Y27.897
X-58.721 Y27.874
X-58.961 Y26.855
X-58.967 Y26.832
X-59.232 Y25.813
X-59.238 Y25.791
X-59.528 Y24.772
X-59.534 Y24.751
X-59.849 Y23.732
X-59.856 Y23.711
X-60.195 Y22.694
X-60.202 Y22.673
X-60.566 Y21.656
X-60.574 Y21.636
X-60.963 Y20.619
X-60.97 Y20.599
X-61.384 Y19.583
X-61.392 Y19.564
X-61.83 Y18.549
X-61.838 Y18.53
X-62.301 Y17.515
X-62.309 Y17.497
X-62.797 Y16.483
X-62.806 Y16.465
X-63.317 Y15.452
X-63.326 Y15.435
X-63.863 Y14.422
X-63.872 Y14.405
X-64.433 Y13.393
X-64.442 Y13.377
X-65.028 Y12.366
X-65.037 Y12.35
X-65.648 Y11.34
X-65.657 Y11.325
X-66.292 Y10.315
X-66.302 Y10.3
X-66.961 Y9.292
X-66.971 Y9.277
X-67.655 Y8.269
X-67.664 Y8.255
X-68.373 Y7.248
X-68.382 Y7.235
X-69.115 Y6.229
X-69.125 Y6.216
X-69.882 Y5.211
X-69.892 Y5.198
X-70.674 Y4.194
X-70.684 Y4.181
X-71.49 Y3.178
X-71.5 Y3.166
X-72.331 Y2.164
X-72.34 Y2.153
X-73.196 Y1.151
X-73.206 Y1.14
X-73.474 Y0.835
X-73.319 Y0.676
X-72.938 Y0.284
X-72.57 Y-0.094
X-72.215 Y-0.459
X-71.872 Y-0.81
X-71.543 Y-1.148
X-71.226 Y-1.473
X-70.923 Y-1.785
X-70.632 Y-2.083
X-70.354 Y-2.369
X-70.089 Y-2.641
X-69.838 Y-2.899
X-69.598 Y-3.145
X-69.372 Y-3.377
X-69.159 Y-3.596
X-68.959 Y-3.801
X-68.772 Y-3.993
X-68.597 Y-4.172
X-68.436 Y-4.338
X-68.287 Y-4.491
X-68.152 Y-4.63
X-68.029 Y-4.756
X-67.919 Y-4.869
X-67.822 Y-4.968
X-67.738 Y-5.055
X-67.667 Y-5.127
X-67.609 Y-5.187
X-67.564 Y-5.233
Y-5.234
X-67.531 Y-5.267
X-67.53 Y-5.268
X-67.512 Y-5.286
X-67.507 Y-5.292
G02 X-67.224 Y-6.06 I-0.715 J-0.7
G01 X-67.299 Y-7.138
X-67.36 Y-8.201
X-67.408 Y-9.254
X-67.443 Y-10.297
X-67.465 Y-11.33
X-67.475 Y-12.354
X-67.471 Y-13.368
X-67.455 Y-14.372
X-67.426 Y-15.367
X-67.384 Y-16.352
X-67.328 Y-17.327
X-67.26 Y-18.293
X-67.179 Y-19.249
X-67.085 Y-20.196
X-66.978 Y-21.133
X-66.859 Y-22.061
X-66.726 Y-22.979
X-66.58 Y-23.888
X-66.422 Y-24.788
X-66.25 Y-25.678
X-66.065 Y-26.559
X-65.868 Y-27.431
X-65.657 Y-28.293
X-65.434 Y-29.147
X-65.198 Y-29.991
X-64.948 Y-30.826
X-64.686 Y-31.652
X-64.41 Y-32.469
X-64.122 Y-33.277
X-63.821 Y-34.076
X-63.506 Y-34.866
X-63.179 Y-35.648
X-62.838 Y-36.42
X-62.485 Y-37.184
X-62.118 Y-37.939
X-61.738 Y-38.686
X-61.345 Y-39.423
X-60.939 Y-40.152
X-60.52 Y-40.873
X-60.087 Y-41.585
X-59.642 Y-42.289
X-59.183 Y-42.984
X-58.711 Y-43.671
X-58.225 Y-44.35
X-57.727 Y-45.02
X-57.215 Y-45.682
X-56.689 Y-46.336
X-56.15 Y-46.981
X-55.598 Y-47.619
X-55.032 Y-48.248
X-54.453 Y-48.87
X-53.86 Y-49.483
X-53.254 Y-50.088
X-52.634 Y-50.686
X-52. Y-51.275
X-51.353 Y-51.857
X-50.692 Y-52.43
X-50.018 Y-52.996
X-49.329 Y-53.554
X-48.627 Y-54.104
X-47.911 Y-54.646
X-47.182 Y-55.18
X-46.438 Y-55.707
X-45.685 Y-56.223
X-44.835 Y-56.772
X-43.966 Y-57.309
X-43.081 Y-57.83
X-42.179 Y-58.337
X-41.261 Y-58.83
X-40.326 Y-59.307
X-39.375 Y-59.77
X-38.407 Y-60.218
X-37.423 Y-60.652
X-36.423 Y-61.071
X-35.406 Y-61.475
X-34.372 Y-61.864
X-33.322 Y-62.239
X-32.256 Y-62.598
X-31.172 Y-62.943
X-30.073 Y-63.273
X-28.956 Y-63.588
X-27.823 Y-63.889
X-26.674 Y-64.174
X-25.507 Y-64.445
X-24.325 Y-64.701
X-23.125 Y-64.942
X-21.909 Y-65.168
X-20.676 Y-65.379
X-19.427 Y-65.575
X-18.161 Y-65.757
X-16.879 Y-65.923
X-15.579 Y-66.074
X-14.264 Y-66.21
X-12.931 Y-66.332
X-11.582 Y-66.438
X-10.211 Y-66.53
G02 X-9.629 Y-66.767 I-0.067 J-0.998
G01 X0.213 Y-75.161
X3.714 Y-72.137
G03 X3.735 Y-71.855 I-0.131 J0.151 F1000.
G01 X3.604 Y-71.704
X3.57 Y-71.665 Z-0.993
X3.539 Y-71.628 Z-0.973
X3.512 Y-71.597 Z-0.941
X3.491 Y-71.573 Z-0.9
X3.478 Y-71.558 Z-0.852
X3.473 Y-71.553 Z-0.8
G00 Z5.
X0.419 Y-81.851
G01 Z0.4 F500.
Z-0.8
Y-81.844 Z-0.852 F1000.
Y-81.824 Z-0.9
Y-81.792 Z-0.941
Y-81.751 Z-0.973
Y-81.702 Z-0.993
Y-81.651 Z-1.
Y-81.451
G03 X0.219 Y-81.25 I-0.2
G02 X-0.408 Y-81.029 I0.001 J1. F2475.
G01 X-12.079 Y-71.606
X-12.771 Y-71.543
X-12.779 Y-71.542
X-13.764 Y-71.445
X-13.772 Y-71.444
X-14.749 Y-71.34
X-14.756 Y-71.339
X-15.725 Y-71.228
X-15.733 Y-71.227
X-16.693 Y-71.109
X-16.701 Y-71.108
X-17.653 Y-70.984
X-17.661 Y-70.983
X-18.604 Y-70.851
X-18.612 Y-70.85
X-19.547 Y-70.712
X-19.555 Y-70.711
X-20.482 Y-70.565
X-20.49 Y-70.564
X-21.408 Y-70.412
X-21.417 Y-70.411
X-22.326 Y-70.252
X-22.335 Y-70.25
X-23.236 Y-70.085
X-23.245 Y-70.083
X-24.137 Y-69.911
X-24.146 Y-69.909
X-25.03 Y-69.73
X-25.04 Y-69.728
X-25.915 Y-69.542
X-25.925 Y-69.54
X-26.792 Y-69.347
X-26.801 Y-69.345
X-27.66 Y-69.145
X-27.67 Y-69.143
X-28.52 Y-68.936
X-28.529 Y-68.934
X-29.371 Y-68.72
X-29.381 Y-68.718
X-30.215 Y-68.498
X-30.224 Y-68.495
X-31.05 Y-68.268
X-31.06 Y-68.265
X-31.876 Y-68.031
X-31.886 Y-68.028
X-32.694 Y-67.788
X-32.705 Y-67.784
X-33.504 Y-67.537
X-33.515 Y-67.534
X-34.306 Y-67.279
X-34.316 Y-67.276
X-35.099 Y-67.015
X-35.11 Y-67.011
X-35.884 Y-66.743
X-35.895 Y-66.739
X-36.661 Y-66.465
X-36.672 Y-66.461
X-37.429 Y-66.179
X-37.44 Y-66.175
X-38.189 Y-65.886
X-38.2 Y-65.882
X-38.941 Y-65.587
X-38.952 Y-65.582
X-39.684 Y-65.28
X-39.695 Y-65.275
X-40.419 Y-64.966
X-40.43 Y-64.961
X-41.146 Y-64.645
X-41.157 Y-64.64
X-41.864 Y-64.318
X-41.875 Y-64.313
X-42.574 Y-63.983
X-42.585 Y-63.978
X-43.275 Y-63.641
X-43.287 Y-63.635
X-43.968 Y-63.292
X-43.98 Y-63.286
X-44.653 Y-62.936
X-44.665 Y-62.93
X-45.33 Y-62.573
X-45.341 Y-62.567
X-45.997 Y-62.203
X-46.009 Y-62.197
X-46.657 Y-61.826
X-46.669 Y-61.819
X-47.308 Y-61.442
X-47.32 Y-61.435
X-47.951 Y-61.051
X-47.963 Y-61.044
X-48.585 Y-60.653
X-48.597 Y-60.645
X-49.211 Y-60.247
X-49.223 Y-60.24
X-49.829 Y-59.835
X-49.841 Y-59.827
X-50.438 Y-59.415
X-50.45 Y-59.407
X-51.038 Y-58.989
X-51.05 Y-58.98
X-51.63 Y-58.555
X-51.642 Y-58.547
X-52.214 Y-58.115
X-52.226 Y-58.106
X-52.789 Y-57.667
X-52.801 Y-57.658
X-53.356 Y-57.212
X-53.368 Y-57.203
X-53.914 Y-56.75
X-53.926 Y-56.74
X-54.464 Y-56.281
X-54.475 Y-56.271
X-55.005 Y-55.805
X-55.016 Y-55.795
X-55.538 Y-55.322
X-55.549 Y-55.312
X-56.062 Y-54.832
X-56.073 Y-54.821
X-56.577 Y-54.335
X-56.588 Y-54.324
X-57.084 Y-53.831
X-57.095 Y-53.82
X-57.582 Y-53.319
X-57.593 Y-53.308
X-58.072 Y-52.801
X-58.083 Y-52.79
X-58.553 Y-52.276
X-58.564 Y-52.264
X-59.026 Y-51.744
X-59.036 Y-51.733
X-59.567 Y-51.115
X-59.577 Y-51.105
X-60.094 Y-50.486
X-60.103 Y-50.475
X-60.607 Y-49.855
X-60.617 Y-49.844
X-61.107 Y-49.223
X-61.116 Y-49.211
X-61.593 Y-48.589
X-61.602 Y-48.577
X-62.066 Y-47.952
X-62.075 Y-47.941
X-62.526 Y-47.315
X-62.535 Y-47.303
X-62.973 Y-46.675
X-62.981 Y-46.663
X-63.407 Y-46.033
X-63.415 Y-46.021
X-63.829 Y-45.39
X-63.837 Y-45.377
X-64.238 Y-44.744
X-64.246 Y-44.732
X-64.634 Y-44.097
X-64.642 Y-44.084
X-65.019 Y-43.447
X-65.027 Y-43.434
X-65.392 Y-42.796
X-65.399 Y-42.783
X-65.753 Y-42.142
X-65.76 Y-42.129
X-66.102 Y-41.486
X-66.109 Y-41.473
X-66.44 Y-40.829
X-66.447 Y-40.815
X-66.767 Y-40.168
X-66.774 Y-40.155
X-67.083 Y-39.506
X-67.089 Y-39.492
X-67.388 Y-38.841
X-67.394 Y-38.828
X-67.682 Y-38.174
X-67.688 Y-38.161
X-67.965 Y-37.505
X-67.971 Y-37.491
X-68.238 Y-36.833
X-68.244 Y-36.82
X-68.501 Y-36.159
X-68.509 Y-36.139
X-68.995 Y-34.81
X-69.004 Y-34.784
X-69.452 Y-33.445
X-69.46 Y-33.419
X-69.872 Y-32.069
X-69.88 Y-32.044
X-70.257 Y-30.683
X-70.263 Y-30.659
X-70.607 Y-29.286
X-70.613 Y-29.262
X-70.924 Y-27.877
X-70.929 Y-27.855
X-71.21 Y-26.457
X-71.214 Y-26.436
X-71.466 Y-25.026
X-71.47 Y-25.005
X-71.694 Y-23.582
X-71.697 Y-23.563
X-71.894 Y-22.126
X-71.897 Y-22.108
X-72.07 Y-20.657
X-72.072 Y-20.64
X-72.221 Y-19.175
X-72.223 Y-19.159
X-72.35 Y-17.679
X-72.351 Y-17.664
X-72.458 Y-16.169
X-72.459 Y-16.156
X-72.546 Y-14.645
X-72.547 Y-14.632
X-72.616 Y-13.105
X-72.617 Y-13.094
X-72.67 Y-11.551
Y-11.541
X-72.709 Y-9.981
Y-9.972
X-72.734 Y-8.395
Y-8.387
X-72.743 Y-7.199
X-72.921 Y-7.02
X-73.37 Y-6.567
X-73.804 Y-6.129
X-74.224 Y-5.705
X-74.629 Y-5.297
X-75.02 Y-4.903
X-75.395 Y-4.524
X-75.756 Y-4.16
X-76.102 Y-3.811
X-76.433 Y-3.477
X-76.75 Y-3.157
X-77.052 Y-2.853
X-77.339 Y-2.563
X-77.612 Y-2.288
X-77.869 Y-2.028
X-78.113 Y-1.783
X-78.341 Y-1.552
X-78.554 Y-1.337
X-78.753 Y-1.137
X-78.937 Y-0.951
X-79.107 Y-0.78
X-79.261 Y-0.624
X-79.401 Y-0.483
X-79.526 Y-0.356
X-79.637 Y-0.245
X-79.732 Y-0.149
X-79.814 Y-0.067
X-79.88 Y0.
X-79.932 Y0.053
X-79.968 Y0.089
X-79.989 Y0.111
X-79.996 Y0.118
G02 X-80.04 Y1.481 I0.709 J0.706
G01 X-79.099 Y2.558
X-78.189 Y3.627
X-77.306 Y4.695
X-76.449 Y5.76
X-75.619 Y6.822
X-74.815 Y7.882
X-74.038 Y8.94
X-73.288 Y9.995
X-72.565 Y11.048
X-71.867 Y12.099
X-71.197 Y13.147
X-70.553 Y14.192
X-69.936 Y15.236
X-69.345 Y16.276
X-68.78 Y17.314
X-68.243 Y18.35
X-67.731 Y19.383
X-67.246 Y20.414
X-66.787 Y21.442
X-66.355 Y22.468
X-65.949 Y23.491
X-65.57 Y24.512
X-65.216 Y25.53
X-64.889 Y26.545
X-64.588 Y27.559
X-64.313 Y28.569
X-64.064 Y29.577
X-63.842 Y30.583
X-63.645 Y31.587
X-63.475 Y32.588
X-63.331 Y33.587
X-63.212 Y34.583
X-63.119 Y35.577
X-63.053 Y36.57
X-63.012 Y37.559
X-62.997 Y38.547
X-63.008 Y39.533
X-63.045 Y40.517
X-63.108 Y41.499
X-63.197 Y42.479
X-63.312 Y43.457
X-63.452 Y44.433
X-63.619 Y45.408
X-63.811 Y46.381
X-64.029 Y47.353
X-64.274 Y48.323
X-64.544 Y49.291
X-64.841 Y50.258
X-65.163 Y51.223
X-65.512 Y52.187
X-65.886 Y53.15
X-66.287 Y54.111
X-66.714 Y55.071
X-67.168 Y56.029
X-67.648 Y56.986
X-68.153 Y57.942
X-68.686 Y58.897
X-69.245 Y59.85
X-69.83 Y60.802
X-70.442 Y61.752
X-71.08 Y62.701
X-71.744 Y63.649
X-72.436 Y64.596
X-73.159 Y65.548
G02 X-73.166 Y66.749 I0.796 J0.605
G01 X-72.737 Y67.327
X-72.322 Y67.886
X-71.921 Y68.427
X-71.533 Y68.95
X-71.158 Y69.455
X-70.798 Y69.941
X-70.451 Y70.408
X-70.117 Y70.858
X-69.798 Y71.289
X-69.491 Y71.702
X-69.199 Y72.096
X-68.92 Y72.472
X-68.655 Y72.83
X-68.403 Y73.169
X-68.165 Y73.491
X-67.94 Y73.793
X-67.729 Y74.078
X-67.532 Y74.344
X-67.348 Y74.591
X-67.178 Y74.82
X-67.022 Y75.031
X-66.879 Y75.224
X-66.75 Y75.398
X-66.634 Y75.554
X-66.532 Y75.692
X-66.444 Y75.811
X-66.368 Y75.912
X-66.307 Y75.995
X-66.259 Y76.059
X-66.226 Y76.104
X-66.206 Y76.131
X-66.199 Y76.14
G02 X-65.043 Y76.481 I0.804 J-0.594
G01 X-64.405 Y76.241
X-63.773 Y76.014
X-63.138 Y75.797
X-62.502 Y75.59
X-61.863 Y75.393
X-61.222 Y75.206
X-60.58 Y75.03
X-59.936 Y74.863
X-59.29 Y74.706
X-58.643 Y74.559
X-57.995 Y74.423
X-57.345 Y74.296
X-56.694 Y74.179
X-56.042 Y74.072
X-55.389 Y73.975
X-54.736 Y73.888
X-54.082 Y73.811
X-53.427 Y73.744
X-52.772 Y73.687
X-52.116 Y73.639
X-51.46 Y73.602
X-50.804 Y73.574
X-50.148 Y73.556
X-49.493 Y73.548
X-48.837 Y73.55
X-48.182 Y73.561
X-47.527 Y73.583
X-46.873 Y73.614
X-46.219 Y73.655
X-45.57 Y73.705
X-44.264 Y73.836
X-42.962 Y74.006
X-42.318 Y74.104
X-41.673 Y74.213
X-41.028 Y74.332
X-40.386 Y74.46
X-39.745 Y74.598
X-39.106 Y74.745
X-38.47 Y74.902
X-37.835 Y75.069
X-37.203 Y75.245
X-36.573 Y75.431
X-35.945 Y75.626
X-35.32 Y75.831
X-34.698 Y76.045
X-34.078 Y76.269
X-33.462 Y76.502
X-32.848 Y76.745
X-32.238 Y76.998
X-31.631 Y77.259
X-31.027 Y77.531
X-30.426 Y77.811
X-29.829 Y78.102
X-29.236 Y78.401
X-28.647 Y78.71
X-28.062 Y79.028
X-27.48 Y79.356
X-26.903 Y79.693
X-26.33 Y80.039
X-25.762 Y80.395
X-25.198 Y80.76
X-24.632 Y81.139
G02 X-23.45 Y81.088 I0.556 J-0.831
G01 X-22.791 Y80.559
X-22.132 Y80.056
X-21.465 Y79.57
X-20.79 Y79.101
X-20.107 Y78.65
X-19.416 Y78.216
X-18.718 Y77.8
X-18.013 Y77.401
X-17.302 Y77.02
X-16.584 Y76.655
X-15.86 Y76.308
X-15.13 Y75.978
X-14.394 Y75.665
X-13.653 Y75.369
X-12.907 Y75.09
X-12.156 Y74.828
X-11.4 Y74.582
X-10.64 Y74.354
X-9.877 Y74.142
X-9.109 Y73.947
X-8.338 Y73.769
X-7.564 Y73.607
X-6.787 Y73.462
X-6.008 Y73.334
X-5.226 Y73.221
X-4.443 Y73.126
X-3.657 Y73.046
X-2.87 Y72.983
X-2.082 Y72.937
X-1.293 Y72.906
X-0.504 Y72.892
X0.286 Y72.894
X1.076 Y72.912
X1.865 Y72.946
X2.654 Y72.996
X3.442 Y73.062
X4.229 Y73.144
X5.015 Y73.242
X5.799 Y73.356
X6.58 Y73.485
X7.36 Y73.63
X8.137 Y73.791
X8.911 Y73.968
X9.682 Y74.16
X10.449 Y74.367
X11.213 Y74.59
X11.973 Y74.828
X12.728 Y75.082
X13.479 Y75.351
X14.225 Y75.635
X14.965 Y75.935
X15.701 Y76.249
X16.43 Y76.579
X17.154 Y76.924
X17.871 Y77.283
X18.582 Y77.658
X19.285 Y78.047
X19.982 Y78.452
X20.671 Y78.871
X21.352 Y79.304
X22.026 Y79.753
X22.691 Y80.216
X23.347 Y80.694
X24.003 Y81.192
G02 X25.149 Y81.237 I0.605 J-0.796
G01 X26.321 Y80.483
X27.486 Y79.775
X28.657 Y79.106
X29.833 Y78.475
X31.013 Y77.884
X32.199 Y77.331
X33.39 Y76.817
X34.586 Y76.341
X35.788 Y75.904
X36.994 Y75.505
X38.206 Y75.145
X39.423 Y74.824
X40.646 Y74.54
X41.874 Y74.295
X43.108 Y74.089
X44.348 Y73.92
X45.594 Y73.79
X46.845 Y73.698
X48.102 Y73.645
X49.366 Y73.629
X50.636 Y73.652
X51.912 Y73.714
X53.194 Y73.813
X54.482 Y73.951
X55.777 Y74.128
X57.079 Y74.343
X58.387 Y74.597
X59.701 Y74.889
X61.022 Y75.22
X62.35 Y75.59
X63.684 Y75.998
X65.037 Y76.449
G02 X66.159 Y76.093 I0.316 J-0.949
G01 X73.038 Y66.745
G02 X73.048 Y65.573 I-0.805 J-0.593
G01 X72.333 Y64.566
X71.649 Y63.566
X70.993 Y62.567
X70.363 Y61.568
X69.759 Y60.571
X69.182 Y59.573
X68.631 Y58.577
X68.107 Y57.581
X67.609 Y56.585
X67.138 Y55.591
X66.693 Y54.596
X66.274 Y53.603
X65.881 Y52.609
X65.515 Y51.617
X65.174 Y50.624
X64.86 Y49.633
X64.572 Y48.641
X64.309 Y47.65
X64.073 Y46.659
X63.862 Y45.669
X63.678 Y44.678
X63.519 Y43.688
X63.386 Y42.698
X63.278 Y41.707
X63.196 Y40.717
X63.14 Y39.726
X63.11 Y38.736
X63.105 Y37.745
X63.126 Y36.753
X63.173 Y35.761
X63.245 Y34.769
X63.343 Y33.776
X63.466 Y32.783
X63.615 Y31.789
X63.789 Y30.794
X63.99 Y29.798
X64.216 Y28.802
X64.467 Y27.804
X64.744 Y26.806
X65.047 Y25.807
X65.376 Y24.806
X65.73 Y23.805
X66.111 Y22.803
X66.517 Y21.799
X66.948 Y20.794
X67.406 Y19.788
X67.89 Y18.781
X68.399 Y17.773
X68.934 Y16.764
X69.495 Y15.753
X70.082 Y14.741
X70.695 Y13.728
X71.334 Y12.714
X71.999 Y11.698
X72.689 Y10.681
X73.406 Y9.663
X74.148 Y8.644
X74.917 Y7.623
X75.711 Y6.601
X76.531 Y5.578
X77.377 Y4.554
X78.249 Y3.528
X79.147 Y2.501
X80.076 Y1.468
G02 X80.039 Y0.093 I-0.744 J-0.668
G01 X79.572 Y-0.374
X79.121 Y-0.826
X78.683 Y-1.263
X78.261 Y-1.685
X77.854 Y-2.092
X77.461 Y-2.485
X77.083 Y-2.863
X76.72 Y-3.226
X76.372 Y-3.574
X76.039 Y-3.907
X75.72 Y-4.226
X75.417 Y-4.529
X75.128 Y-4.818
X74.854 Y-5.092
X74.594 Y-5.351
X74.35 Y-5.596
X74.12 Y-5.826
X73.906 Y-6.04
X73.705 Y-6.24
X73.52 Y-6.425
X73.35 Y-6.596
X73.195 Y-6.751
X73.054 Y-6.892
X72.928 Y-7.018
X72.817 Y-7.129
X72.749 Y-7.197
X72.753 Y-7.963
Y-7.972
X72.749 Y-9.142
X72.748 Y-9.152
X72.732 Y-10.308
Y-10.318
X72.704 Y-11.46
Y-11.471
X72.664 Y-12.599
Y-12.61
X72.613 Y-13.725
X72.612 Y-13.736
X72.55 Y-14.836
X72.549 Y-14.848
X72.475 Y-15.935
X72.474 Y-15.946
X72.389 Y-17.02
X72.388 Y-17.032
X72.291 Y-18.091
X72.289 Y-18.103
X72.181 Y-19.149
X72.179 Y-19.161
X72.059 Y-20.193
X72.057 Y-20.206
X71.926 Y-21.224
X71.924 Y-21.237
X71.78 Y-22.242
X71.778 Y-22.255
X71.624 Y-23.246
X71.621 Y-23.259
X71.455 Y-24.236
X71.452 Y-24.25
X71.274 Y-25.213
X71.272 Y-25.227
X71.082 Y-26.177
X71.079 Y-26.191
X70.878 Y-27.127
X70.875 Y-27.141
X70.662 Y-28.063
X70.658 Y-28.078
X70.434 Y-28.986
X70.43 Y-29.002
X70.195 Y-29.896
X70.19 Y-29.912
X69.943 Y-30.792
X69.938 Y-30.808
X69.679 Y-31.675
X69.675 Y-31.691
X69.404 Y-32.544
X69.399 Y-32.561
X69.117 Y-33.4
X69.111 Y-33.417
X68.817 Y-34.242
X68.811 Y-34.259
X68.506 Y-35.071
X68.5 Y-35.088
X68.183 Y-35.886
X68.176 Y-35.903
X67.848 Y-36.688
X67.84 Y-36.705
X67.5 Y-37.476
X67.492 Y-37.493
X67.141 Y-38.25
X67.132 Y-38.269
X66.686 Y-39.179
X66.679 Y-39.194
X66.22 Y-40.092
X66.212 Y-40.107
X65.741 Y-40.992
X65.733 Y-41.008
X65.248 Y-41.88
X65.24 Y-41.895
X64.742 Y-42.755
X64.733 Y-42.77
X64.223 Y-43.617
X64.214 Y-43.632
X63.691 Y-44.466
X63.682 Y-44.481
X63.146 Y-45.303
X63.136 Y-45.318
X62.588 Y-46.127
X62.577 Y-46.142
X62.016 Y-46.938
X62.005 Y-46.953
X61.431 Y-47.736
X61.42 Y-47.75
X60.833 Y-48.521
X60.821 Y-48.536
X60.221 Y-49.294
X60.21 Y-49.308
X59.597 Y-50.053
X59.585 Y-50.068
X58.96 Y-50.8
X58.947 Y-50.814
X58.309 Y-51.534
X58.296 Y-51.548
X57.645 Y-52.255
X57.632 Y-52.268
X56.968 Y-52.963
X56.955 Y-52.976
X56.278 Y-53.658
X56.265 Y-53.671
X55.575 Y-54.34
X55.561 Y-54.353
X54.859 Y-55.009
X54.845 Y-55.022
X54.129 Y-55.665
X54.115 Y-55.677
X53.387 Y-56.308
X53.373 Y-56.32
X52.632 Y-56.938
X52.617 Y-56.95
X51.864 Y-57.555
X51.849 Y-57.567
X51.082 Y-58.159
X51.067 Y-58.17
X50.288 Y-58.75
X50.273 Y-58.761
X49.481 Y-59.328
X49.466 Y-59.338
X48.66 Y-59.893
X48.645 Y-59.903
X47.827 Y-60.445
X47.812 Y-60.454
X46.981 Y-60.983
X46.966 Y-60.993
X46.122 Y-61.509
X46.107 Y-61.518
X45.25 Y-62.022
X45.235 Y-62.03
X44.366 Y-62.521
X44.35 Y-62.53
X43.468 Y-63.008
X43.453 Y-63.016
X42.558 Y-63.481
X42.543 Y-63.489
X41.635 Y-63.941
X41.619 Y-63.949
X40.699 Y-64.389
X40.684 Y-64.396
X39.75 Y-64.823
X39.735 Y-64.83
X38.788 Y-65.244
X38.774 Y-65.25
X37.814 Y-65.652
X37.799 Y-65.658
X36.827 Y-66.047
X36.812 Y-66.053
X35.827 Y-66.429
X35.813 Y-66.435
X34.815 Y-66.798
X34.801 Y-66.803
X33.79 Y-67.154
X33.776 Y-67.159
X32.752 Y-67.497
X32.738 Y-67.502
X31.701 Y-67.827
X31.687 Y-67.832
X30.638 Y-68.145
X30.624 Y-68.149
X29.562 Y-68.449
X29.549 Y-68.452
X28.474 Y-68.74
X28.46 Y-68.743
X27.372 Y-69.018
X27.359 Y-69.021
X26.258 Y-69.283
X26.245 Y-69.286
X25.132 Y-69.535
X25.119 Y-69.538
X23.992 Y-69.774
X23.98 Y-69.777
X22.841 Y-70.001
X22.828 Y-70.003
X21.676 Y-70.214
X21.664 Y-70.216
X20.499 Y-70.415
X20.487 Y-70.417
X19.309 Y-70.602
X19.297 Y-70.604
X18.106 Y-70.777
X18.095 Y-70.779
X16.891 Y-70.939
X16.88 Y-70.94
X15.663 Y-71.088
X15.652 Y-71.089
X14.423 Y-71.224
X14.412 Y-71.225
X13.17 Y-71.347
X13.159 Y-71.348
X12.219 Y-71.43
X11.768 Y-71.808
X11.095 Y-72.373
X10.443 Y-72.922
X9.81 Y-73.453
X9.199 Y-73.968
X8.607 Y-74.466
X8.037 Y-74.946
X7.487 Y-75.409
X6.958 Y-75.855
X6.451 Y-76.284
X5.964 Y-76.694
X5.499 Y-77.087
X5.055 Y-77.462
X4.633 Y-77.819
X4.232 Y-78.158
X3.854 Y-78.478
X3.497 Y-78.78
X3.162 Y-79.064
X2.85 Y-79.328
X2.56 Y-79.575
X2.292 Y-79.802
X2.047 Y-80.009
X1.825 Y-80.198
X1.626 Y-80.368
X1.449 Y-80.518
X1.296 Y-80.648
X1.166 Y-80.759
X1.059 Y-80.849
X0.976 Y-80.92
X0.917 Y-80.97
X0.881 Y-81.001
X0.88 Y-81.002
X0.868 Y-81.012
G02 X0.219 Y-81.25 I-0.648 J0.762
G03 X0.019 Y-81.45 J-0.2 F1000.
G01 Y-81.65
Y-81.702 Z-0.993
Y-81.75 Z-0.973
Y-81.792 Z-0.941
Y-81.824 Z-0.9
Y-81.844 Z-0.852
Y-81.85 Z-0.8
G00 Z5.
X-28.641 Y-16.225
G01 Z0.4 F500.
Z-0.8
G18 G02 X-28.441 Z-1. I0.2 F1000.
G01 X-28.241
G17 G03 X-28.041 Y-16.025 J0.2
G01 Y-8.49 F2475.
Y-7.9
X-44.38 Y-7.861
X-44.378 Y-8.184
X-44.369 Y-9.495
X-44.362 Y-10.785
X-44.354 Y-12.053
X-44.346 Y-13.301
X-44.338 Y-14.528
X-44.331 Y-15.734
X-44.324 Y-16.919
X-44.317 Y-18.083
X-44.309 Y-19.226
X-44.303 Y-20.348
X-44.296 Y-21.449
X-44.289 Y-22.529
X-44.283 Y-23.588
X-44.276 Y-24.626
X-44.27 Y-25.643
X-44.264 Y-26.639
X-44.258 Y-27.615
X-44.252 Y-28.569
X-44.246 Y-29.502
X-44.241 Y-30.415
X-44.235 Y-31.306
X-44.23 Y-32.176
X-44.224 Y-33.026
X-44.219 Y-33.854
X-44.214 Y-34.661
X-44.21 Y-35.448
X-44.205 Y-36.213
X-44.2 Y-36.958
X-44.196 Y-37.681
X-44.191 Y-38.384
X-44.187 Y-39.065
X-44.183 Y-39.726
X-44.179 Y-40.366
X-44.175 Y-40.984
X-44.172 Y-41.582
X-44.168 Y-42.159
X-44.165 Y-42.715
X-44.161 Y-43.249
X-44.158 Y-43.763
X-44.155 Y-44.256
X-44.152 Y-44.728
X-44.15 Y-45.179
X-44.147 Y-45.609
X-44.144 Y-46.018
X-44.142 Y-46.406
X-44.14 Y-46.773
X-44.138 Y-47.119
X-44.136 Y-47.444
X-44.134 Y-47.748
X-44.132 Y-48.031
X-44.13 Y-48.293
X-44.129 Y-48.534
X-44.128 Y-48.754
X-44.126 Y-48.953
X-44.125 Y-49.132
X-44.124 Y-49.252
X-43.336 Y-49.743
X-42.104 Y-50.486
X-40.891 Y-51.193
X-39.695 Y-51.864
X-38.519 Y-52.499
X-37.36 Y-53.098
X-36.221 Y-53.661
X-35.1 Y-54.189
X-33.998 Y-54.681
X-32.914 Y-55.137
X-31.85 Y-55.557
X-30.804 Y-55.942
X-29.777 Y-56.291
X-28.77 Y-56.605
X-28.041 Y-56.81
Y-48.3
Y-47.588
Y-46.85
Y-22.989
Y-21.652
Y-20.289
Y-16.052
Y-16.025
G03 X-28.241 Y-15.825 I-0.2 F1000.
G01 X-28.441
G18 G03 X-28.641 Z-0.8 K0.2
G00 Z5.
X-16.933 Y2.495
G01 Z0.4 F500.
Z-0.8
X-16.939 Y2.499 Z-0.852 F1000.
X-16.955 Y2.511 Z-0.9
X-16.98 Y2.53 Z-0.941
X-17.013 Y2.555 Z-0.973
X-17.052 Y2.584 Z-0.993
X-17.093 Y2.615 Z-1.
X-17.253 Y2.735
G17 G03 X-17.533 Y2.695 I-0.12 J-0.16
G02 X-18.333 Y2.296 I-0.799 J0.601 F2475.
G01 X-22.073
Y-3.451
G02 X-23.073 Y-4.451 I-1.
G01 X-26.381
G02 X-27.381 Y-3.451 J1.
G01 Y12.513
G02 X-26.381 Y13.513 I1.
G01 X-14.971
G02 X-13.971 Y12.514 J-1.
G01 X-13.97 Y9.261
G02 X-14.97 Y8.26 I-1.
G01 X-22.194
Y7.427
X-18.333
G02 X-17.333 Y6.427 J-1.
G01 Y3.296
G02 X-17.533 Y2.695 I-1.
G03 X-17.494 Y2.415 I0.16 J-0.12 F1000.
G01 X-17.334 Y2.295
X-17.292 Y2.264 Z-0.993
X-17.254 Y2.235 Z-0.973
X-17.221 Y2.21 Z-0.941
X-17.195 Y2.191 Z-0.9
X-17.179 Y2.179 Z-0.852
X-17.174 Y2.175 Z-0.8
G00 Z5.
X-10.727 Y13.47
G01 Z0.4 F500.
Z-0.8
Y13.477 Z-0.852 F1000.
Y13.497 Z-0.9
Y13.528 Z-0.941
Y13.57 Z-0.973
Y13.618 Z-0.993
Y13.67 Z-1.
Y13.87
G03 X-10.927 Y14.07 I-0.2
G01 X-11.796 Y14.069 F2475.
X-12.94
X-14.07 Y14.068
X-15.185 Y14.067
X-16.286
X-17.373 Y14.066
X-18.446 Y14.065
X-19.505
X-20.549 Y14.064
X-21.579
X-22.595 Y14.063
X-23.596
X-24.583 Y14.062
X-25.557 Y14.061
X-26.515
X-27.46 Y14.06
X-28.39
X-29.306 Y14.059
X-30.208
X-31.096 Y14.058
X-31.969
X-32.828 Y14.057
X-33.673
X-34.504 Y14.056
X-35.32
X-36.123 Y14.055
X-36.911
X-37.684 Y14.054
X-38.444
X-39.189
X-39.921 Y14.053
X-40.638
X-41.34 Y14.052
X-42.029
X-42.703
X-43.363 Y14.051
X-44.009
X-44.641 Y14.05
X-45.258
X-45.861
X-46.45 Y14.049
X-47.025
X-47.586
X-48.132
X-48.664 Y14.048
X-49.182
X-49.686
X-50.176 Y14.047
X-50.651
X-51.112
X-51.559
X-51.992 Y14.046
X-52.411
X-52.815
X-53.205
X-53.581 Y14.045
X-53.943
X-54.291
X-54.625
X-54.944
X-55.249 Y14.044
X-55.54
X-55.817
X-56.079
X-56.328
X-56.562
X-56.782 Y14.043
X-56.988
X-57.18
X-57.357
X-57.521
X-57.67
X-57.805
X-57.926
X-58.032
X-58.125
X-58.126
X-58.204
X-58.267
X-58.316
X-58.318
X-58.354
X-58.376
X-58.384
G02 X-59.324 Y15.384 J1.
G01 X-59.001 Y16.272
X-58.692 Y17.151
X-58.394 Y18.026
X-58.108 Y18.897
X-57.833 Y19.763
X-57.569 Y20.626
X-57.317 Y21.485
X-57.076 Y22.34
X-56.846 Y23.19
X-56.628 Y24.037
X-56.421 Y24.88
X-56.226 Y25.718
X-56.042 Y26.552
X-55.869 Y27.383
X-55.708 Y28.209
X-55.557 Y29.031
X-55.419 Y29.849
X-55.291 Y30.663
X-55.175 Y31.474
X-55.07 Y32.28
X-54.977 Y33.081
X-54.895 Y33.879
X-54.824 Y34.673
X-54.764 Y35.463
X-54.716 Y36.249
X-54.678 Y37.03
X-54.652 Y37.808
X-54.638 Y38.582
X-54.634 Y39.351
X-54.642 Y40.117
X-54.661 Y40.879
X-54.692 Y41.636
X-54.733 Y42.39
X-54.786 Y43.14
X-54.85 Y43.885
X-54.925 Y44.627
X-55.011 Y45.365
X-55.109 Y46.099
X-55.217 Y46.829
X-55.337 Y47.555
X-55.468 Y48.277
X-55.61 Y48.995
X-55.764 Y49.71
X-55.928 Y50.42
X-56.104 Y51.127
X-56.291 Y51.83
X-56.489 Y52.529
X-56.699 Y53.224
X-56.919 Y53.915
X-57.151 Y54.603
X-57.394 Y55.287
X-57.648 Y55.967
X-57.914 Y56.643
X-58.19 Y57.316
X-58.478 Y57.985
X-58.777 Y58.65
X-59.087 Y59.311
X-59.409 Y59.969
X-59.742 Y60.623
X-60.086 Y61.274
X-60.441 Y61.92
X-60.807 Y62.563
X-61.185 Y63.203
X-61.579 Y63.845
G02 X-60.588 Y65.358 I0.853 J0.522
G01 X-59.214 Y65.167
X-57.864 Y65.
X-56.531 Y64.855
X-55.213 Y64.732
X-53.912 Y64.632
X-52.628 Y64.554
X-51.36 Y64.498
X-50.109 Y64.464
X-48.874 Y64.453
X-47.655 Y64.463
X-46.453 Y64.496
X-45.268 Y64.551
X-44.099 Y64.628
X-42.946 Y64.727
X-41.81 Y64.848
X-40.69 Y64.992
X-39.587 Y65.157
X-38.5 Y65.344
X-37.429 Y65.553
X-36.375 Y65.784
X-35.337 Y66.036
X-34.315 Y66.311
X-33.31 Y66.608
X-32.321 Y66.926
X-31.348 Y67.266
X-30.391 Y67.628
X-29.45 Y68.011
X-28.526 Y68.417
X-27.617 Y68.844
X-26.724 Y69.293
X-25.847 Y69.763
X-24.974 Y70.263
G02 X-23.972 Y70.257 I0.496 J-0.868
G01 X-23.233 Y69.824
X-22.5 Y69.408
X-21.767 Y69.006
X-21.033 Y68.619
X-20.299 Y68.244
X-19.564 Y67.884
X-18.829 Y67.538
X-18.094 Y67.205
X-17.358 Y66.886
X-16.622 Y66.581
X-15.885 Y66.29
X-15.148 Y66.013
X-14.41 Y65.749
X-13.672 Y65.499
X-12.934 Y65.263
X-12.195 Y65.04
X-11.455 Y64.832
X-10.715 Y64.636
X-9.975 Y64.455
X-9.234 Y64.287
X-8.493 Y64.133
X-7.751 Y63.993
X-7.008 Y63.866
X-6.265 Y63.753
X-5.521 Y63.653
X-4.777 Y63.567
X-4.032 Y63.495
X-3.287 Y63.437
X-2.54 Y63.392
X-1.793 Y63.36
X-1.046 Y63.342
X-0.297 Y63.338
X0.452 Y63.348
X1.201 Y63.371
X1.952 Y63.408
X2.703 Y63.458
X3.455 Y63.522
X4.209 Y63.6
X4.962 Y63.691
X5.717 Y63.796
X6.473 Y63.915
X7.229 Y64.047
X7.986 Y64.193
X8.744 Y64.353
X9.504 Y64.526
X10.264 Y64.713
X11.025 Y64.914
X11.786 Y65.129
X12.549 Y65.357
X13.313 Y65.599
X14.078 Y65.855
X14.844 Y66.125
X15.61 Y66.408
X16.378 Y66.705
X17.147 Y67.016
X17.916 Y67.341
X18.687 Y67.68
X19.458 Y68.033
X20.231 Y68.399
X21.005 Y68.779
X21.779 Y69.173
X22.554 Y69.582
X23.331 Y70.003
X24.114 Y70.443
G02 X25.175 Y70.391 I0.489 J-0.872
G01 X25.885 Y69.896
X26.605 Y69.431
X27.35 Y68.986
X28.119 Y68.561
X28.913 Y68.155
X29.732 Y67.77
X30.576 Y67.405
X31.445 Y67.06
X32.339 Y66.735
X33.258 Y66.43
X34.203 Y66.146
X35.172 Y65.882
X36.167 Y65.638
X37.187 Y65.415
X38.232 Y65.213
X39.303 Y65.031
X40.399 Y64.87
X41.52 Y64.729
X42.666 Y64.61
X43.838 Y64.511
X45.034 Y64.433
X46.257 Y64.376
X47.504 Y64.34
X48.776 Y64.325
X50.074 Y64.331
X51.396 Y64.358
X52.744 Y64.406
X54.117 Y64.475
X55.515 Y64.565
X56.938 Y64.677
X58.386 Y64.81
X59.865 Y64.964
G02 X60.846 Y63.49 I0.104 J-0.995
G01 X60.461 Y62.785
X60.091 Y62.084
X59.732 Y61.381
X59.384 Y60.676
X59.048 Y59.97
X58.723 Y59.261
X58.41 Y58.551
X58.108 Y57.839
X57.817 Y57.125
X57.537 Y56.41
X57.269 Y55.692
X57.012 Y54.973
X56.766 Y54.252
X56.531 Y53.53
X56.308 Y52.806
X56.096 Y52.08
X55.895 Y51.352
X55.705 Y50.623
X55.527 Y49.892
X55.36 Y49.16
X55.203 Y48.425
X55.058 Y47.69
X54.925 Y46.952
X54.802 Y46.213
X54.691 Y45.473
X54.59 Y44.73
X54.501 Y43.987
X54.423 Y43.241
X54.356 Y42.495
X54.3 Y41.746
X54.256 Y40.997
X54.222 Y40.245
X54.2 Y39.492
X54.188 Y38.738
Y37.982
X54.199 Y37.225
X54.221 Y36.466
X54.254 Y35.706
X54.298 Y34.945
X54.353 Y34.182
X54.419 Y33.418
X54.496 Y32.652
X54.585 Y31.885
X54.684 Y31.116
X54.794 Y30.347
X54.916 Y29.576
X55.049 Y28.803
X55.192 Y28.029
X55.347 Y27.254
X55.513 Y26.478
X55.69 Y25.701
X55.878 Y24.922
X56.077 Y24.142
X56.287 Y23.361
X56.508 Y22.579
X56.741 Y21.796
X56.984 Y21.011
X57.238 Y20.226
X57.504 Y19.439
X57.78 Y18.651
X58.068 Y17.863
X58.367 Y17.073
X58.676 Y16.282
X58.999 Y15.485
G02 X58.073 Y14.109 I-0.927 J-0.375
G01 X56.257 Y14.108
X54.457 Y14.107
X52.67 Y14.106
X50.897 Y14.105
X49.139 Y14.104
X47.396 Y14.103
X45.666 Y14.102
X43.951 Y14.101
X42.25 Y14.1
X40.564 Y14.099
X38.891 Y14.098
X37.233 Y14.097
X35.59 Y14.096
X33.96 Y14.095
X32.345
X30.744 Y14.094
X29.158 Y14.093
X27.586 Y14.092
X26.028 Y14.091
X24.484 Y14.09
X22.955 Y14.089
X21.44 Y14.088
X19.939 Y14.087
X18.453
X16.981 Y14.086
X15.523 Y14.085
X14.079 Y14.084
X12.65 Y14.083
X11.235 Y14.082
X9.834
X8.448 Y14.081
X7.075 Y14.08
X5.717 Y14.079
X4.374 Y14.078
X3.044
X1.729 Y14.077
X0.428 Y14.076
X-0.858
X-2.131 Y14.075
X-3.389 Y14.074
X-4.633 Y14.073
X-5.862
X-7.077 Y14.072
X-8.278 Y14.071
X-9.465
X-10.638 Y14.07
X-10.927
G03 X-11.127 Y13.87 J-0.2 F1000.
G01 Y13.67
Y13.618 Z-0.993
Y13.57 Z-0.973
Y13.528 Z-0.941
Y13.496 Z-0.9
Y13.476 Z-0.852
Y13.47 Z-0.8
G00 Z5.
X-10.985 Y17.367
G01 Z0.4 F500.
Z-0.8
Y17.36 Z-0.852 F1000.
Y17.34 Z-0.9
Y17.308 Z-0.941
Y17.267 Z-0.973
Y17.218 Z-0.993
Y17.167 Z-1.
X-10.984 Y16.967
G03 X-10.784 Y16.767 I0.2
G01 X-1.45 Y16.79 F2475.
Y30.182
X-17.527
X-17.489 Y16.751
X-10.784 Y16.767
G03 X-10.584 Y16.968 J0.2 F1000.
G01 X-10.585 Y17.168
Y17.219 Z-0.993
Y17.268 Z-0.973
Y17.309 Z-0.941
Y17.341 Z-0.9
Y17.361 Z-0.852
Y17.368 Z-0.8
G00 Z5.
X4.324 Y58.788
G01 Z0.4 F500.
Z-0.8
X4.331 Z-0.852 F1000.
X4.351 Z-0.9
X4.383 Z-0.941
X4.424 Y58.789 Z-0.973
X4.473 Z-0.993
X4.524 Z-1.
X4.724
G03 X4.924 Y58.989 J0.2
G01 Y59.183 F2475.
X4.923 Y60.594
Y60.881
X4.455 Y60.825
X4.431 Y60.823
X3.585 Y60.742
X3.563 Y60.74
X2.68 Y60.676
X2.66 Y60.674
X1.742 Y60.626
X1.723 Y60.625
X1.479 Y60.617
X1.48 Y60.17
X1.482 Y58.773
X1.485 Y57.399
X1.487 Y56.046
X1.49 Y54.717
X1.493 Y53.409
X1.495 Y52.124
X1.498 Y50.861
X1.5 Y49.621
X1.502 Y48.403
X1.505 Y47.207
X1.507 Y46.033
X1.509 Y44.882
X1.511 Y43.754
X1.513 Y42.647
X1.515 Y41.563
X1.517 Y40.502
X1.519 Y39.462
X1.521 Y38.446
X1.523 Y37.451
X1.525 Y36.479
X1.527 Y35.529
X1.529 Y34.601
X1.531 Y33.696
X1.532 Y32.813
X1.534 Y31.953
X1.536 Y31.115
X1.537 Y30.299
X1.539 Y29.505
X1.54 Y28.734
X1.542 Y27.986
X1.543 Y27.259
X1.544 Y26.555
X1.546 Y25.874
X1.547 Y25.214
X1.548 Y24.577
X1.549 Y23.963
X1.551 Y23.37
X1.552 Y22.8
X1.553 Y22.253
X1.554 Y21.728
X1.555 Y21.225
X1.556 Y20.744
Y20.286
X1.557 Y19.85
X1.558 Y19.437
X1.559 Y19.045
X1.56 Y18.677
Y18.33
X1.561 Y18.006
Y17.704
X1.562 Y17.425
Y17.168
X1.563 Y16.933
Y16.81
X1.83 Y16.809
X2.119 Y16.807
X2.397 Y16.806
X2.666 Y16.805
X2.923 Y16.804
X3.17 Y16.803
X3.406 Y16.802
X3.632 Y16.801
X3.848 Y16.8
X4.052
X4.247 Y16.799
X4.431 Y16.798
X4.604 Y16.797
X4.767
X4.919 Y16.796
X4.945
Y16.92
X4.944 Y17.157
Y17.417
Y17.699
Y18.004
Y18.331
Y18.681
Y19.054
X4.943 Y19.449
Y19.866
Y20.307
Y20.769
X4.942 Y21.255
Y21.763
Y22.293
Y22.847
X4.941 Y23.422
Y24.02
Y24.641
Y25.285
X4.94 Y25.951
Y26.639
Y27.351
X4.939 Y28.084
Y28.841
X4.938 Y29.619
Y30.421
Y31.245
X4.937 Y32.092
Y32.961
X4.936 Y33.853
Y34.767
Y35.704
X4.935 Y36.663
Y37.645
X4.934 Y38.65
Y39.677
X4.933 Y40.727
Y41.799
X4.932 Y42.894
X4.931 Y44.012
Y45.152
X4.93 Y46.315
Y47.5
X4.929 Y48.708
Y49.938
X4.928 Y51.191
X4.927 Y52.467
Y53.765
X4.926 Y55.086
Y56.429
X4.925 Y57.795
X4.924 Y58.989
G03 X4.724 Y59.189 I-0.2 F1000.
G01 X4.524
X4.472 Z-0.993
X4.424 Z-0.973
X4.383 Y59.188 Z-0.941
X4.351 Z-0.9
X4.331 Z-0.852
X4.324 Z-0.8
G00 Z5.
X-10.037 Y60.929
G01 Z0.4 F500.
Z-0.8
X-10.036 Y60.936 Z-0.852 F1000.
X-10.032 Y60.956 Z-0.9
X-10.025 Y60.987 Z-0.941
X-10.015 Y61.027 Z-0.973
X-10.005 Y61.074 Z-0.993
X-9.993 Y61.125 Z-1.
X-9.949 Y61.32
G03 X-10.101 Y61.559 I-0.195 J0.044
G01 X-10.628 Y61.678 F2475.
X-10.657 Y61.685
X-11.793 Y61.976
X-11.82 Y61.983
X-12.962 Y62.31
X-12.988 Y62.318
X-14.136 Y62.681
X-14.162 Y62.689
X-15.316 Y63.088
X-15.34 Y63.097
X-16.5 Y63.532
X-16.524 Y63.541
X-17.475 Y63.926
X-17.471 Y63.425
X-17.464 Y62.46
X-17.456 Y61.527
X-17.449 Y60.627
X-17.442 Y59.76
X-17.436 Y58.925
X-17.429 Y58.123
X-17.423 Y57.354
X-17.417 Y56.618
X-17.412 Y55.914
X-17.407 Y55.243
X-17.402 Y54.605
X-17.397 Y53.999
X-17.392 Y53.427
X-17.388 Y52.887
X-17.384 Y52.379
X-17.38 Y51.905
X-17.377 Y51.463
X-17.373 Y51.054
X-17.37 Y50.677
X-17.368 Y50.334
X-17.365 Y50.023
X-17.363 Y49.745
Y49.694
X-1.451 Y49.773
Y49.796
Y50.035
Y50.299
Y50.588
Y50.903
Y51.242
Y51.607
Y51.997
Y52.412
Y52.852
Y53.317
Y53.807
Y54.323
Y54.864
Y55.43
Y56.021
Y56.637
Y57.278
Y57.945
Y58.636
Y59.353
Y60.095
Y60.623
X-1.503 Y60.622
X-1.537 Y60.621
X-2.625 Y60.624
X-2.658 Y60.625
X-3.752 Y60.664
X-3.785 Y60.666
X-4.885 Y60.741
X-4.917 Y60.743
X-6.023 Y60.854
X-6.054 Y60.858
X-7.167 Y61.005
X-7.197 Y61.009
X-8.315 Y61.192
X-8.345 Y61.198
X-9.469 Y61.417
X-9.498 Y61.423
X-10.101 Y61.559
G03 X-10.34 Y61.408 I-0.044 J-0.195 F1000.
G01 X-10.384 Y61.213
X-10.395 Y61.162 Z-0.993
X-10.406 Y61.115 Z-0.973
X-10.415 Y61.075 Z-0.941
X-10.422 Y61.044 Z-0.9
X-10.426 Y61.024 Z-0.852
X-10.428 Y61.018 Z-0.8
G00 Z5.
X16.645 Y60.994
G01 Z0.4 F500.
Z-0.8
X16.652 Z-0.852 F1000.
X16.672 Z-0.9
X16.703 Z-0.941
X16.745 Z-0.973
X16.793 Z-0.993
X16.845 Z-1.
X17.045
G03 X17.245 Y61.194 J0.2
G01 X17.246 Y62.489 F2475.
X17.247 Y64.01
X17.248 Y64.06
X17.084 Y63.995
X17.081 Y63.994
X16.744 Y63.862
X16.74 Y63.86
X16.38 Y63.721
X16.377 Y63.72
X15.993 Y63.573
X15.99 Y63.572
X15.583 Y63.417
X15.581 Y63.416
X15.151 Y63.253
X15.149
X14.695 Y63.083
X14.693 Y63.082
X14.216 Y62.904
X14.214 Y62.903
X13.714 Y62.718
X13.712 Y62.717
X13.298 Y62.565
X13.301 Y61.815
X13.307 Y60.385
X13.312 Y58.978
X13.317 Y57.592
X13.323 Y56.229
X13.328 Y54.887
X13.334 Y53.568
X13.339 Y52.27
X13.344 Y50.995
X13.349 Y49.741
X13.354 Y48.51
X13.36 Y47.301
X13.365 Y46.114
X13.37 Y44.949
X13.375 Y43.807
X13.38 Y42.687
X13.385 Y41.589
X13.389 Y40.514
X13.394 Y39.461
X13.399 Y38.43
X13.403 Y37.422
X13.408 Y36.436
X13.413 Y35.473
X13.417 Y34.533
X13.421 Y33.615
X13.426 Y32.719
X13.43 Y31.846
X13.434 Y30.996
X13.438 Y30.169
X13.442 Y29.365
X13.446 Y28.583
X13.45 Y27.824
X13.454 Y27.088
X13.457 Y26.374
X13.461 Y25.684
X13.464 Y25.017
X13.468 Y24.372
X13.471 Y23.751
X13.474 Y23.153
X13.477 Y22.577
X13.48 Y22.025
X13.483 Y21.496
X13.486 Y20.99
X13.489 Y20.507
X13.491 Y20.048
X13.494 Y19.612
X13.496 Y19.199
X13.498 Y18.809
X13.5 Y18.443
X13.502 Y18.1
X13.504 Y17.781
X13.506 Y17.485
X13.507 Y17.213
X13.509 Y16.964
X13.51 Y16.758
X13.544 Y16.757
X13.861 Y16.754
X14.166 Y16.75
X14.461 Y16.747
X14.744 Y16.743
X15.016 Y16.74
X15.278 Y16.737
X15.527 Y16.734
X15.766 Y16.731
X15.994 Y16.729
X16.211 Y16.726
X16.416 Y16.724
X16.611 Y16.722
X16.794 Y16.719
X16.966 Y16.717
X17.128 Y16.716
X17.206 Y16.715
Y16.921
Y17.176
Y17.456
X17.207 Y17.76
Y18.089
Y18.442
X17.208 Y18.82
Y19.221
Y19.647
X17.209 Y20.097
Y20.572
X17.21 Y21.071
Y21.594
Y22.142
X17.211 Y22.714
Y23.311
X17.212 Y23.931
X17.213 Y24.576
Y25.246
X17.214 Y25.94
Y26.658
X17.215 Y27.4
X17.216 Y28.167
Y28.958
X17.217 Y29.773
X17.218 Y30.613
X17.219 Y31.477
Y32.366
X17.22 Y33.279
X17.221 Y34.216
X17.222 Y35.177
X17.223 Y36.163
X17.224 Y37.173
X17.225 Y38.208
X17.226 Y39.267
Y40.35
X17.228 Y41.458
X17.229 Y42.589
Y43.746
X17.231 Y44.926
X17.232 Y46.131
X17.233 Y47.36
X17.234 Y48.614
X17.235 Y49.892
X17.236 Y51.194
X17.237 Y52.521
X17.239 Y53.872
X17.24 Y55.247
X17.241 Y56.647
X17.242 Y58.071
X17.243 Y59.519
X17.245 Y60.992
Y61.194
G03 X17.045 Y61.394 I-0.2 F1000.
G01 X16.845
X16.793 Z-0.993
X16.745 Z-0.973
X16.704 Z-0.941
X16.672 Z-0.9
X16.652 Z-0.852
X16.645 Z-0.8
G00 Z5.
X29.046 Y18.474
G01 Z0.4 F500.
Z-0.8
X29.053 Z-0.852 F1000.
X29.073 Z-0.9
X29.105 Z-0.941
X29.146 Z-0.973
X29.194 Z-0.993
X29.246 Z-1.
X29.446 Y18.473
G03 X29.647 Y18.673 J0.2
G01 Y18.796 F2475.
X29.65 Y20.294
X29.654 Y21.768
X29.657 Y23.218
X29.66 Y24.643
X29.663 Y26.044
X29.666 Y27.42
X29.669 Y28.773
X29.672 Y30.101
X29.675 Y31.404
X29.678 Y32.683
X29.68 Y33.938
X29.683 Y35.168
X29.686 Y36.374
X29.688 Y37.556
X29.691 Y38.713
X29.693 Y39.846
X29.696 Y40.955
X29.698 Y42.039
X29.701 Y43.098
X29.703 Y44.134
X29.705 Y45.145
X29.707 Y46.132
X29.709 Y47.094
X29.712 Y48.032
X29.714 Y48.946
X29.716 Y49.835
X29.717 Y50.7
X29.719 Y51.541
X29.721 Y52.357
X29.723 Y53.149
X29.725 Y53.916
X29.726 Y54.659
X29.728 Y55.378
X29.729 Y56.072
X29.731 Y56.742
X29.732 Y57.388
X29.734 Y58.009
X29.735 Y58.606
X29.736 Y59.178
X29.737 Y59.727
X29.739 Y60.25
X29.74 Y60.75
X29.741 Y61.225
X29.742 Y61.676
X29.743 Y62.102
X29.744 Y62.504
Y62.882
X29.745 Y63.235
X29.746 Y63.564
X29.747 Y63.869
Y64.149
X29.748 Y64.405
Y64.636
X29.749 Y64.843
Y64.874
X29.7 Y64.888
X29.654 Y64.903
X28.896 Y65.167
X28.852 Y65.183
X28.102 Y65.485
X28.059 Y65.504
X27.319 Y65.843
X27.277 Y65.863
X26.546 Y66.24
X26.506 Y66.262
X25.858 Y66.634
X25.854 Y65.237
X25.849 Y63.651
X25.845 Y62.092
X25.84 Y60.559
X25.836 Y59.051
X25.831 Y57.569
X25.827 Y56.112
X25.823 Y54.682
X25.819 Y53.277
X25.815 Y51.898
X25.811 Y50.545
X25.807 Y49.218
X25.803 Y47.916
X25.799 Y46.641
X25.796 Y45.391
X25.792 Y44.166
X25.789 Y42.968
X25.785 Y41.795
X25.782 Y40.648
X25.779 Y39.527
X25.775 Y38.431
X25.772 Y37.362
X25.769 Y36.318
X25.766 Y35.3
X25.763 Y34.308
X25.761 Y33.341
X25.758 Y32.4
X25.755 Y31.485
X25.753 Y30.596
X25.75 Y29.733
X25.748 Y28.895
X25.745 Y28.083
X25.743 Y27.297
X25.741 Y26.537
X25.739 Y25.802
X25.736 Y25.093
X25.734 Y24.41
X25.733 Y23.753
X25.731 Y23.122
X25.729 Y22.516
X25.727 Y21.936
X25.726 Y21.382
X25.724 Y20.854
X25.723 Y20.351
X25.721 Y19.874
X25.72 Y19.423
X25.719 Y18.998
X25.717 Y18.598
X25.716 Y18.225
X25.715 Y17.877
X25.714 Y17.555
Y17.258
X25.713 Y16.987
X25.712 Y16.743
Y16.705
X25.765 Y16.706
X26.095 Y16.707
X26.414 Y16.708
X26.721 Y16.709
X27.016 Y16.71
X27.3 Y16.711
X27.572 Y16.712
X27.833 Y16.713
X28.082 Y16.714
X28.319 Y16.715
X28.545 Y16.716
X28.76 Y16.717
X28.963
X29.154 Y16.718
X29.333 Y16.719
X29.501
X29.642 Y16.72
X29.644 Y17.273
X29.647 Y18.673
G03 X29.447 Y18.873 I-0.2 F1000.
G01 X29.247 Y18.874
X29.195 Z-0.993
X29.147 Z-0.973
X29.106 Z-0.941
X29.074 Z-0.9
X29.054 Z-0.852
X29.047 Z-0.8
G00 Z5.
X27.468 Y2.732
G01 Z0.4 F500.
Z-0.8
X27.462 Y2.731 Z-0.852 F1000.
X27.442 Y2.727 Z-0.9
X27.411 Y2.72 Z-0.941
X27.371 Y2.711 Z-0.973
X27.324 Y2.701 Z-0.993
X27.273 Y2.69 Z-1.
X27.077 Y2.648
G03 X26.924 Y2.41 I0.042 J-0.196
G01 X26.926 Y2.399 F2475.
X26.988 Y2.095
X27. Y2.023
X27.039 Y1.719
X27.046 Y1.645
X27.062 Y1.342
X27.064 Y1.267
X27.057 Y0.965
X27.053 Y0.891
X27.024 Y0.591
X27.014 Y0.517
X26.963 Y0.219
X26.947 Y0.146
X26.874 Y-0.149
X26.853 Y-0.219
X26.758 Y-0.51
X26.733 Y-0.577
X26.615 Y-0.865
X26.586 Y-0.928
X26.446 Y-1.212
X26.414 Y-1.271
X26.253 Y-1.55
X26.218 Y-1.606
X26.034 Y-1.879
X25.997 Y-1.93
X25.792 Y-2.197
X25.753 Y-2.244
X25.526 Y-2.505
X25.487 Y-2.548
X25.238 Y-2.802
X25.198 Y-2.841
X24.928 Y-3.087
X24.888 Y-3.122
X24.597 Y-3.361
X24.556 Y-3.392
X24.244 Y-3.622
X24.203 Y-3.65
X23.87 Y-3.871
X23.83 Y-3.896
X23.476 Y-4.108
X23.437 Y-4.13
X23.062 Y-4.331
X23.023 Y-4.351
X22.628 Y-4.541
G02 X22.184 Y-4.64 I-0.434 J0.901
G01 X13.056 Y-4.552
G02 X12.066 Y-3.557 I0.01 J1.
G01 X11.978 Y12.582
G02 X12.98 Y13.588 I1. J0.005
G01 X21.072 Y13.567
X21.104
X21.455 Y13.554
X21.521 Y13.55
X21.861 Y13.515
X21.928 Y13.506
X22.256 Y13.45
X22.324 Y13.436
X22.639 Y13.359
X22.707 Y13.34
X23.009 Y13.244
X23.076 Y13.22
X23.365 Y13.104
X23.431 Y13.074
X23.706 Y12.941
X23.771 Y12.906
X24.031 Y12.755
X24.093 Y12.715
X24.338 Y12.547
X24.398 Y12.503
X24.628 Y12.32
X24.684 Y12.271
X24.897 Y12.072
X24.95 Y12.019
X25.147 Y11.806
X25.196 Y11.749
X25.376 Y11.522
X25.42 Y11.462
X25.582 Y11.223
X25.622 Y11.159
X25.765 Y10.909
X25.8 Y10.842
X25.925 Y10.581
X25.955 Y10.512
X26.061 Y10.24
X26.085 Y10.171
X26.171 Y9.889
X26.19 Y9.818
X26.256 Y9.528
X26.269 Y9.456
X26.314 Y9.159
X26.322 Y9.087
X26.346 Y8.782
X26.348 Y8.711
X26.35 Y8.401
X26.348 Y8.329
X26.327 Y8.014
X26.32 Y7.944
X26.276 Y7.624
X26.264 Y7.556
X26.197 Y7.232
X26.181 Y7.167
X26.09 Y6.84
X26.07 Y6.777
X25.954 Y6.448
X25.931 Y6.388
X25.79 Y6.058
X25.763 Y6.001
X25.597 Y5.671
X25.568 Y5.617
X25.375 Y5.287
X25.353 Y5.251
X25.371 Y5.231
X25.619 Y4.944
X25.655 Y4.901
X25.88 Y4.61
X25.914 Y4.563
X26.115 Y4.269
X26.148 Y4.217
X26.326 Y3.92
X26.357 Y3.865
X26.511 Y3.565
X26.54 Y3.506
X26.671 Y3.205
X26.696 Y3.141
X26.804 Y2.839
X26.825 Y2.772
X26.91 Y2.468
X26.924 Y2.41
G03 X27.162 Y2.257 I0.196 J0.042 F1000.
G01 X27.357 Y2.299
X27.408 Y2.31 Z-0.993
X27.455 Y2.32 Z-0.973
X27.496 Y2.329 Z-0.941
X27.527 Y2.336 Z-0.9
X27.546 Y2.34 Z-0.852
X27.553 Y2.341 Z-0.8
G00 Z5.
X20.891 Y1.463
G01 Z0.4 F500.
Z-0.8
X20.897 Y1.465 Z-0.852 F1000.
X20.917 Y1.469 Z-0.9
X20.948 Y1.476 Z-0.941
X20.988 Y1.486 Z-0.973
X21.035 Y1.496 Z-0.993
X21.086 Y1.508 Z-1.
X21.281 Y1.553
G03 X21.431 Y1.792 I-0.045 J0.195
G01 X21.419 Y1.844 F2475.
X21.394 Y1.923
X21.365 Y1.997
X21.332 Y2.063
X21.296 Y2.123
X21.259 Y2.174
X21.221 Y2.216
X21.184 Y2.25
X21.148 Y2.276
X21.113 Y2.297
X21.076 Y2.313
X21.037 Y2.325
X20.99 Y2.333
X20.904 Y2.338
X17.593
Y0.951
X17.759 Y0.95
X18.109 Y0.948
X18.441 Y0.946
X18.755 Y0.944
X19.05 Y0.943
X19.328 Y0.941
X19.587 Y0.94
X19.828 Y0.938
X20.05 Y0.937
X20.255 Y0.936
X20.441 Y0.935
X20.61 Y0.934
X20.76 Y0.933
X20.867 Y0.932
X20.994 Y0.938
X21.077 Y0.95
X21.142 Y0.967
X21.193 Y0.986
X21.233 Y1.008
X21.267 Y1.031
X21.297 Y1.057
X21.325 Y1.088
X21.352 Y1.125
X21.377 Y1.171
X21.401 Y1.224
X21.422 Y1.285
X21.439 Y1.354
X21.451 Y1.429
X21.457 Y1.509
Y1.592
X21.451 Y1.677
X21.438 Y1.761
X21.431 Y1.792
G03 X21.191 Y1.943 I-0.195 J-0.045 F1000.
G01 X20.996 Y1.898
X20.946 Y1.886 Z-0.993
X20.899 Y1.876 Z-0.973
X20.858 Y1.866 Z-0.941
X20.827 Y1.859 Z-0.9
X20.808 Y1.855 Z-0.852
X20.801 Y1.853 Z-0.8
G00 Z5.
X18.006 Y8.314
G01 Z0.4 F500.
Z-0.8
G18 G03 X17.806 Z-1. I-0.2 F1000.
G01 X17.606
G17 G03 X17.406 Y8.114 J-0.2
G01 Y7.759 F2475.
X17.492
X17.819 Y7.757
X18.128 Y7.756
X18.421 Y7.754
X18.696 Y7.753
X18.955 Y7.752
X19.196 Y7.751
X19.421 Y7.75
X19.629 Y7.749
X19.82 Y7.748
X19.993 Y7.747
X20.15 Y7.746
X20.29
X20.393 Y7.745
X20.521 Y7.75
X20.61 Y7.76
X20.681 Y7.775
X20.735 Y7.792
X20.775 Y7.809
X20.803 Y7.825
X20.822 Y7.838
X20.835 Y7.85
X20.844 Y7.86
X20.851 Y7.869
X20.857 Y7.88
X20.862 Y7.894
X20.867 Y7.91
X20.871 Y7.93
X20.874 Y7.953
Y7.979
X20.871 Y8.007
X20.865 Y8.037
X20.857 Y8.068
X20.845 Y8.097
X20.831 Y8.127
X20.814 Y8.154
X20.795 Y8.179
X20.774 Y8.203
X20.75 Y8.224
X20.725 Y8.243
X20.696 Y8.261
X20.662 Y8.276
X20.623 Y8.29
X20.576 Y8.302
X20.519 Y8.31
X20.429 Y8.314
X17.406
Y8.114
G03 X17.606 Y7.914 I0.2 F1000.
G01 X17.806
G18 G02 X18.006 Z-0.8 K0.2
G00 Z5.
X43.638 Y-16.231
G01 Z0.4 F500.
Z-0.8
X43.645 Z-0.852 F1000.
X43.665 Z-0.9
X43.697 Z-0.941
X43.738 Z-0.973
X43.787 Y-16.232 Z-0.993
X43.838 Z-1.
X44.038
G17 G03 X44.239 Y-16.033 I0.001 J0.2
G01 X44.264 Y-7.894 F2475.
X27.881 Y-7.776
X27.965 Y-56.679
X28.027 Y-56.661
X29.328 Y-56.258
X30.601 Y-55.836
X31.845 Y-55.397
X33.06 Y-54.94
X34.246 Y-54.465
X35.404 Y-53.972
X36.533 Y-53.462
X37.633 Y-52.933
X38.705 Y-52.387
X39.748 Y-51.823
X40.763 Y-51.242
X41.749 Y-50.643
X42.707 Y-50.026
X43.636 Y-49.392
X44.136 Y-49.031
X44.239 Y-16.033
G03 X44.04 Y-15.832 I-0.2 J0.001 F1000.
G01 X43.84
X43.788 Z-0.993
X43.74 Y-15.831 Z-0.973
X43.698 Z-0.941
X43.667 Z-0.9
X43.647 Z-0.852
X43.64 Z-0.8
G00 Z5.
X41.447 Y60.047
G01 Z0.4 F500.
Z-0.8
X41.454 Z-0.852 F1000.
X41.474 Z-0.9
X41.505 Z-0.941
X41.547 Z-0.973
X41.595 Z-0.993
X41.647 Z-1.
X41.847
G03 X42.047 Y60.246 J0.2
G01 Y60.401 F2475.
X42.048 Y60.736
X42.049 Y61.047
Y61.336
X42.05 Y61.601
X42.051 Y61.844
Y62.059
X41.463 Y62.105
X41.447 Y62.107
X40.695 Y62.179
X40.679 Y62.181
X39.93 Y62.265
X39.913 Y62.267
X39.168 Y62.365
X39.151 Y62.367
X38.408 Y62.477
X38.391 Y62.479
X38.076 Y62.532
X38.075 Y62.241
X38.072 Y60.784
X38.07 Y59.349
X38.067 Y57.938
X38.064 Y56.549
X38.062 Y55.183
X38.059 Y53.84
X38.057 Y52.521
X38.054 Y51.224
X38.052 Y49.95
X38.05 Y48.699
X38.048 Y47.472
X38.045 Y46.267
X38.043 Y45.085
X38.041 Y43.926
X38.039 Y42.791
X38.037 Y41.678
X38.035 Y40.589
X38.033 Y39.523
X38.031 Y38.479
X38.029 Y37.459
X38.027 Y36.463
X38.025 Y35.489
X38.024 Y34.539
X38.022 Y33.611
X38.02 Y32.707
X38.019 Y31.826
X38.017 Y30.969
X38.016 Y30.135
X38.014 Y29.323
X38.013 Y28.536
X38.011 Y27.771
X38.01 Y27.03
X38.009 Y26.312
X38.007 Y25.617
X38.006 Y24.946
X38.005 Y24.299
X38.004 Y23.674
X38.003 Y23.073
X38.002 Y22.495
X38. Y21.941
Y21.411
X37.999 Y20.903
X37.998 Y20.419
X37.997 Y19.959
X37.996 Y19.522
X37.995 Y19.108
Y18.718
X37.994 Y18.352
X37.993 Y18.009
Y17.69
X37.992 Y17.394
Y17.122
X37.991 Y16.874
Y16.696
X41.955 Y16.718
X41.956 Y17.191
X41.959 Y18.634
X41.962 Y20.053
X41.965 Y21.45
X41.968 Y22.823
X41.971 Y24.173
X41.974 Y25.501
X41.977 Y26.805
X41.979 Y28.086
X41.982 Y29.344
X41.984 Y30.579
X41.987 Y31.791
X41.99 Y32.979
X41.992 Y34.145
X41.994 Y35.287
X41.997 Y36.407
X41.999 Y37.503
X42.001 Y38.577
X42.004 Y39.627
X42.006 Y40.654
X42.008 Y41.658
X42.01 Y42.639
X42.012 Y43.597
X42.014 Y44.532
X42.016 Y45.444
X42.018 Y46.332
X42.02 Y47.198
X42.021 Y48.041
X42.023 Y48.86
X42.025 Y49.656
X42.026 Y50.43
X42.028 Y51.18
X42.03 Y51.907
X42.031 Y52.611
X42.032 Y53.292
X42.034 Y53.949
X42.035 Y54.584
X42.036 Y55.196
X42.038 Y55.785
X42.039 Y56.35
X42.04 Y56.892
X42.041 Y57.412
X42.042 Y57.908
X42.043 Y58.381
X42.044 Y58.831
X42.045 Y59.258
X42.046 Y59.662
X42.047 Y60.043
Y60.246
G03 X41.847 Y60.447 I-0.2 F1000.
G01 X41.647
X41.596 Z-0.993
X41.547 Z-0.973
X41.506 Z-0.941
X41.474 Z-0.9
X41.454 Z-0.852
X41.447 Z-0.8
G00 Z5.
X54.531 Y58.446
G01 Z0.4 F500.
Z-0.8
X54.538 Y58.444 Z-0.852 F1000.
X54.556 Y58.436 Z-0.9
X54.585 Y58.423 Z-0.941
X54.623 Y58.407 Z-0.973
X54.667 Y58.387 Z-0.993
X54.715 Y58.367 Z-1.
X54.898 Y58.287
G03 X55.161 Y58.39 I0.08 J0.183
G01 X55.312 Y58.737 F2475.
X55.319 Y58.752
X55.641 Y59.457
X55.648 Y59.473
X55.982 Y60.173
X55.989 Y60.188
X56.335 Y60.884
X56.343 Y60.9
X56.702 Y61.591
X56.71 Y61.606
X56.933 Y62.018
X56.682 Y61.999
X56.667 Y61.998
X55.554 Y61.93
X55.54
X54.396 Y61.876
X54.383 Y61.875
X53.207 Y61.835
X53.195
X51.987 Y61.809
X51.976
X50.737 Y61.796
X50.726
X50.456
X50.455 Y61.345
X50.453 Y59.916
X50.451 Y58.51
X50.449 Y57.127
X50.447 Y55.766
X50.445 Y54.428
X50.444 Y53.112
X50.442 Y51.818
X50.44 Y50.548
X50.439 Y49.299
X50.437 Y48.074
X50.436 Y46.871
X50.434 Y45.69
X50.433 Y44.533
X50.431 Y43.397
X50.43 Y42.285
X50.429 Y41.195
X50.427 Y40.128
X50.426 Y39.083
X50.425 Y38.061
X50.424 Y37.062
X50.422 Y36.086
X50.421 Y35.132
X50.42 Y34.201
X50.419 Y33.293
X50.418 Y32.407
X50.417 Y31.545
X50.416 Y30.705
X50.415 Y29.888
Y29.093
X50.414 Y28.322
X50.413 Y27.573
X50.412 Y26.847
X50.411 Y26.144
Y25.464
X50.41 Y24.807
X50.409 Y24.173
Y23.561
X50.408 Y22.973
Y22.407
X50.407 Y21.865
Y21.345
X50.406 Y20.848
Y20.375
X50.405 Y19.924
Y19.496
Y19.092
X50.404 Y18.71
Y18.351
Y18.016
X50.403 Y17.703
Y17.413
Y17.147
Y16.904
Y16.746
X55.612 Y16.754
X55.61 Y16.759
X55.604 Y16.773
X55.3 Y17.484
X55.294 Y17.498
X55.001 Y18.213
X54.996 Y18.227
X54.713 Y18.946
X54.707 Y18.96
X54.435 Y19.684
X54.43 Y19.697
X54.168 Y20.424
X54.163 Y20.438
X53.912 Y21.169
X53.908 Y21.183
X53.667 Y21.917
X53.663 Y21.931
X53.433 Y22.668
X53.428 Y22.682
X53.209 Y23.422
X53.205 Y23.436
X52.997 Y24.18
X52.993 Y24.193
X52.795 Y24.94
X52.792 Y24.954
X52.605 Y25.702
X52.601 Y25.716
X52.425 Y26.468
X52.422 Y26.482
X52.257 Y27.235
X52.254 Y27.249
X52.099 Y28.005
X52.097 Y28.019
X51.953 Y28.777
X51.951 Y28.791
X51.818 Y29.55
X51.816 Y29.565
X51.694 Y30.326
X51.692 Y30.34
X51.582 Y31.102
X51.58 Y31.117
X51.48 Y31.881
X51.479 Y31.895
X51.39 Y32.66
X51.389 Y32.674
X51.312 Y33.44
X51.31 Y33.455
X51.244 Y34.222
X51.243 Y34.236
X51.188 Y35.004
Y35.018
X51.144 Y35.786
X51.143 Y35.801
X51.111 Y36.57
Y36.584
X51.09 Y37.353
X51.089 Y37.368
X51.08 Y38.136
Y38.151
X51.082 Y38.92
Y38.934
X51.095 Y39.703
Y39.718
X51.12 Y40.485
Y40.5
X51.157 Y41.268
Y41.283
X51.205 Y42.049
X51.206 Y42.064
X51.265 Y42.83
X51.266 Y42.845
X51.337 Y43.609
X51.339 Y43.625
X51.421 Y44.388
X51.423 Y44.403
X51.517 Y45.165
X51.519 Y45.18
X51.624 Y45.94
X51.626 Y45.956
X51.744 Y46.714
X51.746 Y46.73
X51.875 Y47.486
X51.878 Y47.502
X52.019 Y48.256
X52.022 Y48.272
X52.175 Y49.024
X52.178 Y49.04
X52.342 Y49.79
X52.346 Y49.805
X52.522 Y50.553
X52.526 Y50.569
X52.714 Y51.314
X52.718 Y51.329
X52.919 Y52.071
X52.923 Y52.087
X53.135 Y52.826
X53.14 Y52.841
X53.364 Y53.577
X53.369 Y53.593
X53.605 Y54.326
X53.61 Y54.341
X53.858 Y55.07
X53.864 Y55.086
X54.124 Y55.812
X54.13 Y55.827
X54.403 Y56.549
X54.409 Y56.565
X54.693 Y57.283
X54.7 Y57.298
X54.997 Y58.012
X55.003 Y58.027
X55.161 Y58.39
G03 X55.058 Y58.653 I-0.183 J0.08 F1000.
G01 X54.875 Y58.733
X54.827 Y58.754 Z-0.993
X54.783 Y58.773 Z-0.973
X54.745 Y58.79 Z-0.941
X54.716 Y58.802 Z-0.9
X54.697 Y58.81 Z-0.852
X54.691 Y58.813 Z-0.8
G00 Z5.
X-37.545 Y55.634
G01 Z0.4 F500.
Z-0.8
X-37.538 Z-0.852 F1000.
X-37.518 Z-0.9
X-37.487 Z-0.941
X-37.445 Y55.635 Z-0.973
X-37.397 Z-0.993
X-37.345 Z-1.
X-37.145 Y55.636
G03 X-36.946 Y55.837 I-0.001 J0.2
G01 X-36.987 Y62.878 F2475.
X-37.556 Y62.745
X-37.572 Y62.741
X-38.186 Y62.608
X-38.202 Y62.605
X-38.825 Y62.481
X-38.84 Y62.478
X-39.471 Y62.363
X-39.487 Y62.36
X-40.127 Y62.253
X-40.142 Y62.251
X-40.791 Y62.153
X-40.805 Y62.151
X-41.463 Y62.061
X-41.478 Y62.059
X-42.144 Y61.978
X-42.158 Y61.977
X-42.834 Y61.905
X-42.847 Y61.903
X-43.531 Y61.84
X-43.545 Y61.838
X-44.238 Y61.783
X-44.251 Y61.782
X-44.952 Y61.736
X-44.965 Y61.735
X-45.676 Y61.698
X-45.688 Y61.697
X-46.407 Y61.668
X-46.42 Y61.667
X-47.147 Y61.647
X-47.159
X-47.896 Y61.635
X-47.908
X-48.653 Y61.631
X-48.665
X-49.419 Y61.637
X-49.43
X-50.193 Y61.651
X-50.204
X-50.976 Y61.674
X-50.986
X-51.767 Y61.705
X-51.777 Y61.706
X-52.567 Y61.746
X-52.577 Y61.747
X-53.375 Y61.795
X-53.385 Y61.796
X-54.192 Y61.853
X-54.201 Y61.854
X-55.017 Y61.919
X-55.026 Y61.92
X-55.85 Y61.995
X-55.86 Y61.996
X-56.693 Y62.079
X-56.702 Y62.08
X-57.338 Y62.149
X-57.323 Y62.12
X-57.313 Y62.102
X-56.871 Y61.228
X-56.862 Y61.21
X-56.438 Y60.328
X-56.429 Y60.309
X-56.024 Y59.42
X-56.015 Y59.401
X-55.628 Y58.503
X-55.62 Y58.484
X-55.251 Y57.578
X-55.243 Y57.559
X-54.892 Y56.646
X-54.885 Y56.626
X-54.553 Y55.705
X-54.546 Y55.686
X-54.232 Y54.756
X-54.225 Y54.737
X-53.929 Y53.799
X-53.924 Y53.78
X-53.646 Y52.834
X-53.64 Y52.815
X-53.381 Y51.861
X-53.376 Y51.842
X-53.135 Y50.88
X-53.13 Y50.861
X-52.907 Y49.892
X-52.903 Y49.872
X-52.866 Y49.694
X-52.589 Y49.695
X-51.53 Y49.701
X-50.506 Y49.706
X-49.517 Y49.711
X-48.563 Y49.715
X-47.643 Y49.72
X-46.758 Y49.724
X-45.907 Y49.729
X-45.092 Y49.733
X-44.31 Y49.736
X-43.564 Y49.74
X-42.853 Y49.744
X-42.176 Y49.747
X-41.534 Y49.75
X-40.926 Y49.753
X-40.354 Y49.756
X-39.816 Y49.759
X-39.312 Y49.761
X-38.844 Y49.764
X-38.41 Y49.766
X-38.011 Y49.768
X-37.646 Y49.77
X-37.317 Y49.771
X-37.022 Y49.773
X-36.912
X-36.946 Y55.837
G03 X-37.147 Y56.036 I-0.2 J-0.001 F1000.
G01 X-37.347 Y56.035
X-37.399 Z-0.993
X-37.447 Z-0.973
X-37.489 Y56.034 Z-0.941
X-37.521 Z-0.9
X-37.541 Z-0.852
X-37.547 Z-0.8
G00 Z5.
X-46.997 Y17.481
G01 Z0.4 F500.
Z-0.8
G19 G02 Y17.281 Z-1. J-0.2 F1000.
G01 Y17.081
G17 G03 X-46.797 Y16.881 I0.2
G01 X-38.963 F2475.
X-38.717
X-38.481
X-38.256
X-38.042
X-37.838
X-37.644
X-37.461
X-37.288
X-37.126
X-36.974
X-36.94
X-36.938 Y17.1
X-36.936 Y17.383
X-36.933 Y17.697
X-36.93 Y18.041
X-36.927 Y18.415
X-36.924 Y18.818
X-36.92 Y19.252
X-36.916 Y19.715
X-36.912 Y20.208
X-36.907 Y20.731
X-36.902 Y21.284
X-36.897 Y21.867
X-36.892 Y22.479
X-36.886 Y23.122
X-36.881 Y23.794
X-36.874 Y24.497
X-36.868 Y25.229
X-36.862 Y25.991
X-36.855 Y26.783
X-36.848 Y27.605
X-36.84 Y28.457
X-36.833 Y29.338
X-36.825 Y30.183
X-52.252
X-52.298 Y29.896
X-52.301 Y29.883
X-52.494 Y28.779
X-52.497 Y28.766
X-52.702 Y27.684
X-52.705 Y27.67
X-52.921 Y26.612
X-52.924 Y26.597
X-53.152 Y25.561
X-53.155 Y25.546
X-53.394 Y24.533
X-53.398 Y24.518
X-53.648 Y23.528
X-53.652 Y23.511
X-53.914 Y22.544
X-53.919 Y22.527
X-54.192 Y21.582
X-54.197 Y21.565
X-54.481 Y20.643
X-54.487 Y20.625
X-54.782 Y19.726
X-54.789 Y19.707
X-55.096 Y18.831
X-55.102 Y18.812
X-55.421 Y17.958
X-55.428 Y17.938
X-55.758 Y17.107
X-55.766 Y17.087
X-55.853 Y16.881
X-49.558
X-49.03
X-48.512
X-48.004
X-47.507
X-47.02
X-46.797
G03 X-46.597 Y17.081 J0.2 F1000.
G01 Y17.281
G19 G03 Y17.481 Z-0.8 K0.2
G00 Z5.
X-11.452 Y-35.724
G01 Z0.4 F500.
Z-0.8
X-11.446 Y-35.72 Z-0.852 F1000.
X-11.429 Y-35.71 Z-0.9
X-11.402 Y-35.693 Z-0.941
X-11.367 Y-35.67 Z-0.973
X-11.326 Y-35.645 Z-0.993
X-11.282 Y-35.617 Z-1.
X-11.113 Y-35.51
G17 G03 X-11.051 Y-35.234 I-0.107 J0.169
G01 X-11.061 Y-35.218 F2475.
X-11.26 Y-34.889
X-11.289 Y-34.839
X-11.472 Y-34.492
X-11.496 Y-34.443
X-11.663 Y-34.08
X-11.684 Y-34.031
X-11.835 Y-33.651
X-11.852 Y-33.604
X-11.987 Y-33.207
X-12.002 Y-33.161
X-12.121 Y-32.747
X-12.133 Y-32.703
X-12.236 Y-32.272
X-12.245 Y-32.23
X-12.332 Y-31.782
X-12.339 Y-31.743
X-12.411 Y-31.278
X-12.416 Y-31.24
X-12.471 Y-30.758
X-12.475 Y-30.722
X-12.514 Y-30.223
X-12.516 Y-30.19
X-12.54 Y-29.674
X-12.541 Y-29.643
X-12.549 Y-29.11
Y-29.08
X-12.54 Y-28.53
X-12.539 Y-28.503
X-12.515 Y-27.936
X-12.514 Y-27.91
X-12.474 Y-27.326
X-12.472 Y-27.301
X-12.416 Y-26.701
X-12.413 Y-26.678
X-12.341 Y-26.06
X-12.339 Y-26.038
X-12.251 Y-25.403
X-12.248 Y-25.383
X-12.144 Y-24.731
X-12.14 Y-24.713
X-12.026 Y-24.071
X-12.238 Y-24.348
X-12.604 Y-24.862
X-12.946 Y-25.379
X-13.263 Y-25.901
X-13.556 Y-26.426
X-13.825 Y-26.957
X-14.071 Y-27.491
X-14.292 Y-28.031
X-14.49 Y-28.574
X-14.664 Y-29.123
X-14.815 Y-29.677
X-14.943 Y-30.236
X-15.048 Y-30.8
X-15.129 Y-31.37
X-15.187 Y-31.946
X-15.222 Y-32.528
X-15.233 Y-33.117
X-15.221 Y-33.712
X-15.186 Y-34.313
X-15.127 Y-34.921
X-15.044 Y-35.536
X-14.938 Y-36.158
X-14.807 Y-36.787
X-14.652 Y-37.423
X-14.473 Y-38.067
X-14.273 Y-38.708
X-13.965 Y-38.693
X-13.509 Y-38.644
X-13.079 Y-38.571
X-12.674 Y-38.474
X-12.294 Y-38.355
X-11.937 Y-38.213
X-11.602 Y-38.049
X-11.287 Y-37.864
X-10.993 Y-37.656
X-10.716 Y-37.424
X-10.456 Y-37.168
X-10.212 Y-36.887
X-9.983 Y-36.578
X-9.964 Y-36.548
X-10.218 Y-36.296
X-10.261 Y-36.25
X-10.508 Y-35.972
X-10.547 Y-35.924
X-10.778 Y-35.629
X-10.814 Y-35.58
X-11.029 Y-35.268
X-11.051 Y-35.234
G03 X-11.327 Y-35.172 I-0.169 J-0.107 F1000.
G01 X-11.496 Y-35.279
X-11.54 Y-35.306 Z-0.993
X-11.581 Y-35.332 Z-0.973
X-11.616 Y-35.354 Z-0.941
X-11.642 Y-35.371 Z-0.9
X-11.659 Y-35.382 Z-0.852
X-11.665 Y-35.386 Z-0.8
G00 Z15.

M09
M05
G28 G91 Z0.
G90
G49
G28 G91 X0. Y0.
G90
M30
%
