(1002)
(T23 D=2 CR=1 - ZMIN=-1 - ball end mill)
N10 G90
N15 G98
N20 G71
(-Attention- Property Safe Retracts is set to Clearance Height.)
(Ensure the clearance height will clear the part and or fixtures.)
(Raise the Z-axis to a safe height before starting the program.)
(2D Contour1)
N25 M00 (CHANGE TO T23)
N30 G90
N35 M08
N40 G00 Z15
N45 X0.546 Y2.804
N50 S22000 M03
N55 G00 Z5
N60 G01 Z0.4 F500
N65 Z-0.8
N70 X0.551 Y2.8 Z-0.852 F1000
N75 X0.565 Y2.785 Z-0.9
N80 X0.587 Y2.763 Z-0.941
N85 X0.617 Y2.734 Z-0.973
N90 X0.651 Y2.7 Z-0.993
N95 X0.688 Y2.663 Z-1
N100 X0.829 Y2.522
N105 G03 X1.112 Y2.523 I0.141 J0.142
N110 G02 X2.377 Y2.65 I0.709 J-0.705 F2475
N115 G01 X2.388 Y2.643
N120 X2.421 Y2.621
N125 X2.475 Y2.584
N130 X2.551 Y2.533
N135 X2.649 Y2.468
N140 X2.769 Y2.388
N145 X2.911 Y2.293
N150 X3.074 Y2.184
N155 X3.259 Y2.06
N160 X3.466 Y1.922
N165 X3.695 Y1.769
N170 X3.946 Y1.602
N175 X4.218 Y1.42
N180 X4.512 Y1.223
N185 X4.828 Y1.012
N190 X5.166 Y0.787
N195 G02 X5.504 Y-0.494 I-0.555 J-0.832
N200 G01 X5.313 Y-0.873
N205 X5.285 Y-0.925
N210 X5.076 Y-1.286
N215 X5.045 Y-1.336
N220 X4.819 Y-1.679
N225 X4.785 Y-1.727
N230 X4.542 Y-2.052
N235 X4.505 Y-2.098
N240 X4.247 Y-2.403
N245 X4.208 Y-2.447
N250 X3.935 Y-2.734
N255 X3.893 Y-2.775
N260 X3.607 Y-3.043
N265 X3.564 Y-3.081
N270 X3.265 Y-3.33
N275 X3.219 Y-3.365
N280 X2.909 Y-3.595
N285 X2.862 Y-3.627
N290 X2.541 Y-3.837
N295 X2.492 Y-3.867
N300 X2.162 Y-4.058
N305 X2.112 Y-4.084
N310 X1.772 Y-4.255
N315 X1.721 Y-4.279
N320 X1.374 Y-4.429
N325 X1.322 Y-4.45
N330 X0.969 Y-4.581
N335 X0.916 Y-4.599
N340 X0.556 Y-4.709
N345 X0.502 Y-4.724
N350 X0.138 Y-4.813
N355 X0.083 Y-4.825
N360 X-0.285 Y-4.894
N365 X-0.34 Y-4.903
N370 X-0.711 Y-4.951
N375 X-0.767 Y-4.957
N380 X-1.139 Y-4.984
N385 X-1.196 Y-4.987
N390 X-1.569 Y-4.993
N395 X-1.626 Y-4.992
N400 X-2 Y-4.977
N405 X-2.057 Y-4.973
N410 X-2.429 Y-4.936
N415 X-2.487 Y-4.929
N420 X-2.857 Y-4.87
N425 X-2.915 Y-4.859
N430 X-3.282 Y-4.779
N435 X-3.339 Y-4.765
N440 X-3.702 Y-4.663
N445 X-3.759 Y-4.645
N450 X-4.118 Y-4.521
N455 X-4.174 Y-4.499
N460 X-4.526 Y-4.353
N465 X-4.582 Y-4.327
N470 X-4.927 Y-4.158
N475 X-4.981 Y-4.13
N480 X-5.318 Y-3.938
N485 X-5.371 Y-3.906
N490 X-5.699 Y-3.691
N495 X-5.75 Y-3.656
N500 X-6.069 Y-3.418
N505 X-6.117 Y-3.379
N510 X-6.425 Y-3.119
N515 X-6.478 Y-3.071
N520 X-6.823 Y-2.733
N525 X-6.877 Y-2.676
N530 X-7.199 Y-2.306
N535 X-7.247 Y-2.248
N540 X-7.548 Y-1.846
N545 X-7.589 Y-1.787
N550 X-7.868 Y-1.352
N555 X-7.903 Y-1.294
N560 X-8.16 Y-0.826
N565 X-8.189 Y-0.77
N570 X-8.424 Y-0.27
N575 X-8.448 Y-0.216
N580 X-8.661 Y0.316
N585 X-8.68 Y0.367
N590 X-8.872 Y0.932
N595 X-8.887 Y0.98
N600 X-9.056 Y1.577
N605 X-9.068 Y1.622
N610 X-9.216 Y2.252
N615 X-9.225 Y2.294
N620 X-9.351 Y2.957
N625 X-9.357 Y2.995
N630 X-9.462 Y3.69
N635 X-9.465 Y3.711
N640 X-9.478 Y3.819
N645 X-9.485 Y3.892
N650 X-9.486 Y3.966
N655 X-9.478 Y4.365
N660 Y4.389
N665 X-9.461 Y4.78
N670 X-9.459 Y4.804
N675 X-9.433 Y5.186
N680 X-9.431 Y5.212
N685 X-9.396 Y5.584
N690 X-9.393 Y5.611
N695 X-9.349 Y5.975
N700 X-9.345 Y6.003
N705 X-9.292 Y6.358
N710 X-9.287 Y6.387
N715 X-9.225 Y6.733
N720 X-9.219 Y6.763
N725 X-9.148 Y7.1
N730 X-9.141 Y7.131
N735 X-9.061 Y7.46
N740 X-9.053 Y7.491
N745 X-8.963 Y7.811
N750 X-8.953 Y7.844
N755 X-8.855 Y8.154
N760 X-8.844 Y8.188
N765 X-8.736 Y8.489
N770 X-8.724 Y8.524
N775 X-8.607 Y8.817
N780 X-8.592 Y8.851
N785 X-8.467 Y9.135
N790 X-8.451 Y9.17
N795 X-8.316 Y9.446
N800 X-8.298 Y9.481
N805 X-8.154 Y9.747
N810 X-8.134 Y9.783
N815 X-7.982 Y10.04
N820 X-7.96 Y10.075
N825 X-7.798 Y10.324
N830 X-7.774 Y10.359
N835 X-7.603 Y10.598
N840 X-7.578 Y10.633
N845 X-7.398 Y10.864
N850 X-7.371 Y10.897
N855 X-7.182 Y11.119
N860 X-7.153 Y11.152
N865 X-6.955 Y11.364
N870 X-6.925 Y11.396
N875 X-6.718 Y11.6
N880 X-6.686 Y11.63
N885 X-6.47 Y11.825
N890 X-6.437 Y11.853
N895 X-6.212 Y12.039
N900 X-6.178 Y12.066
N905 X-5.944 Y12.244
N910 X-5.91 Y12.268
N915 X-5.667 Y12.437
N920 X-5.632 Y12.46
N925 X-5.38 Y12.62
N930 X-5.345 Y12.641
N935 X-5.084 Y12.792
N940 X-5.049 Y12.811
N945 X-4.778 Y12.953
N950 X-4.743 Y12.97
N955 X-4.464 Y13.103
N960 X-4.429 Y13.119
N965 X-4.141 Y13.243
N970 X-4.047 Y13.278
N975 X-3.949 Y13.304
N980 X-3.61 Y13.374
N985 X-3.583 Y13.379
N990 X-3.249 Y13.439
N995 X-3.22 Y13.444
N1000 X-2.892 Y13.493
N1005 X-2.862 Y13.497
N1010 X-2.538 Y13.535
N1015 X-2.507 Y13.538
N1020 X-2.188 Y13.566
N1025 X-2.155 Y13.568
N1030 X-1.842 Y13.585
N1035 X-1.808 Y13.586
N1040 X-1.5 Y13.592
N1045 X-1.465
N1050 X-1.161 Y13.588
N1055 X-1.125 Y13.586
N1060 X-0.826 Y13.571
N1065 X-0.789 Y13.568
N1070 X-0.496 Y13.542
N1075 X-0.458 Y13.538
N1080 X-0.17 Y13.501
N1085 X-0.131 Y13.496
N1090 X0.152 Y13.448
N1095 X0.192 Y13.441
N1100 X0.47 Y13.382
N1105 X0.51 Y13.373
N1110 X0.783 Y13.304
N1115 X0.823 Y13.293
N1120 X1.091 Y13.214
N1125 X1.131 Y13.201
N1130 X1.394 Y13.11
N1135 X1.434 Y13.096
N1140 X1.692 Y12.994
N1145 X1.731 Y12.978
N1150 X1.984 Y12.866
N1155 X2.023 Y12.848
N1160 X2.271 Y12.725
N1165 X2.309 Y12.706
N1170 X2.552 Y12.572
N1175 X2.589 Y12.551
N1180 X2.826 Y12.407
N1185 X2.862 Y12.384
N1190 X3.095 Y12.229
N1195 X3.129 Y12.206
N1200 X3.357 Y12.04
N1205 X3.389 Y12.016
N1210 X3.611 Y11.839
N1215 X3.643 Y11.814
N1220 X3.86 Y11.627
N1225 X3.89 Y11.6
N1230 X4.102 Y11.403
N1235 X4.129 Y11.376
N1240 X4.337 Y11.168
N1245 X4.363 Y11.141
N1250 X4.565 Y10.922
N1255 X4.589 Y10.895
N1260 X4.786 Y10.665
N1265 X4.809 Y10.638
N1270 X5.001 Y10.397
N1275 X5.022 Y10.37
N1280 X5.209 Y10.119
N1285 X5.228 Y10.092
N1290 X5.41 Y9.83
N1295 G02 X5.106 Y8.404 I-0.821 J-0.571
N1300 G01 X5.095 Y8.397
N1305 X5.062 Y8.377
N1310 X5.006 Y8.344
N1315 X4.928 Y8.297
N1320 X4.828 Y8.236
N1325 X4.706 Y8.162
N1330 X4.562 Y8.075
N1335 X4.395 Y7.974
N1340 X4.206 Y7.86
N1345 X3.995 Y7.732
N1350 X3.762 Y7.591
N1355 X3.506 Y7.437
N1360 X3.228 Y7.269
N1365 X2.928 Y7.087
N1370 X2.606 Y6.893
N1375 X2.262 Y6.684
N1380 G02 X0.937 Y6.95 I-0.517 J0.856
N1385 G01 X0.741 Y7.218
N1390 X0.56 Y7.437
N1395 X0.376 Y7.631
N1400 X0.19 Y7.802
N1405 X0.004 Y7.951
N1410 X-0.182 Y8.078
N1415 X-0.367 Y8.186
N1420 X-0.551 Y8.274
N1425 X-0.733 Y8.345
N1430 X-0.913 Y8.399
N1435 X-1.091 Y8.436
N1440 X-1.267 Y8.458
N1445 X-1.44 Y8.466
N1450 X-1.612 Y8.459
N1455 X-1.781 Y8.438
N1460 X-1.947 Y8.403
N1465 X-2.112 Y8.355
N1470 X-2.273 Y8.292
N1475 X-2.432 Y8.216
N1480 X-2.586 Y8.125
N1485 X-2.737 Y8.021
N1490 X-2.884 Y7.902
N1495 X-3.024 Y7.768
N1500 X-3.159 Y7.619
N1505 X-3.287 Y7.456
N1510 X-3.408 Y7.277
N1515 X-3.519 Y7.083
N1520 X-3.621 Y6.874
N1525 X-3.713 Y6.649
N1530 X-3.793 Y6.409
N1535 X-3.86 Y6.153
N1540 X-3.914 Y5.879
N1545 X-3.972 Y5.464
N1550 X-4.009 Y5.057
N1555 X-4.025 Y4.663
N1560 X-4.019 Y4.28
N1565 X-3.993 Y3.908
N1570 X-3.946 Y3.547
N1575 X-3.878 Y3.196
N1580 X-3.79 Y2.851
N1585 X-3.71 Y2.597
N1590 X-3.619 Y2.353
N1595 X-3.518 Y2.123
N1600 X-3.409 Y1.909
N1605 X-3.291 Y1.711
N1610 X-3.166 Y1.531
N1615 X-3.033 Y1.368
N1620 X-2.893 Y1.222
N1625 X-2.746 Y1.094
N1630 X-2.59 Y0.981
N1635 X-2.425 Y0.884
N1640 X-2.248 Y0.802
N1645 X-2.056 Y0.735
N1650 X-1.847 Y0.684
N1655 X-1.617 Y0.65
N1660 X-1.363 Y0.636
N1665 X-1.179 Y0.641
N1670 X-0.996 Y0.66
N1675 X-0.817 Y0.692
N1680 X-0.642 Y0.738
N1685 X-0.472 Y0.797
N1690 X-0.307 Y0.869
N1695 X-0.149 Y0.952
N1700 X0.002 Y1.048
N1705 X0.146 Y1.154
N1710 X0.282 Y1.271
N1715 X0.408 Y1.398
N1720 X0.525 Y1.534
N1725 X0.632 Y1.68
N1730 X0.728 Y1.835
N1735 X0.812 Y1.999
N1740 X0.9 Y2.207
N1745 G02 X1.112 Y2.523 I0.922 J-0.388
N1750 G03 X1.111 Y2.806 I-0.142 J0.141 F1000
N1755 G01 X0.97 Y2.947
N1760 X0.933 Y2.984 Z-0.993
N1765 X0.899 Y3.018 Z-0.973
N1770 X0.869 Y3.047 Z-0.941
N1775 X0.847 Y3.069 Z-0.9
N1780 X0.833 Y3.083 Z-0.852
N1785 X0.828 Y3.088 Z-0.8
N1790 G00 Z5
N1795 X-13.83 Y-4.534
N1800 G01 Z0.4 F500
N1805 Z-0.8
N1810 Y-4.541 Z-0.852 F1000
N1815 Y-4.561 Z-0.9
N1820 Y-4.593 Z-0.941
N1825 Y-4.634 Z-0.973
N1830 Y-4.683 Z-0.993
N1835 Y-4.734 Z-1
N1840 Y-4.934
N1845 G03 X-13.631 Y-5.135 I0.2 J0
N1850 G01 X62.081 Y-5.242 F2475
N1855 G02 X63.074 Y-6.139 I-0.001 J-1
N1860 G01 X63.158 Y-6.942
N1865 X63.159 Y-6.952
N1870 X63.233 Y-7.75
N1875 X63.234 Y-7.76
N1880 X63.3 Y-8.552
N1885 X63.301 Y-8.562
N1890 X63.358 Y-9.348
N1895 X63.359 Y-9.359
N1900 X63.408 Y-10.139
N1905 Y-10.15
N1910 X63.449 Y-10.925
N1915 Y-10.936
N1920 X63.48 Y-11.705
N1925 X63.481 Y-11.716
N1930 X63.504 Y-12.479
N1935 Y-12.49
N1940 X63.518 Y-13.248
N1945 Y-13.259
N1950 X63.524 Y-14.012
N1955 Y-14.023
N1960 X63.521 Y-14.77
N1965 Y-14.781
N1970 X63.509 Y-15.522
N1975 Y-15.534
N1980 X63.488 Y-16.269
N1985 Y-16.281
N1990 X63.459 Y-17.01
N1995 X63.458 Y-17.022
N2000 X63.421 Y-17.746
N2005 X63.42 Y-17.759
N2010 X63.374 Y-18.477
N2015 X63.373 Y-18.489
N2020 X63.318 Y-19.201
N2025 X63.317 Y-19.214
N2030 X63.253 Y-19.921
N2035 X63.252 Y-19.934
N2040 X63.18 Y-20.635
N2045 X63.178 Y-20.648
N2050 X63.098 Y-21.343
N2055 X63.096 Y-21.356
N2060 X63.006 Y-22.046
N2065 X63.005 Y-22.059
N2070 X62.906 Y-22.743
N2075 X62.904 Y-22.756
N2080 X62.798 Y-23.435
N2085 X62.795 Y-23.448
N2090 X62.68 Y-24.121
N2095 X62.678 Y-24.135
N2100 X62.554 Y-24.802
N2105 X62.551 Y-24.815
N2110 X62.418 Y-25.477
N2115 X62.415 Y-25.491
N2120 X62.274 Y-26.146
N2125 X62.271 Y-26.16
N2130 X62.121 Y-26.81
N2135 X62.118 Y-26.824
N2140 X61.959 Y-27.468
N2145 X61.955 Y-27.483
N2150 X61.788 Y-28.121
N2155 X61.784 Y-28.136
N2160 X61.608 Y-28.768
N2165 X61.604 Y-28.783
N2170 X61.42 Y-29.41
N2175 X61.416 Y-29.425
N2180 X61.222 Y-30.046
N2185 X61.218 Y-30.06
N2190 X61.016 Y-30.676
N2195 X61.011 Y-30.691
N2200 X60.801 Y-31.301
N2205 X60.795 Y-31.315
N2210 X60.576 Y-31.92
N2215 X60.571 Y-31.935
N2220 X60.343 Y-32.533
N2225 X60.338 Y-32.548
N2230 X60.101 Y-33.141
N2235 X60.095 Y-33.156
N2240 X59.85 Y-33.743
N2245 X59.844 Y-33.758
N2250 X59.591 Y-34.339
N2255 X59.584 Y-34.354
N2260 X59.322 Y-34.93
N2265 X59.315 Y-34.945
N2270 X59.044 Y-35.515
N2275 X59.037 Y-35.53
N2280 X58.757 Y-36.094
N2285 X58.75 Y-36.109
N2290 X58.462 Y-36.668
N2295 X58.454 Y-36.682
N2300 X58.158 Y-37.235
N2305 X58.15 Y-37.25
N2310 X57.844 Y-37.797
N2315 X57.836 Y-37.812
N2320 X57.522 Y-38.353
N2325 X57.514 Y-38.368
N2330 X57.191 Y-38.904
N2335 X57.183 Y-38.918
N2340 X56.851 Y-39.448
N2345 X56.842 Y-39.462
N2350 X56.503 Y-39.987
N2355 X56.493 Y-40.001
N2360 X56.145 Y-40.52
N2365 X56.136 Y-40.534
N2370 X55.778 Y-41.047
N2375 X55.769 Y-41.061
N2380 X55.403 Y-41.568
N2385 X55.393 Y-41.582
N2390 X55.019 Y-42.084
N2395 X55.009 Y-42.097
N2400 X54.626 Y-42.593
N2405 X54.615 Y-42.606
N2410 X54.224 Y-43.097
N2415 X54.213 Y-43.11
N2420 X53.813 Y-43.595
N2425 X53.802 Y-43.607
N2430 X53.393 Y-44.086
N2435 X53.383 Y-44.099
N2440 X52.965 Y-44.572
N2445 X52.954 Y-44.584
N2450 X52.528 Y-45.052
N2455 X52.517 Y-45.064
N2460 X52.082 Y-45.526
N2465 X52.071 Y-45.538
N2470 X51.628 Y-45.995
N2475 X51.616 Y-46.006
N2480 X51.164 Y-46.457
N2485 X51.153 Y-46.468
N2490 X50.704 Y-46.902
N2495 X50.243 Y-47.378
N2500 X50.231 Y-47.39
N2505 X49.749 Y-47.871
N2510 X49.737 Y-47.883
N2515 X49.247 Y-48.355
N2520 X49.235 Y-48.367
N2525 X48.737 Y-48.831
N2530 X48.724 Y-48.843
N2535 X48.217 Y-49.3
N2540 X48.205 Y-49.311
N2545 X47.69 Y-49.76
N2550 X47.677 Y-49.771
N2555 X47.153 Y-50.212
N2560 X47.14 Y-50.222
N2565 X46.608 Y-50.655
N2570 X46.595 Y-50.666
N2575 X46.055 Y-51.091
N2580 X46.042 Y-51.101
N2585 X45.493 Y-51.518
N2590 X45.48 Y-51.528
N2595 X44.922 Y-51.938
N2600 X44.909 Y-51.947
N2605 X44.343 Y-52.349
N2610 X44.33 Y-52.358
N2615 X43.756 Y-52.752
N2620 X43.742 Y-52.761
N2625 X43.16 Y-53.147
N2630 X43.146 Y-53.155
N2635 X42.555 Y-53.533
N2640 X42.542 Y-53.541
N2645 X41.942 Y-53.911
N2650 X41.929 Y-53.92
N2655 X41.321 Y-54.282
N2660 X41.307 Y-54.29
N2665 X40.691 Y-54.644
N2670 X40.677 Y-54.651
N2675 X40.053 Y-54.998
N2680 X40.039 Y-55.005
N2685 X39.406 Y-55.343
N2690 X39.393 Y-55.351
N2695 X38.751 Y-55.681
N2700 X38.738 Y-55.688
N2705 X38.087 Y-56.01
N2710 X38.074 Y-56.017
N2715 X37.416 Y-56.332
N2720 X37.402 Y-56.338
N2725 X36.735 Y-56.645
N2730 X36.722 Y-56.651
N2735 X36.047 Y-56.95
N2740 X36.034 Y-56.955
N2745 X35.35 Y-57.246
N2750 X35.337 Y-57.252
N2755 X34.645 Y-57.535
N2760 X34.632 Y-57.54
N2765 X33.931 Y-57.815
N2770 X33.918 Y-57.82
N2775 X33.209 Y-58.088
N2780 X33.196 Y-58.092
N2785 X32.479 Y-58.352
N2790 X32.466 Y-58.356
N2795 X31.74 Y-58.608
N2800 X31.728 Y-58.612
N2805 X30.993 Y-58.856
N2810 X30.981 Y-58.86
N2815 X30.238 Y-59.096
N2820 X30.226 Y-59.1
N2825 X29.474 Y-59.328
N2830 X29.462 Y-59.331
N2835 X28.703 Y-59.551
N2840 X28.691 Y-59.555
N2845 X27.922 Y-59.767
N2850 X27.91 Y-59.77
N2855 X27.134 Y-59.974
N2860 X27.122 Y-59.977
N2865 X26.337 Y-60.174
N2870 X26.326 Y-60.177
N2875 X25.532 Y-60.365
N2880 X25.521 Y-60.368
N2885 X24.719 Y-60.548
N2890 X24.708 Y-60.551
N2895 X23.897 Y-60.723
N2900 X23.886 Y-60.726
N2905 X23.068 Y-60.891
N2910 X23.057 Y-60.893
N2915 X22.23 Y-61.05
N2920 X22.219 Y-61.052
N2925 X21.383 Y-61.201
N2930 X21.372 Y-61.203
N2935 X20.528 Y-61.344
N2940 X20.518 Y-61.345
N2945 X19.665 Y-61.479
N2950 X19.655 Y-61.48
N2955 X18.794 Y-61.606
N2960 X18.784 Y-61.607
N2965 X17.915 Y-61.724
N2970 X17.905 Y-61.726
N2975 X17.027 Y-61.835
N2980 X17.017 Y-61.836
N2985 X16.131 Y-61.938
N2990 X16.121 Y-61.939
N2995 X15.226 Y-62.033
N3000 X15.217 Y-62.034
N3005 X14.314 Y-62.12
N3010 X14.305 Y-62.121
N3015 X13.393 Y-62.199
N3020 X13.384 Y-62.2
N3025 X12.464 Y-62.27
N3030 X12.455
N3035 X11.526 Y-62.333
N3040 X11.517
N3045 X10.581 Y-62.388
N3050 X10.572
N3055 X9.626 Y-62.434
N3060 X9.618 Y-62.435
N3065 X8.664 Y-62.473
N3070 X8.656 Y-62.474
N3075 X7.694 Y-62.504
N3080 X7.685 Y-62.505
N3085 X6.715 Y-62.527
N3090 X6.706 Y-62.528
N3095 X5.727 Y-62.542
N3100 X5.719 Y-62.543
N3105 X4.732 Y-62.55
N3110 X4.724
N3115 X3.728 Y-62.549
N3120 X3.72
N3125 X2.747 Y-62.54
N3130 X1.039 Y-62.632
N3135 X1.024 Y-62.633
N3140 X-0.698 Y-62.7
N3145 X-0.713
N3150 X-2.418 Y-62.741
N3155 X-2.433
N3160 X-4.12 Y-62.754
N3165 X-4.136
N3170 X-5.806 Y-62.74
N3175 X-5.822
N3180 X-7.474 Y-62.7
N3185 X-7.491 Y-62.699
N3190 X-9.126 Y-62.632
N3195 X-9.143 Y-62.631
N3200 X-10.76 Y-62.537
N3205 X-10.777 Y-62.536
N3210 X-12.377 Y-62.415
N3215 X-12.395 Y-62.413
N3220 X-13.977 Y-62.265
N3225 X-13.995 Y-62.263
N3230 X-15.56 Y-62.089
N3235 X-15.578 Y-62.086
N3240 X-17.126 Y-61.885
N3245 X-17.144 Y-61.882
N3250 X-18.674 Y-61.654
N3255 X-18.693 Y-61.651
N3260 X-20.206 Y-61.395
N3265 X-20.225 Y-61.392
N3270 X-21.72 Y-61.11
N3275 X-21.739 Y-61.106
N3280 X-23.217 Y-60.797
N3285 X-23.236 Y-60.793
N3290 X-24.697 Y-60.457
N3295 X-24.716 Y-60.452
N3300 X-26.159 Y-60.089
N3305 X-26.179 Y-60.084
N3310 X-27.604 Y-59.695
N3315 X-27.624 Y-59.689
N3320 X-29.032 Y-59.272
N3325 X-29.052 Y-59.266
N3330 X-30.443 Y-58.823
N3335 X-30.463 Y-58.816
N3340 X-31.836 Y-58.346
N3345 X-31.856 Y-58.339
N3350 X-33.212 Y-57.842
N3355 X-33.232 Y-57.834
N3360 X-34.57 Y-57.31
N3365 X-34.591 Y-57.302
N3370 X-35.912 Y-56.751
N3375 X-35.932 Y-56.743
N3380 X-37.235 Y-56.165
N3385 X-37.255 Y-56.156
N3390 X-38.541 Y-55.551
N3395 X-38.561 Y-55.542
N3400 X-39.83 Y-54.91
N3405 X-39.85 Y-54.9
N3410 X-41.101 Y-54.242
N3415 X-41.12 Y-54.231
N3420 X-42.354 Y-53.546
N3425 X-42.374 Y-53.535
N3430 X-43.59 Y-52.823
N3435 X-43.609 Y-52.811
N3440 X-44.808 Y-52.073
N3445 X-44.824 Y-52.062
N3450 X-45.458 Y-51.655
N3455 X-45.473 Y-51.645
N3460 X-46.096 Y-51.228
N3465 X-46.112 Y-51.217
N3470 X-46.723 Y-50.791
N3475 X-46.738 Y-50.779
N3480 X-47.339 Y-50.344
N3485 X-47.354 Y-50.332
N3490 X-47.943 Y-49.887
N3495 X-47.959 Y-49.875
N3500 X-48.537 Y-49.42
N3505 X-48.552 Y-49.408
N3510 X-49.119 Y-48.943
N3515 X-49.134 Y-48.931
N3520 X-49.689 Y-48.457
N3525 X-49.704 Y-48.444
N3530 X-50.248 Y-47.961
N3535 X-50.263 Y-47.947
N3540 X-50.796 Y-47.455
N3545 X-50.811 Y-47.441
N3550 X-51.333 Y-46.939
N3555 X-51.347 Y-46.925
N3560 X-51.858 Y-46.413
N3565 X-51.872 Y-46.399
N3570 X-52.371 Y-45.878
N3575 X-52.385 Y-45.863
N3580 X-52.874 Y-45.332
N3585 X-52.887 Y-45.317
N3590 X-53.364 Y-44.777
N3595 X-53.378 Y-44.762
N3600 X-53.844 Y-44.212
N3605 X-53.857 Y-44.197
N3610 X-54.311 Y-43.638
N3615 X-54.324 Y-43.622
N3620 X-54.767 Y-43.054
N3625 X-54.78 Y-43.037
N3630 X-55.212 Y-42.46
N3635 X-55.224 Y-42.443
N3640 X-55.645 Y-41.856
N3645 X-55.657 Y-41.839
N3650 X-56.067 Y-41.243
N3655 X-56.078 Y-41.226
N3660 X-56.476 Y-40.62
N3665 X-56.487 Y-40.603
N3670 X-56.875 Y-39.987
N3675 X-56.885 Y-39.97
N3680 X-57.262 Y-39.345
N3685 X-57.272 Y-39.328
N3690 X-57.637 Y-38.694
N3695 X-57.646 Y-38.677
N3700 X-58 Y-38.033
N3705 X-58.009 Y-38.015
N3710 X-58.352 Y-37.362
N3715 X-58.361 Y-37.345
N3720 X-58.692 Y-36.682
N3725 X-58.701 Y-36.664
N3730 X-59.021 Y-35.992
N3735 X-59.029 Y-35.975
N3740 X-59.338 Y-35.293
N3745 X-59.346 Y-35.276
N3750 X-59.644 Y-34.584
N3755 X-59.651 Y-34.567
N3760 X-59.938 Y-33.866
N3765 X-59.944 Y-33.849
N3770 X-60.22 Y-33.139
N3775 X-60.226 Y-33.122
N3780 X-60.491 Y-32.403
N3785 X-60.497 Y-32.386
N3790 X-60.75 Y-31.657
N3795 X-60.755 Y-31.64
N3800 X-60.997 Y-30.901
N3805 X-61.003 Y-30.885
N3810 X-61.233 Y-30.136
N3815 X-61.238 Y-30.12
N3820 X-61.458 Y-29.363
N3825 X-61.462 Y-29.346
N3830 X-61.671 Y-28.579
N3835 X-61.675 Y-28.563
N3840 X-61.872 Y-27.787
N3845 X-61.876 Y-27.771
N3850 X-62.062 Y-26.985
N3855 X-62.065 Y-26.969
N3860 X-62.24 Y-26.174
N3865 X-62.243 Y-26.158
N3870 X-62.407 Y-25.353
N3875 X-62.41 Y-25.338
N3880 X-62.562 Y-24.524
N3885 X-62.565 Y-24.509
N3890 X-62.706 Y-23.685
N3895 X-62.709 Y-23.67
N3900 X-62.839 Y-22.837
N3905 X-62.841 Y-22.822
N3910 X-62.959 Y-21.98
N3915 X-62.961 Y-21.965
N3920 X-63.069 Y-21.113
N3925 X-63.071 Y-21.099
N3930 X-63.167 Y-20.237
N3935 X-63.168 Y-20.223
N3940 X-63.254 Y-19.352
N3945 X-63.255 Y-19.339
N3950 X-63.329 Y-18.458
N3955 X-63.33 Y-18.445
N3960 X-63.393 Y-17.555
N3965 Y-17.542
N3970 X-63.445 Y-16.642
N3975 X-63.446 Y-16.629
N3980 X-63.486 Y-15.72
N3985 Y-15.708
N3990 X-63.516 Y-14.789
N3995 Y-14.777
N4000 X-63.534 Y-13.849
N4005 Y-13.837
N4010 X-63.541 Y-12.899
N4015 Y-12.888
N4020 X-63.536 Y-11.941
N4025 Y-11.929
N4030 X-63.521 Y-10.973
N4035 Y-10.961
N4040 X-63.494 Y-9.996
N4045 X-63.493 Y-9.984
N4050 X-63.455 Y-9.009
N4055 Y-8.998
N4060 X-63.406 Y-8.014
N4065 X-63.405 Y-8.003
N4070 X-63.345 Y-7.009
N4075 X-63.344 Y-6.998
N4080 X-63.272 Y-5.995
N4085 G02 X-62.273 Y-5.066 I0.997 J-0.071
N4090 G01 X-13.631 Y-5.135
N4095 G03 X-13.43 Y-4.935 I0 J0.2 F1000
N4100 G01 Y-4.735
N4105 Y-4.683 Z-0.993
N4110 Y-4.635 Z-0.973
N4115 Y-4.594 Z-0.941
N4120 Y-4.562 Z-0.9
N4125 Y-4.542 Z-0.852
N4130 Y-4.535 Z-0.8
N4135 G00 Z5
N4140 X-3.841 Y-14.854
N4145 G01 Z0.4 F500
N4150 Z-0.8
N4155 X-3.84 Y-14.861 Z-0.852 F1000
N4160 X-3.836 Y-14.88 Z-0.9
N4165 X-3.83 Y-14.912 Z-0.941
N4170 X-3.822 Y-14.952 Z-0.973
N4175 X-3.812 Y-15 Z-0.993
N4180 X-3.802 Y-15.05 Z-1
N4185 X-3.763 Y-15.247
N4190 G03 X-3.528 Y-15.404 I0.196 J0.039
N4195 G01 X-3.051 Y-15.309 F2475
N4200 X-3.016 Y-15.303
N4205 X-2.428 Y-15.208
N4210 X-2.392 Y-15.203
N4215 X-1.802 Y-15.13
N4220 X-1.767 Y-15.126
N4225 X-1.175 Y-15.073
N4230 X-1.139 Y-15.071
N4235 X-0.546 Y-15.039
N4240 X-0.51 Y-15.038
N4245 X0.084 Y-15.028
N4250 X0.119
N4255 X0.713 Y-15.038
N4260 X0.748 Y-15.039
N4265 X1.342 Y-15.071
N4270 X1.377 Y-15.073
N4275 X1.969 Y-15.126
N4280 X2.004 Y-15.13
N4285 X2.595 Y-15.203
N4290 X2.63 Y-15.208
N4295 X3.218 Y-15.303
N4300 X3.253 Y-15.309
N4305 X3.838 Y-15.425
N4310 X3.873 Y-15.433
N4315 X4.455 Y-15.569
N4320 X4.49 Y-15.578
N4325 X5.067 Y-15.736
N4330 X5.102 Y-15.746
N4335 X5.675 Y-15.925
N4340 X5.709 Y-15.936
N4345 X6.276 Y-16.136
N4350 X6.31 Y-16.149
N4355 X6.872 Y-16.37
N4360 X6.905 Y-16.384
N4365 X7.461 Y-16.625
N4370 X7.494 Y-16.641
N4375 X8.042 Y-16.904
N4380 X8.075 Y-16.92
N4385 X8.201 Y-16.986
N4390 X8.167 Y-7.861
N4395 X-8.086 Y-7.9
N4400 X-8.018 Y-16.996
N4405 X-7.873 Y-16.92
N4410 X-7.84 Y-16.904
N4415 X-7.291 Y-16.641
N4420 X-7.258 Y-16.625
N4425 X-6.703 Y-16.384
N4430 X-6.67 Y-16.37
N4435 X-6.108 Y-16.149
N4440 X-6.074 Y-16.136
N4445 X-5.506 Y-15.936
N4450 X-5.472 Y-15.925
N4455 X-4.899 Y-15.746
N4460 X-4.865 Y-15.736
N4465 X-4.287 Y-15.578
N4470 X-4.252 Y-15.569
N4475 X-3.671 Y-15.433
N4480 X-3.636 Y-15.425
N4485 X-3.528 Y-15.404
N4490 G03 X-3.371 Y-15.169 I-0.039 J0.196 F1000
N4495 G01 X-3.41 Y-14.973
N4500 X-3.42 Y-14.922 Z-0.993
N4505 X-3.429 Y-14.875 Z-0.973
N4510 X-3.437 Y-14.834 Z-0.941
N4515 X-3.444 Y-14.803 Z-0.9
N4520 X-3.447 Y-14.783 Z-0.852
N4525 X-3.449 Y-14.777 Z-0.8
N4530 G00 Z5
N4535 X-3.357 Y-22.67
N4540 G01 Z0.4 F500
N4545 Z-0.8
N4550 X-3.351 Y-22.667 Z-0.852 F1000
N4555 X-3.332 Y-22.659 Z-0.9
N4560 X-3.303 Y-22.646 Z-0.941
N4565 X-3.265 Y-22.629 Z-0.973
N4570 X-3.221 Y-22.61 Z-0.993
N4575 X-3.174 Y-22.588 Z-1
N4580 X-2.991 Y-22.507
N4585 G03 X-2.89 Y-22.243 I-0.081 J0.183
N4590 G01 X-2.931 Y-22.15 F2475
N4595 X-2.948 Y-22.112
N4600 X-3.035 Y-21.891
N4605 X-3.05 Y-21.85
N4610 X-3.126 Y-21.63
N4615 X-3.14 Y-21.587
N4620 X-3.205 Y-21.369
N4625 X-3.217 Y-21.323
N4630 X-3.271 Y-21.105
N4635 X-3.282 Y-21.058
N4640 X-3.324 Y-20.841
N4645 X-3.333 Y-20.792
N4650 X-3.364 Y-20.576
N4655 X-3.37 Y-20.525
N4660 X-3.39 Y-20.31
N4665 X-3.393 Y-20.258
N4670 X-3.402 Y-20.044
N4675 X-3.403 Y-19.992
N4680 X-3.401 Y-19.778
N4685 X-3.399 Y-19.725
N4690 X-3.385 Y-19.512
N4695 X-3.38 Y-19.46
N4700 X-3.356 Y-19.248
N4705 X-3.348 Y-19.196
N4710 X-3.312 Y-18.985
N4715 X-3.302 Y-18.934
N4720 X-3.255 Y-18.723
N4725 X-3.242 Y-18.674
N4730 X-3.184 Y-18.464
N4735 X-3.169 Y-18.416
N4740 X-3.099 Y-18.208
N4745 X-3.082 Y-18.162
N4750 X-3.054 Y-18.088
N4755 X-3.365 Y-18.152
N4760 X-3.818 Y-18.266
N4765 X-4.275 Y-18.4
N4770 X-4.738 Y-18.555
N4775 X-5.207 Y-18.731
N4780 X-5.681 Y-18.929
N4785 X-6.161 Y-19.147
N4790 X-6.646 Y-19.387
N4795 X-7.136 Y-19.649
N4800 X-7.632 Y-19.933
N4805 X-8.133 Y-20.238
N4810 X-8.329 Y-20.365
N4815 X-8.403 Y-20.635
N4820 X-8.566 Y-21.256
N4825 X-8.718 Y-21.864
N4830 X-8.86 Y-22.458
N4835 X-8.992 Y-23.039
N4840 X-9.113 Y-23.607
N4845 X-9.224 Y-24.162
N4850 X-9.324 Y-24.703
N4855 X-9.414 Y-25.231
N4860 X-9.493 Y-25.745
N4865 X-9.562 Y-26.246
N4870 X-9.621 Y-26.734
N4875 X-9.67 Y-27.207
N4880 X-9.708 Y-27.667
N4885 X-9.736 Y-28.113
N4890 X-9.754 Y-28.546
N4895 X-9.763 Y-28.964
N4900 X-9.761 Y-29.368
N4905 X-9.749 Y-29.759
N4910 X-9.728 Y-30.135
N4915 X-9.697 Y-30.496
N4920 X-9.657 Y-30.844
N4925 X-9.607 Y-31.177
N4930 X-9.549 Y-31.495
N4935 X-9.481 Y-31.799
N4940 X-9.406 Y-32.089
N4945 X-9.321 Y-32.365
N4950 X-9.229 Y-32.626
N4955 X-9.129 Y-32.873
N4960 X-9.022 Y-33.106
N4965 X-8.907 Y-33.326
N4970 X-8.791 Y-33.523
N4975 X-8.528 Y-33.901
N4980 X-8.252 Y-34.264
N4985 X-7.975 Y-34.596
N4990 X-7.698 Y-34.898
N4995 X-7.42 Y-35.171
N5000 X-7.144 Y-35.415
N5005 X-6.871 Y-35.629
N5010 X-6.601 Y-35.815
N5015 X-6.335 Y-35.973
N5020 X-6.074 Y-36.104
N5025 X-5.819 Y-36.209
N5030 X-5.57 Y-36.29
N5035 X-5.327 Y-36.347
N5040 X-5.09 Y-36.381
N5045 X-4.858 Y-36.394
N5050 X-4.629 Y-36.386
N5055 X-4.402 Y-36.356
N5060 X-4.177 Y-36.306
N5065 X-3.952 Y-36.234
N5070 X-3.727 Y-36.139
N5075 X-3.5 Y-36.02
N5080 X-3.272 Y-35.875
N5085 X-3.043 Y-35.703
N5090 X-2.814 Y-35.504
N5095 X-2.586 Y-35.275
N5100 X-2.359 Y-35.017
N5105 X-2.136 Y-34.729
N5110 X-1.916 Y-34.41
N5115 X-1.702 Y-34.06
N5120 X-1.493 Y-33.679
N5125 X-1.406 Y-33.5
N5130 X-1.461 Y-33.455
N5135 X-1.489 Y-33.43
N5140 X-1.783 Y-33.167
N5145 X-1.812 Y-33.139
N5150 X-2.085 Y-32.874
N5155 X-2.116 Y-32.843
N5160 X-2.368 Y-32.576
N5165 X-2.399 Y-32.541
N5170 X-2.631 Y-32.271
N5175 X-2.663 Y-32.233
N5180 X-2.874 Y-31.961
N5185 X-2.906 Y-31.918
N5190 X-3.097 Y-31.644
N5195 X-3.127 Y-31.597
N5200 X-3.298 Y-31.32
N5205 X-3.327 Y-31.269
N5210 X-3.478 Y-30.989
N5215 X-3.505 Y-30.934
N5220 X-3.635 Y-30.652
N5225 X-3.66 Y-30.593
N5230 X-3.769 Y-30.309
N5235 X-3.791 Y-30.246
N5240 X-3.88 Y-29.959
N5245 X-3.898 Y-29.894
N5250 X-3.966 Y-29.605
N5255 X-3.98 Y-29.537
N5260 X-4.028 Y-29.245
N5265 X-4.037 Y-29.176
N5270 X-4.064 Y-28.883
N5275 X-4.068 Y-28.813
N5280 X-4.075 Y-28.517
N5285 Y-28.448
N5290 X-4.061 Y-28.15
N5295 X-4.056 Y-28.083
N5300 X-4.022 Y-27.782
N5305 X-4.013 Y-27.718
N5310 X-3.958 Y-27.414
N5315 X-3.945 Y-27.353
N5320 X-3.87 Y-27.048
N5325 X-3.854 Y-26.99
N5330 X-3.759 Y-26.682
N5335 X-3.741 Y-26.628
N5340 X-3.625 Y-26.318
N5345 X-3.605 Y-26.268
N5350 X-3.469 Y-25.955
N5355 X-3.447 Y-25.909
N5360 X-3.291 Y-25.594
N5365 X-3.269 Y-25.552
N5370 X-3.091 Y-25.235
N5375 X-3.069 Y-25.196
N5380 X-2.871 Y-24.877
N5385 X-2.849 Y-24.842
N5390 X-2.631 Y-24.52
N5395 X-2.609 Y-24.488
N5400 X-2.37 Y-24.163
N5405 X-2.348 Y-24.135
N5410 X-2.089 Y-23.808
N5415 X-2.068 Y-23.782
N5420 X-2.024 Y-23.731
N5425 X-2.064 Y-23.676
N5430 X-2.083 Y-23.65
N5435 X-2.237 Y-23.425
N5440 X-2.255 Y-23.397
N5445 X-2.399 Y-23.172
N5450 X-2.417 Y-23.143
N5455 X-2.549 Y-22.919
N5460 X-2.567 Y-22.887
N5465 X-2.688 Y-22.664
N5470 X-2.706 Y-22.63
N5475 X-2.816 Y-22.408
N5480 X-2.833 Y-22.372
N5485 X-2.89 Y-22.243
N5490 G03 X-3.154 Y-22.142 I-0.183 J-0.081 F1000
N5495 G01 X-3.337 Y-22.223
N5500 X-3.384 Y-22.244 Z-0.993
N5505 X-3.428 Y-22.264 Z-0.973
N5510 X-3.466 Y-22.281 Z-0.941
N5515 X-3.495 Y-22.294 Z-0.9
N5520 X-3.513 Y-22.302 Z-0.852
N5525 X-3.52 Y-22.304 Z-0.8
N5530 G00 Z5
N5535 X1.902 Y-18.565
N5540 G01 Z0.4 F500
N5545 Z-0.8
N5550 X1.903 Y-18.558 Z-0.852 F1000
N5555 X1.907 Y-18.539 Z-0.9
N5560 X1.913 Y-18.507 Z-0.941
N5565 X1.92 Y-18.467 Z-0.973
N5570 X1.929 Y-18.419 Z-0.993
N5575 X1.938 Y-18.368 Z-1
N5580 X1.974 Y-18.171
N5585 G03 X1.813 Y-17.939 I-0.197 J0.036
N5590 G01 X1.638 Y-17.907 F2475
N5595 X0.785 Y-17.778
N5600 X0.373 Y-17.728
N5605 X0.137 Y-17.991
N5610 X-0.085 Y-18.28
N5615 X-0.191 Y-18.439
N5620 X-0.338 Y-18.69
N5625 X-0.453 Y-18.932
N5630 X-0.542 Y-19.169
N5635 X-0.606 Y-19.404
N5640 X-0.647 Y-19.639
N5645 X-0.665 Y-19.875
N5650 X-0.661 Y-20.115
N5655 X-0.633 Y-20.362
N5660 X-0.581 Y-20.618
N5665 X-0.504 Y-20.884
N5670 X-0.398 Y-21.16
N5675 X-0.264 Y-21.447
N5680 X-0.1 Y-21.744
N5685 X0.095 Y-22.052
N5690 X0.232 Y-22.243
N5695 X0.251 Y-22.24
N5700 X0.821 Y-22.161
N5705 X0.865 Y-22.156
N5710 X1.431 Y-22.102
N5715 X1.477 Y-22.099
N5720 X2.04 Y-22.072
N5725 X2.086 Y-22.07
N5730 X2.646 Y-22.069
N5735 X2.693 Y-22.07
N5740 X3.249 Y-22.094
N5745 X3.296 Y-22.098
N5750 X3.849 Y-22.148
N5755 X3.896 Y-22.153
N5760 X4.446 Y-22.23
N5765 X4.492 Y-22.237
N5770 X5.039 Y-22.34
N5775 X5.084 Y-22.349
N5780 X5.627 Y-22.478
N5785 X5.672 Y-22.489
N5790 X6.212 Y-22.643
N5795 X6.256 Y-22.657
N5800 X6.792 Y-22.837
N5805 X6.834 Y-22.853
N5810 X7.367 Y-23.059
N5815 X7.408 Y-23.075
N5820 X7.937 Y-23.308
N5825 X7.976 Y-23.326
N5830 X8.502 Y-23.584
N5835 X8.539 Y-23.603
N5840 X9.062 Y-23.887
N5845 X9.097 Y-23.907
N5850 X9.616 Y-24.217
N5855 X9.649 Y-24.237
N5860 X10.165 Y-24.573
N5865 X10.196 Y-24.594
N5870 X10.708 Y-24.956
N5875 X10.737 Y-24.978
N5880 X11.246 Y-25.365
N5885 X11.274 Y-25.387
N5890 X11.779 Y-25.801
N5895 X11.805 Y-25.822
N5900 X12.307 Y-26.262
N5905 X12.331 Y-26.283
N5910 X12.829 Y-26.749
N5915 X12.851 Y-26.77
N5920 X13.347 Y-27.262
N5925 X13.367 Y-27.283
N5930 X13.859 Y-27.8
N5935 X13.878 Y-27.821
N5940 X14.367 Y-28.364
N5945 X14.384 Y-28.384
N5950 X14.819 Y-28.894
N5955 X14.78 Y-28.745
N5960 X14.671 Y-28.37
N5965 X14.557 Y-28.001
N5970 X14.436 Y-27.641
N5975 X14.31 Y-27.293
N5980 X14.033 Y-26.602
N5985 X13.733 Y-25.945
N5990 X13.408 Y-25.316
N5995 X13.057 Y-24.714
N6000 X12.682 Y-24.139
N6005 X12.282 Y-23.59
N6010 X11.857 Y-23.067
N6015 X11.408 Y-22.569
N6020 X10.934 Y-22.096
N6025 X10.435 Y-21.647
N6030 X9.911 Y-21.221
N6035 X9.362 Y-20.819
N6040 X8.787 Y-20.441
N6045 X8.187 Y-20.085
N6050 X7.561 Y-19.752
N6055 X6.91 Y-19.442
N6060 X6.233 Y-19.155
N6065 X5.531 Y-18.89
N6070 X4.803 Y-18.648
N6075 X4.049 Y-18.429
N6080 X3.271 Y-18.232
N6085 X2.467 Y-18.058
N6090 X1.813 Y-17.939
N6095 G03 X1.581 Y-18.1 I-0.036 J-0.197 F1000
N6100 G01 X1.545 Y-18.296
N6105 X1.535 Y-18.347 Z-0.993
N6110 X1.527 Y-18.395 Z-0.973
N6115 X1.519 Y-18.435 Z-0.941
N6120 X1.514 Y-18.467 Z-0.9
N6125 X1.51 Y-18.486 Z-0.852
N6130 X1.509 Y-18.493 Z-0.8
N6135 G00 Z5
N6140 X2.279 Y-30.118
N6145 G01 Z0.4 F500
N6150 Z-0.8
N6155 X2.28 Y-30.125 Z-0.852 F1000
N6160 X2.283 Y-30.144 Z-0.9
N6165 X2.288 Y-30.176 Z-0.941
N6170 X2.294 Y-30.217 Z-0.973
N6175 X2.302 Y-30.264 Z-0.993
N6180 X2.31 Y-30.315 Z-1
N6185 X2.341 Y-30.513
N6190 G03 X2.57 Y-30.679 I0.198 J0.031
N6195 G01 X2.694 Y-30.659 F2475
N6200 X2.755 Y-30.652
N6205 X3.062 Y-30.622
N6210 X3.127 Y-30.618
N6215 X3.427 Y-30.609
N6220 X3.496
N6225 X3.789 Y-30.62
N6230 X3.86 Y-30.626
N6235 X4.146 Y-30.657
N6240 X4.219 Y-30.668
N6245 X4.497 Y-30.72
N6250 X4.571 Y-30.737
N6255 X4.842 Y-30.809
N6260 X4.916 Y-30.833
N6265 X5.179 Y-30.925
N6270 X5.251 Y-30.954
N6275 X5.506 Y-31.067
N6280 X5.576 Y-31.101
N6285 X5.823 Y-31.235
N6290 X5.888 Y-31.273
N6295 X6.128 Y-31.427
N6300 X6.188 Y-31.468
N6305 X6.421 Y-31.643
N6310 X6.476 Y-31.686
N6315 X6.701 Y-31.881
N6320 X6.75 Y-31.926
N6325 X6.968 Y-32.141
N6330 X7.011 Y-32.186
N6335 X7.221 Y-32.422
N6340 X7.259 Y-32.467
N6345 X7.462 Y-32.723
N6350 X7.495 Y-32.766
N6355 X7.69 Y-33.043
N6360 X7.719 Y-33.085
N6365 X7.907 Y-33.382
N6370 X7.931 Y-33.422
N6375 X8.112 Y-33.739
N6380 X8.133 Y-33.778
N6385 X8.306 Y-34.115
N6390 X8.324 Y-34.151
N6395 X8.489 Y-34.509
N6400 X8.504 Y-34.543
N6405 X8.663 Y-34.921
N6410 X8.675 Y-34.954
N6415 X8.826 Y-35.352
N6420 X8.837 Y-35.382
N6425 X8.851 Y-35.423
N6430 X8.872 Y-35.421
N6435 X9.135 Y-35.393
N6440 X9.175 Y-35.389
N6445 X9.433 Y-35.372
N6450 X9.475 Y-35.37
N6455 X9.73 Y-35.364
N6460 X9.773
N6465 X10.025 Y-35.369
N6470 X10.069 Y-35.371
N6475 X10.317 Y-35.386
N6480 X10.362 Y-35.39
N6485 X10.607 Y-35.417
N6490 X10.652 Y-35.422
N6495 X10.894 Y-35.46
N6500 X10.94 Y-35.468
N6505 X11.178 Y-35.516
N6510 X11.224 Y-35.527
N6515 X11.458 Y-35.586
N6520 X11.503 Y-35.599
N6525 X11.734 Y-35.669
N6530 X11.779 Y-35.683
N6535 X12.006 Y-35.764
N6540 X12.051 Y-35.781
N6545 X12.274 Y-35.873
N6550 X12.317 Y-35.892
N6555 X12.537 Y-35.995
N6560 X12.579 Y-36.015
N6565 X12.795 Y-36.129
N6570 X12.836 Y-36.151
N6575 X13.049 Y-36.276
N6580 X13.087 Y-36.299
N6585 X13.296 Y-36.435
N6590 X13.333 Y-36.459
N6595 X13.539 Y-36.605
N6600 X13.573 Y-36.631
N6605 X13.776 Y-36.788
N6610 X13.807 Y-36.814
N6615 X14.006 Y-36.982
N6620 X14.037 Y-37.008
N6625 X14.232 Y-37.187
N6630 X14.26 Y-37.214
N6635 X14.452 Y-37.404
N6640 X14.478 Y-37.43
N6645 X14.667 Y-37.631
N6650 X14.691 Y-37.657
N6655 X14.876 Y-37.869
N6660 X14.898 Y-37.895
N6665 X14.983 Y-38
N6670 X15.029 Y-37.849
N6675 X15.116 Y-37.523
N6680 X15.199 Y-37.174
N6685 X15.277 Y-36.802
N6690 X15.351 Y-36.407
N6695 X15.419 Y-35.989
N6700 X15.482 Y-35.55
N6705 X15.54 Y-35.088
N6710 X15.593 Y-34.603
N6715 X15.606 Y-34.46
N6720 X15.297 Y-34.028
N6725 X14.778 Y-33.326
N6730 X14.261 Y-32.653
N6735 X13.745 Y-32.006
N6740 X13.23 Y-31.388
N6745 X12.717 Y-30.797
N6750 X12.206 Y-30.234
N6755 X11.696 Y-29.698
N6760 X11.188 Y-29.19
N6765 X10.682 Y-28.709
N6770 X10.179 Y-28.256
N6775 X9.677 Y-27.83
N6780 X9.178 Y-27.431
N6785 X8.682 Y-27.06
N6790 X8.187 Y-26.716
N6795 X7.696 Y-26.399
N6800 X7.207 Y-26.109
N6805 X6.721 Y-25.845
N6810 X6.238 Y-25.608
N6815 X5.758 Y-25.397
N6820 X5.281 Y-25.212
N6825 X4.807 Y-25.053
N6830 X4.335 Y-24.918
N6835 X3.865 Y-24.809
N6840 X3.398 Y-24.725
N6845 X2.932 Y-24.666
N6850 X2.468 Y-24.631
N6855 X2.005 Y-24.62
N6860 X1.543 Y-24.633
N6865 X1.081 Y-24.671
N6870 X0.618 Y-24.734
N6875 X0.47 Y-24.761
N6880 X0.429 Y-24.808
N6885 X0.188 Y-25.099
N6890 X-0.034 Y-25.386
N6895 X-0.238 Y-25.667
N6900 X-0.422 Y-25.942
N6905 X-0.588 Y-26.212
N6910 X-0.736 Y-26.475
N6915 X-0.866 Y-26.733
N6920 X-0.978 Y-26.984
N6925 X-1.073 Y-27.228
N6930 X-1.151 Y-27.466
N6935 X-1.214 Y-27.698
N6940 X-1.26 Y-27.923
N6945 X-1.292 Y-28.142
N6950 X-1.308 Y-28.356
N6955 X-1.311 Y-28.566
N6960 X-1.3 Y-28.771
N6965 X-1.275 Y-28.974
N6970 X-1.237 Y-29.174
N6975 X-1.184 Y-29.374
N6980 X-1.117 Y-29.573
N6985 X-1.036 Y-29.772
N6990 X-0.938 Y-29.972
N6995 X-0.824 Y-30.174
N7000 X-0.694 Y-30.377
N7005 X-0.546 Y-30.581
N7010 X-0.38 Y-30.787
N7015 X-0.195 Y-30.993
N7020 X0.008 Y-31.201
N7025 X0.23 Y-31.409
N7030 X0.254 Y-31.429
N7035 X0.417 Y-31.351
N7040 X0.453 Y-31.334
N7045 X0.805 Y-31.183
N7050 X0.845 Y-31.166
N7055 X1.19 Y-31.035
N7060 X1.233 Y-31.02
N7065 X1.57 Y-30.908
N7070 X1.618 Y-30.894
N7075 X1.948 Y-30.803
N7080 X2 Y-30.79
N7085 X2.322 Y-30.72
N7090 X2.379 Y-30.709
N7095 X2.57 Y-30.679
N7100 G03 X2.736 Y-30.45 I-0.031 J0.198 F1000
N7105 G01 X2.705 Y-30.253
N7110 X2.697 Y-30.202 Z-0.993
N7115 X2.689 Y-30.154 Z-0.973
N7120 X2.683 Y-30.113 Z-0.941
N7125 X2.678 Y-30.082 Z-0.9
N7130 X2.675 Y-30.062 Z-0.852
N7135 X2.674 Y-30.055 Z-0.8
N7140 G00 Z5
N7145 X5.264 Y-38.128
N7150 G01 Z0.4 F500
N7155 Z-0.8
N7160 X5.27 Y-38.131 Z-0.852 F1000
N7165 X5.287 Y-38.141 Z-0.9
N7170 X5.315 Y-38.156 Z-0.941
N7175 X5.352 Y-38.176 Z-0.973
N7180 X5.394 Y-38.199 Z-0.993
N7185 X5.44 Y-38.223 Z-1
N7190 X5.615 Y-38.319
N7195 G03 X5.887 Y-38.239 I0.095 J0.176
N7200 G01 X6.05 Y-37.938 F2475
N7205 X6.232 Y-37.552
N7210 X6.392 Y-37.157
N7215 X6.457 Y-36.966
N7220 X6.435 Y-36.84
N7225 X6.366 Y-36.499
N7230 X6.288 Y-36.177
N7235 X6.203 Y-35.874
N7240 X6.111 Y-35.591
N7245 X6.012 Y-35.328
N7250 X5.907 Y-35.084
N7255 X5.795 Y-34.86
N7260 X5.679 Y-34.654
N7265 X5.558 Y-34.467
N7270 X5.433 Y-34.297
N7275 X5.303 Y-34.145
N7280 X5.17 Y-34.009
N7285 X5.032 Y-33.887
N7290 X4.89 Y-33.78
N7295 X4.742 Y-33.685
N7300 X4.587 Y-33.602
N7305 X4.425 Y-33.53
N7310 X4.254 Y-33.469
N7315 X4.072 Y-33.42
N7320 X3.879 Y-33.382
N7325 X3.673 Y-33.355
N7330 X3.454 Y-33.341
N7335 X3.221
N7340 X2.975 Y-33.354
N7345 X2.716 Y-33.382
N7350 X2.442 Y-33.425
N7355 X2.155 Y-33.483
N7360 X1.855 Y-33.558
N7365 X1.541 Y-33.649
N7370 X1.265 Y-33.74
N7375 X1.235 Y-33.81
N7380 X1.224 Y-33.834
N7385 X1.018 Y-34.279
N7390 X1.006 Y-34.305
N7395 X0.796 Y-34.727
N7400 X0.782 Y-34.754
N7405 X0.567 Y-35.155
N7410 X0.551 Y-35.184
N7415 X0.332 Y-35.562
N7420 X0.314 Y-35.592
N7425 X0.091 Y-35.948
N7430 X0.069 Y-35.98
N7435 X-0.158 Y-36.314
N7440 X-0.182 Y-36.347
N7445 X-0.414 Y-36.659
N7450 X-0.442 Y-36.694
N7455 X-0.678 Y-36.983
N7460 X-0.71 Y-37.02
N7465 X-0.95 Y-37.286
N7470 X-0.987 Y-37.324
N7475 X-1.232 Y-37.568
N7480 X-1.273 Y-37.607
N7485 X-1.522 Y-37.829
N7490 X-1.569 Y-37.868
N7495 X-1.822 Y-38.067
N7500 X-1.874 Y-38.106
N7505 X-2.132 Y-38.283
N7510 X-2.19 Y-38.32
N7515 X-2.452 Y-38.474
N7520 X-2.516 Y-38.509
N7525 X-2.782 Y-38.641
N7530 X-2.85 Y-38.672
N7535 X-3.121 Y-38.782
N7540 X-3.194 Y-38.808
N7545 X-3.469 Y-38.896
N7550 X-3.545 Y-38.917
N7555 X-3.825 Y-38.983
N7560 X-3.903 Y-38.998
N7565 X-4.186 Y-39.041
N7570 X-4.265 Y-39.05
N7575 X-4.553 Y-39.07
N7580 X-4.63 Y-39.073
N7585 X-4.923 Y-39.071
N7590 X-4.998 Y-39.068
N7595 X-5.294 Y-39.044
N7600 X-5.366 Y-39.036
N7605 X-5.667 Y-38.99
N7610 X-5.734 Y-38.977
N7615 X-6.04 Y-38.908
N7620 X-6.102 Y-38.892
N7625 X-6.412 Y-38.801
N7630 X-6.47 Y-38.782
N7635 X-6.784 Y-38.669
N7640 X-6.836 Y-38.649
N7645 X-7.155 Y-38.513
N7650 X-7.203 Y-38.491
N7655 X-7.526 Y-38.333
N7660 X-7.569 Y-38.311
N7665 X-7.759 Y-38.206
N7670 X-7.763 Y-38.212
N7675 X-7.805 Y-38.271
N7680 X-8.096 Y-38.644
N7685 X-8.145 Y-38.701
N7690 X-8.459 Y-39.047
N7695 X-8.513 Y-39.102
N7700 X-8.85 Y-39.421
N7705 X-8.909 Y-39.471
N7710 X-9.269 Y-39.763
N7715 X-9.331 Y-39.809
N7720 X-9.715 Y-40.073
N7725 X-9.779 Y-40.114
N7730 X-10.186 Y-40.351
N7735 X-10.251 Y-40.385
N7740 X-10.682 Y-40.595
N7745 X-10.747 Y-40.624
N7750 X-11.201 Y-40.806
N7755 X-11.264 Y-40.829
N7760 X-11.741 Y-40.984
N7765 X-11.803 Y-41.002
N7770 X-12.303 Y-41.13
N7775 X-12.362 Y-41.143
N7780 X-12.886 Y-41.243
N7785 X-12.941 Y-41.252
N7790 X-13.09 Y-41.272
N7795 X-12.895 Y-41.57
N7800 X-12.627 Y-41.96
N7805 X-12.355 Y-42.339
N7810 X-12.076 Y-42.708
N7815 X-11.793 Y-43.068
N7820 X-11.504 Y-43.417
N7825 X-11.21 Y-43.756
N7830 X-10.911 Y-44.086
N7835 X-10.606 Y-44.405
N7840 X-10.296 Y-44.715
N7845 X-9.981 Y-45.015
N7850 X-9.664 Y-45.302
N7855 X-9.18 Y-45.239
N7860 X-8.285 Y-45.107
N7865 X-7.416 Y-44.965
N7870 X-6.573 Y-44.812
N7875 X-5.756 Y-44.649
N7880 X-4.965 Y-44.476
N7885 X-4.2 Y-44.293
N7890 X-3.461 Y-44.099
N7895 X-2.748 Y-43.896
N7900 X-2.062 Y-43.682
N7905 X-1.402 Y-43.459
N7910 X-0.768 Y-43.226
N7915 X-0.161 Y-42.984
N7920 X0.42 Y-42.732
N7925 X0.975 Y-42.471
N7930 X1.503 Y-42.201
N7935 X2.005 Y-41.922
N7940 X2.481 Y-41.634
N7945 X2.931 Y-41.338
N7950 X3.355 Y-41.034
N7955 X3.753 Y-40.722
N7960 X4.125 Y-40.401
N7965 X4.473 Y-40.073
N7970 X4.795 Y-39.737
N7975 X5.094 Y-39.393
N7980 X5.368 Y-39.042
N7985 X5.618 Y-38.682
N7990 X5.846 Y-38.314
N7995 X5.887 Y-38.239
N8000 G03 X5.806 Y-37.967 I-0.176 J0.095 F1000
N8005 G01 X5.631 Y-37.872
N8010 X5.585 Y-37.847 Z-0.993
N8015 X5.543 Y-37.824 Z-0.973
N8020 X5.506 Y-37.804 Z-0.941
N8025 X5.478 Y-37.789 Z-0.9
N8030 X5.461 Y-37.78 Z-0.852
N8035 X5.455 Y-37.777 Z-0.8
N8040 G00 Z5
N8045 X12.066 Y-42.186
N8050 G01 Z0.4 F500
N8055 Z-0.8
N8060 X12.072 Y-42.19 Z-0.852 F1000
N8065 X12.088 Y-42.201 Z-0.9
N8070 X12.114 Y-42.22 Z-0.941
N8075 X12.148 Y-42.243 Z-0.973
N8080 X12.188 Y-42.271 Z-0.993
N8085 X12.23 Y-42.301 Z-1
N8090 X12.393 Y-42.416
N8095 G03 X12.672 Y-42.368 I0.115 J0.163
N8100 G01 X12.778 Y-42.218 F2475
N8105 X13.006 Y-41.871
N8110 X13.223 Y-41.514
N8115 X13.429 Y-41.147
N8120 X13.623 Y-40.771
N8125 X13.625 Y-40.767
N8130 X13.582 Y-40.668
N8135 X13.475 Y-40.444
N8140 X13.364 Y-40.232
N8145 X13.249 Y-40.031
N8150 X13.131 Y-39.841
N8155 X13.009 Y-39.663
N8160 X12.883 Y-39.495
N8165 X12.754 Y-39.338
N8170 X12.621 Y-39.192
N8175 X12.485 Y-39.055
N8180 X12.345 Y-38.928
N8185 X12.202 Y-38.81
N8190 X12.055 Y-38.701
N8195 X11.903 Y-38.601
N8200 X11.747 Y-38.51
N8205 X11.587 Y-38.426
N8210 X11.421 Y-38.35
N8215 X11.249 Y-38.282
N8220 X11.072 Y-38.223
N8225 X10.888 Y-38.171
N8230 X10.697 Y-38.127
N8235 X10.499 Y-38.091
N8240 X10.294 Y-38.063
N8245 X10.081 Y-38.044
N8250 X9.861 Y-38.033
N8255 X9.633 Y-38.032
N8260 X9.397 Y-38.039
N8265 X9.153 Y-38.056
N8270 X8.93 Y-38.079
N8275 X8.763 Y-38.484
N8280 X8.742 Y-38.533
N8285 X8.53 Y-38.978
N8290 X8.507 Y-39.025
N8295 X8.271 Y-39.46
N8300 X8.245 Y-39.505
N8305 X7.986 Y-39.93
N8310 X7.958 Y-39.973
N8315 X7.675 Y-40.387
N8320 X7.646 Y-40.428
N8325 X7.339 Y-40.831
N8330 X7.309 Y-40.87
N8335 X6.978 Y-41.262
N8340 X6.946 Y-41.298
N8345 X6.592 Y-41.68
N8350 X6.56 Y-41.713
N8355 X6.182 Y-42.084
N8360 X6.15 Y-42.115
N8365 X5.748 Y-42.475
N8370 X5.715 Y-42.503
N8375 X5.29 Y-42.853
N8380 X5.258 Y-42.879
N8385 X4.809 Y-43.218
N8390 X4.777 Y-43.241
N8395 X4.304 Y-43.57
N8400 X4.273 Y-43.591
N8405 X3.776 Y-43.908
N8410 X3.746 Y-43.927
N8415 X3.226 Y-44.234
N8420 X3.196 Y-44.251
N8425 X2.652 Y-44.548
N8430 X2.623 Y-44.563
N8435 X2.056 Y-44.849
N8440 X2.028 Y-44.862
N8445 X1.436 Y-45.137
N8450 X1.41 Y-45.149
N8455 X0.795 Y-45.414
N8460 X0.769 Y-45.425
N8465 X0.13 Y-45.678
N8470 X0.105 Y-45.688
N8475 X-0.557 Y-45.931
N8480 X-0.581 Y-45.939
N8485 X-1.267 Y-46.172
N8490 X-1.289 Y-46.179
N8495 X-1.999 Y-46.401
N8500 X-2.021 Y-46.408
N8505 X-2.755 Y-46.619
N8510 X-2.775 Y-46.624
N8515 X-3.533 Y-46.825
N8520 X-3.552 Y-46.83
N8525 X-4.333 Y-47.02
N8530 X-4.352 Y-47.024
N8535 X-5.157 Y-47.203
N8540 X-5.175 Y-47.207
N8545 X-5.937 Y-47.362
N8550 X-5.776 Y-47.431
N8555 X-5.435 Y-47.565
N8560 X-5.086 Y-47.69
N8565 X-4.731 Y-47.805
N8570 X-4.369 Y-47.912
N8575 X-4.002 Y-48.009
N8580 X-3.629 Y-48.098
N8585 X-3.251 Y-48.176
N8590 X-2.868 Y-48.246
N8595 X-2.481 Y-48.306
N8600 X-2.09 Y-48.357
N8605 X-1.695 Y-48.398
N8610 X-1.297 Y-48.43
N8615 X-0.896 Y-48.452
N8620 X-0.492 Y-48.465
N8625 X-0.087 Y-48.468
N8630 X0.32 Y-48.461
N8635 X0.729 Y-48.445
N8640 X1.139 Y-48.419
N8645 X1.549 Y-48.384
N8650 X1.959 Y-48.339
N8655 X2.369 Y-48.284
N8660 X2.778 Y-48.22
N8665 X3.187 Y-48.146
N8670 X3.594 Y-48.063
N8675 X4 Y-47.97
N8680 X4.403 Y-47.867
N8685 X4.804 Y-47.754
N8690 X5.203 Y-47.632
N8695 X5.598 Y-47.501
N8700 X5.989 Y-47.359
N8705 X6.377 Y-47.209
N8710 X6.76 Y-47.048
N8715 X7.139 Y-46.879
N8720 X7.512 Y-46.699
N8725 X7.881 Y-46.511
N8730 X8.243 Y-46.312
N8735 X8.6 Y-46.105
N8740 X8.95 Y-45.888
N8745 X9.294 Y-45.661
N8750 X9.63 Y-45.426
N8755 X9.959 Y-45.181
N8760 X10.281 Y-44.926
N8765 X10.594 Y-44.662
N8770 X10.899 Y-44.389
N8775 X11.196 Y-44.107
N8780 X11.484 Y-43.816
N8785 X11.762 Y-43.515
N8790 X12.031 Y-43.205
N8795 X12.29 Y-42.885
N8800 X12.539 Y-42.556
N8805 X12.672 Y-42.368
N8810 G03 X12.624 Y-42.09 I-0.163 J0.115 F1000
N8815 G01 X12.46 Y-41.974
N8820 X12.418 Y-41.944 Z-0.993
N8825 X12.379 Y-41.917 Z-0.973
N8830 X12.345 Y-41.893 Z-0.941
N8835 X12.319 Y-41.874 Z-0.9
N8840 X12.303 Y-41.863 Z-0.852
N8845 X12.297 Y-41.859 Z-0.8
N8850 G00 Z5
N8855 X7.521 Y-55.661
N8860 G01 Z0.4 F500
N8865 Z-0.8
N8870 X7.528 Z-0.852 F1000
N8875 X7.548 Z-0.9
N8880 X7.58 Z-0.941
N8885 X7.621 Z-0.973
N8890 X7.669 Z-0.993
N8895 X7.721 Z-1
N8900 X7.921 Y-55.662
N8905 G03 X8.121 Y-55.462 I0 J0.2
N8910 G01 X8.122 Y-55.184 F2475
N8915 Y-55.183
N8920 X8.123 Y-54.64
N8925 Y-54.638
N8930 X8.126 Y-54.07
N8935 Y-54.069
N8940 X8.129 Y-53.475
N8945 Y-53.473
N8950 X8.133 Y-52.854
N8955 Y-52.853
N8960 X8.138 Y-52.208
N8965 Y-52.207
N8970 X8.145 Y-51.537
N8975 Y-51.535
N8980 X8.153 Y-50.84
N8985 Y-50.838
N8990 X8.161 Y-50.117
N8995 Y-50.116
N9000 X8.169 Y-49.528
N9005 X8.03 Y-49.598
N9010 X7.998 Y-49.614
N9015 X7.446 Y-49.87
N9020 X7.413 Y-49.884
N9025 X6.855 Y-50.119
N9030 X6.822 Y-50.132
N9035 X6.259 Y-50.346
N9040 X6.225 Y-50.358
N9045 X5.657 Y-50.551
N9050 X5.623 Y-50.562
N9055 X5.05 Y-50.734
N9060 X5.016 Y-50.743
N9065 X4.44 Y-50.895
N9070 X4.405 Y-50.903
N9075 X3.825 Y-51.034
N9080 X3.791 Y-51.041
N9085 X3.208 Y-51.151
N9090 X3.173 Y-51.157
N9095 X2.588 Y-51.246
N9100 X2.553 Y-51.25
N9105 X1.966 Y-51.319
N9110 X1.931 Y-51.322
N9115 X1.342 Y-51.37
N9120 X1.307 Y-51.372
N9125 X0.718 Y-51.398
N9130 X0.683 Y-51.399
N9135 X0.093 Y-51.405
N9140 X0.058
N9145 X-0.532 Y-51.39
N9150 X-0.567 Y-51.389
N9155 X-1.156 Y-51.353
N9160 X-1.191 Y-51.351
N9165 X-1.779 Y-51.294
N9170 X-1.814 Y-51.29
N9175 X-2.4 Y-51.214
N9180 X-2.435 Y-51.208
N9185 X-3.019 Y-51.111
N9190 X-3.053 Y-51.105
N9195 X-3.635 Y-50.986
N9200 X-3.67 Y-50.979
N9205 X-4.248 Y-50.84
N9210 X-4.282 Y-50.831
N9215 X-4.857 Y-50.672
N9220 X-4.891 Y-50.662
N9225 X-5.462 Y-50.482
N9230 X-5.495 Y-50.471
N9235 X-6.062 Y-50.27
N9240 X-6.094 Y-50.258
N9245 X-6.656 Y-50.037
N9250 X-6.688 Y-50.023
N9255 X-7.244 Y-49.782
N9260 X-7.276 Y-49.767
N9265 X-7.826 Y-49.505
N9270 X-7.857 Y-49.489
N9275 X-7.999 Y-49.415
N9280 X-7.997 Y-50.053
N9285 X-7.995 Y-50.789
N9290 X-7.992 Y-51.5
N9295 X-7.99 Y-52.185
N9300 X-7.988 Y-52.844
N9305 X-7.986 Y-53.477
N9310 X-7.984 Y-54.084
N9315 X-7.982 Y-54.665
N9320 X-7.98 Y-55.221
N9325 X-7.978 Y-55.75
N9330 X-7.977 Y-56.254
N9335 X-7.975 Y-56.732
N9340 X-7.974 Y-57.184
N9345 X-7.972 Y-57.611
N9350 X-7.971 Y-58.011
N9355 X-7.97 Y-58.386
N9360 X-7.969 Y-58.735
N9365 X-7.967 Y-59.058
N9370 X-7.966 Y-59.355
N9375 Y-59.626
N9380 X-7.965 Y-59.872
N9385 Y-59.912
N9390 X8.144 Y-59.755
N9395 Y-59.741
N9400 Y-59.739
N9405 X8.141 Y-59.5
N9410 Y-59.499
N9415 X8.138 Y-59.234
N9420 Y-59.233
N9425 X8.135 Y-58.943
N9430 Y-58.942
N9435 X8.132 Y-58.627
N9440 Y-58.625
N9445 X8.129 Y-58.285
N9450 Y-58.284
N9455 X8.126 Y-57.918
N9460 Y-57.917
N9465 X8.124 Y-57.526
N9470 Y-57.524
N9475 X8.123 Y-57.108
N9480 Y-57.107
N9485 X8.121 Y-56.665
N9490 Y-56.664
N9495 Y-56.197
N9500 Y-56.195
N9505 Y-55.703
N9510 Y-55.702
N9515 Y-55.462
N9520 G03 X7.922 Y-55.262 I-0.2 J0 F1000
N9525 G01 X7.722 Y-55.261
N9530 X7.67 Z-0.993
N9535 X7.622 Z-0.973
N9540 X7.58 Z-0.941
N9545 X7.548 Z-0.9
N9550 X7.528 Z-0.852
N9555 X7.522 Z-0.8
N9560 G00 Z5
N9565 X3.171 Y-71.814
N9570 G01 Z0.4 F500
N9575 Z-0.8
N9580 X3.175 Y-71.819 Z-0.852 F1000
N9585 X3.188 Y-71.834 Z-0.9
N9590 X3.209 Y-71.858 Z-0.941
N9595 X3.236 Y-71.89 Z-0.973
N9600 X3.267 Y-71.926 Z-0.993
N9605 X3.301 Y-71.965 Z-1
N9610 X3.432 Y-72.117
N9615 G03 X3.714 Y-72.137 I0.151 J0.131
N9620 G01 X9.927 Y-66.771 F2475
N9625 G02 X10.502 Y-66.531 I0.654 J-0.757
N9630 G01 X11.536 Y-66.449
N9635 X12.557 Y-66.36
N9640 X13.568 Y-66.262
N9645 X14.57 Y-66.156
N9650 X15.563 Y-66.041
N9655 X16.546 Y-65.919
N9660 X17.52 Y-65.788
N9665 X18.485 Y-65.648
N9670 X19.441 Y-65.501
N9675 X20.388 Y-65.345
N9680 X21.325 Y-65.18
N9685 X22.253 Y-65.008
N9690 X23.171 Y-64.827
N9695 X24.081 Y-64.638
N9700 X24.981 Y-64.44
N9705 X25.871 Y-64.234
N9710 X26.753 Y-64.021
N9715 X27.625 Y-63.798
N9720 X28.488 Y-63.568
N9725 X29.342 Y-63.329
N9730 X30.187 Y-63.082
N9735 X31.022 Y-62.827
N9740 X31.848 Y-62.563
N9745 X32.665 Y-62.292
N9750 X33.472 Y-62.012
N9755 X34.271 Y-61.724
N9760 X35.06 Y-61.427
N9765 X35.84 Y-61.123
N9770 X36.61 Y-60.81
N9775 X37.372 Y-60.489
N9780 X38.124 Y-60.16
N9785 X38.867 Y-59.822
N9790 X39.601 Y-59.477
N9795 X40.326 Y-59.123
N9800 X41.041 Y-58.761
N9805 X41.747 Y-58.391
N9810 X42.444 Y-58.013
N9815 X43.132 Y-57.627
N9820 X43.811 Y-57.232
N9825 X44.481 Y-56.829
N9830 X45.142 Y-56.418
N9835 X45.793 Y-55.999
N9840 X46.436 Y-55.572
N9845 X47.069 Y-55.136
N9850 X47.693 Y-54.693
N9855 X48.308 Y-54.241
N9860 X48.915 Y-53.781
N9865 X49.512 Y-53.313
N9870 X50.1 Y-52.837
N9875 X50.679 Y-52.352
N9880 X51.249 Y-51.859
N9885 X51.81 Y-51.359
N9890 X52.362 Y-50.85
N9895 X52.905 Y-50.332
N9900 X53.439 Y-49.807
N9905 X53.964 Y-49.273
N9910 X54.48 Y-48.731
N9915 X54.988 Y-48.181
N9920 X55.486 Y-47.622
N9925 X55.976 Y-47.055
N9930 X56.456 Y-46.48
N9935 X56.928 Y-45.897
N9940 X57.39 Y-45.305
N9945 X57.837 Y-44.716
N9950 X58.521 Y-43.729
N9955 X59.184 Y-42.722
N9960 X59.821 Y-41.701
N9965 X60.432 Y-40.666
N9970 X61.017 Y-39.618
N9975 X61.576 Y-38.556
N9980 X62.109 Y-37.48
N9985 X62.616 Y-36.39
N9990 X63.097 Y-35.286
N9995 X63.553 Y-34.168
N10000 X63.982 Y-33.036
N10005 X64.386 Y-31.89
N10010 X64.763 Y-30.73
N10015 X65.115 Y-29.556
N10020 X65.441 Y-28.368
N10025 X65.74 Y-27.165
N10030 X66.014 Y-25.948
N10035 X66.262 Y-24.717
N10040 X66.484 Y-23.472
N10045 X66.68 Y-22.212
N10050 X66.85 Y-20.938
N10055 X66.994 Y-19.649
N10060 X67.112 Y-18.347
N10065 X67.204 Y-17.029
N10070 X67.27 Y-15.697
N10075 X67.31 Y-14.351
N10080 X67.323 Y-12.99
N10085 X67.311 Y-11.615
N10090 X67.272 Y-10.226
N10095 X67.207 Y-8.821
N10100 X67.116 Y-7.403
N10105 X66.998 Y-5.961
N10110 G02 X67.281 Y-5.179 I0.997 J0.082
N10115 G01 X67.685 Y-4.767
N10120 X68.077 Y-4.368
N10125 X68.455 Y-3.981
N10130 X68.821 Y-3.608
N10135 X69.174 Y-3.248
N10140 X69.514 Y-2.901
N10145 X69.841 Y-2.568
N10150 X70.156 Y-2.247
N10155 X70.457 Y-1.939
N10160 X70.746 Y-1.645
N10165 X71.022 Y-1.363
N10170 X71.285 Y-1.095
N10175 X71.535 Y-0.84
N10180 X71.772 Y-0.597
N10185 X71.997 Y-0.368
N10190 X72.209 Y-0.152
N10195 X72.408 Y0.051
N10200 X72.594 Y0.24
N10205 X72.767 Y0.417
N10210 X72.927 Y0.581
N10215 X73.075 Y0.731
N10220 X73.21 Y0.869
N10225 X73.219 Y0.878
N10230 X72.94 Y1.214
N10235 X72.931 Y1.224
N10240 X72.099 Y2.254
N10245 X72.09 Y2.265
N10250 X71.282 Y3.294
N10255 X71.273 Y3.306
N10260 X70.488 Y4.334
N10265 X70.479 Y4.346
N10270 X69.719 Y5.375
N10275 X69.71 Y5.387
N10280 X68.975 Y6.415
N10285 X68.966 Y6.428
N10290 X68.254 Y7.456
N10295 X68.245 Y7.469
N10300 X67.557 Y8.497
N10305 X67.548 Y8.51
N10310 X66.885 Y9.537
N10315 X66.876 Y9.551
N10320 X66.236 Y10.578
N10325 X66.228 Y10.593
N10330 X65.612 Y11.619
N10335 X65.603 Y11.634
N10340 X65.012 Y12.661
N10345 X65.004 Y12.676
N10350 X64.437 Y13.702
N10355 X64.428 Y13.718
N10360 X63.885 Y14.744
N10365 X63.877 Y14.76
N10370 X63.358 Y15.785
N10375 X63.35 Y15.802
N10380 X62.855 Y16.827
N10385 X62.847 Y16.844
N10390 X62.377 Y17.869
N10395 X62.369 Y17.887
N10400 X61.923 Y18.911
N10405 X61.915 Y18.93
N10410 X61.493 Y19.954
N10415 X61.485 Y19.972
N10420 X61.087 Y20.996
N10425 X61.08 Y21.015
N10430 X60.706 Y22.039
N10435 X60.699 Y22.058
N10440 X60.35 Y23.082
N10445 X60.343 Y23.102
N10450 X60.018 Y24.124
N10455 X60.011 Y24.145
N10460 X59.71 Y25.167
N10465 X59.704 Y25.188
N10470 X59.427 Y26.21
N10475 X59.421 Y26.232
N10480 X59.168 Y27.254
N10485 X59.163 Y27.275
N10490 X58.934 Y28.297
N10495 X58.929 Y28.319
N10500 X58.725 Y29.34
N10505 X58.721 Y29.362
N10510 X58.54 Y30.383
N10515 X58.536 Y30.406
N10520 X58.38 Y31.427
N10525 X58.376 Y31.449
N10530 X58.244 Y32.47
N10535 X58.241 Y32.493
N10540 X58.133 Y33.513
N10545 X58.131 Y33.536
N10550 X58.047 Y34.556
N10555 X58.045 Y34.579
N10560 X57.985 Y35.598
N10565 X57.984 Y35.622
N10570 X57.948 Y36.641
N10575 Y36.665
N10580 X57.936 Y37.683
N10585 Y37.707
N10590 X57.949 Y38.725
N10595 Y38.749
N10600 X57.986 Y39.767
N10605 X57.987 Y39.79
N10610 X58.048 Y40.808
N10615 X58.05 Y40.832
N10620 X58.135 Y41.849
N10625 X58.137 Y41.872
N10630 X58.246 Y42.889
N10635 X58.249 Y42.913
N10640 X58.382 Y43.929
N10645 X58.385 Y43.953
N10650 X58.543 Y44.969
N10655 X58.546 Y44.992
N10660 X58.728 Y46.008
N10665 X58.732 Y46.03
N10670 X58.938 Y47.046
N10675 X58.943 Y47.068
N10680 X59.173 Y48.084
N10685 X59.178 Y48.106
N10690 X59.432 Y49.121
N10695 X59.438 Y49.143
N10700 X59.716 Y50.157
N10705 X59.722 Y50.179
N10710 X60.024 Y51.193
N10715 X60.03 Y51.214
N10720 X60.357 Y52.228
N10725 X60.364 Y52.249
N10730 X60.714 Y53.262
N10735 X60.721 Y53.282
N10740 X61.096 Y54.296
N10745 X61.104 Y54.315
N10750 X61.502 Y55.329
N10755 X61.51 Y55.348
N10760 X61.933 Y56.36
N10765 X61.941 Y56.379
N10770 X62.388 Y57.392
N10775 X62.396 Y57.41
N10780 X62.868 Y58.422
N10785 X62.876 Y58.44
N10790 X63.372 Y59.452
N10795 X63.38 Y59.469
N10800 X63.9 Y60.48
N10805 X63.909 Y60.497
N10810 X64.452 Y61.508
N10815 X64.461 Y61.525
N10820 X65.029 Y62.535
N10825 X65.038 Y62.551
N10830 X65.63 Y63.562
N10835 X65.639 Y63.577
N10840 X66.255 Y64.587
N10845 X66.265 Y64.602
N10850 X66.905 Y65.612
N10855 X66.914 Y65.626
N10860 X67.193 Y66.05
N10865 X67.134 Y66.128
N10870 X67.042 Y66.25
N10875 X66.944 Y66.382
N10880 X66.836 Y66.526
N10885 X66.722 Y66.679
N10890 X66.599 Y66.843
N10895 X66.468 Y67.018
N10900 X66.329 Y67.204
N10905 X66.183 Y67.4
N10910 X66.028 Y67.606
N10915 X65.866 Y67.823
N10920 X65.696 Y68.051
N10925 X65.517 Y68.29
N10930 X65.331 Y68.538
N10935 X65.137 Y68.798
N10940 X64.935 Y69.068
N10945 X64.725 Y69.349
N10950 X64.507 Y69.64
N10955 X64.281 Y69.942
N10960 X64.047 Y70.255
N10965 X63.962 Y70.368
N10970 X63.199 Y70.163
N10975 X63.178 Y70.157
N10980 X61.771 Y69.81
N10985 X61.75 Y69.805
N10990 X60.354 Y69.492
N10995 X60.333 Y69.488
N11000 X58.949 Y69.209
N11005 X58.926 Y69.205
N11010 X57.553 Y68.961
N11015 X57.53 Y68.957
N11020 X56.169 Y68.748
N11025 X56.145 Y68.745
N11030 X54.795 Y68.571
N11035 X54.771 Y68.568
N11040 X53.432 Y68.428
N11045 X53.407 Y68.426
N11050 X52.08 Y68.32
N11055 X52.055 Y68.319
N11060 X50.739 Y68.248
N11065 X50.713 Y68.247
N11070 X49.409 Y68.211
N11075 X49.382
N11080 X48.089 Y68.209
N11085 X48.062 Y68.21
N11090 X46.781 Y68.243
N11095 X46.753 Y68.244
N11100 X45.483 Y68.312
N11105 X45.455 Y68.314
N11110 X44.196 Y68.416
N11115 X44.168 Y68.419
N11120 X42.921 Y68.556
N11125 X42.893 Y68.559
N11130 X41.657 Y68.731
N11135 X41.628 Y68.735
N11140 X40.404 Y68.942
N11145 X40.375 Y68.947
N11150 X39.162 Y69.188
N11155 X39.133 Y69.194
N11160 X37.932 Y69.469
N11165 X37.903 Y69.476
N11170 X36.713 Y69.786
N11175 X36.684 Y69.794
N11180 X35.506 Y70.139
N11185 X35.477 Y70.148
N11190 X34.31 Y70.527
N11195 X34.282 Y70.537
N11200 X33.126 Y70.951
N11205 X33.098 Y70.961
N11210 X31.953 Y71.41
N11215 X31.926 Y71.421
N11220 X30.793 Y71.904
N11225 X30.766 Y71.916
N11230 X29.644 Y72.434
N11235 X29.618 Y72.446
N11240 X28.508 Y72.999
N11245 X28.482 Y73.012
N11250 X27.383 Y73.599
N11255 X27.358 Y73.613
N11260 X26.27 Y74.234
N11265 X26.246 Y74.249
N11270 X25.17 Y74.905
N11275 X25.146 Y74.92
N11280 X24.62 Y75.261
N11285 X24.364 Y75.098
N11290 X24.352 Y75.091
N11295 X23.554 Y74.6
N11300 X23.542 Y74.593
N11305 X22.746 Y74.118
N11310 X22.733 Y74.111
N11315 X21.938 Y73.653
N11320 X21.925 Y73.645
N11325 X21.131 Y73.203
N11330 X21.118 Y73.196
N11335 X20.325 Y72.77
N11340 X20.312 Y72.763
N11345 X19.52 Y72.353
N11350 X19.506 Y72.346
N11355 X18.715 Y71.952
N11360 X18.701 Y71.945
N11365 X17.911 Y71.567
N11370 X17.896 Y71.56
N11375 X17.108 Y71.199
N11380 X17.092 Y71.192
N11385 X16.305 Y70.847
N11390 X16.289 Y70.84
N11395 X15.503 Y70.511
N11400 X15.487 Y70.505
N11405 X14.702 Y70.192
N11410 X14.686 Y70.185
N11415 X13.901 Y69.889
N11420 X13.885 Y69.882
N11425 X13.101 Y69.602
N11430 X13.085 Y69.596
N11435 X12.303 Y69.331
N11440 X12.285 Y69.326
N11445 X11.504 Y69.077
N11450 X11.486 Y69.072
N11455 X10.707 Y68.84
N11460 X10.688 Y68.834
N11465 X9.91 Y68.618
N11470 X9.891 Y68.613
N11475 X9.114 Y68.414
N11480 X9.095 Y68.409
N11485 X8.318 Y68.225
N11490 X8.299 Y68.221
N11495 X7.524 Y68.053
N11500 X7.504 Y68.049
N11505 X6.73 Y67.898
N11510 X6.71 Y67.894
N11515 X5.937 Y67.759
N11520 X5.917 Y67.756
N11525 X5.145 Y67.637
N11530 X5.125 Y67.634
N11535 X4.353 Y67.531
N11540 X4.333 Y67.528
N11545 X3.563 Y67.442
N11550 X3.542 Y67.439
N11555 X2.773 Y67.369
N11560 X2.753 Y67.367
N11565 X1.985 Y67.313
N11570 X1.964 Y67.311
N11575 X1.197 Y67.273
N11580 X1.176 Y67.272
N11585 X0.41 Y67.25
N11590 X0.389
N11595 X-0.375 Y67.244
N11600 X-0.396
N11605 X-1.16 Y67.254
N11610 X-1.181
N11615 X-1.944 Y67.281
N11620 X-1.965 Y67.282
N11625 X-2.726 Y67.324
N11630 X-2.747 Y67.326
N11635 X-3.508 Y67.384
N11640 X-3.529 Y67.386
N11645 X-4.288 Y67.461
N11650 X-4.309 Y67.463
N11655 X-5.067 Y67.554
N11660 X-5.088 Y67.557
N11665 X-5.845 Y67.664
N11670 X-5.866 Y67.667
N11675 X-6.622 Y67.79
N11680 X-6.643 Y67.794
N11685 X-7.398 Y67.933
N11690 X-7.418 Y67.937
N11695 X-8.172 Y68.093
N11700 X-8.192 Y68.097
N11705 X-8.945 Y68.269
N11710 X-8.965 Y68.274
N11715 X-9.717 Y68.462
N11720 X-9.737 Y68.467
N11725 X-10.487 Y68.671
N11730 X-10.507 Y68.676
N11735 X-11.256 Y68.897
N11740 X-11.275 Y68.902
N11745 X-12.024 Y69.139
N11750 X-12.043 Y69.145
N11755 X-12.79 Y69.398
N11760 X-12.808 Y69.404
N11765 X-13.555 Y69.673
N11770 X-13.573 Y69.679
N11775 X-14.318 Y69.964
N11780 X-14.336 Y69.971
N11785 X-15.08 Y70.272
N11790 X-15.097 Y70.28
N11795 X-15.84 Y70.597
N11800 X-15.858 Y70.604
N11805 X-16.599 Y70.938
N11810 X-16.616 Y70.945
N11815 X-17.357 Y71.295
N11820 X-17.373 Y71.303
N11825 X-18.113 Y71.668
N11830 X-18.129 Y71.676
N11835 X-18.868 Y72.058
N11840 X-18.883 Y72.066
N11845 X-19.621 Y72.464
N11850 X-19.636 Y72.473
N11855 X-20.372 Y72.887
N11860 X-20.387 Y72.895
N11865 X-21.123 Y73.326
N11870 X-21.137 Y73.334
N11875 X-21.871 Y73.78
N11880 X-21.885 Y73.789
N11885 X-22.618 Y74.252
N11890 X-22.632 Y74.261
N11895 X-23.364 Y74.739
N11900 X-23.377 Y74.748
N11905 X-24.108 Y75.243
N11910 X-24.121 Y75.252
N11915 X-24.303 Y75.38
N11920 X-24.874 Y75.016
N11925 X-24.896 Y75.002
N11930 X-26.037 Y74.316
N11935 X-26.06 Y74.302
N11940 X-27.208 Y73.653
N11945 X-27.232 Y73.64
N11950 X-28.386 Y73.028
N11955 X-28.411 Y73.015
N11960 X-29.573 Y72.44
N11965 X-29.598 Y72.428
N11970 X-30.766 Y71.89
N11975 X-30.793 Y71.878
N11980 X-31.968 Y71.377
N11985 X-31.995 Y71.366
N11990 X-33.177 Y70.902
N11995 X-33.204 Y70.891
N12000 X-34.393 Y70.464
N12005 X-34.421 Y70.454
N12010 X-35.618 Y70.064
N12015 X-35.646 Y70.055
N12020 X-36.849 Y69.702
N12025 X-36.878 Y69.694
N12030 X-38.088 Y69.377
N12035 X-38.117 Y69.37
N12040 X-39.334 Y69.091
N12045 X-39.363 Y69.084
N12050 X-40.587 Y68.842
N12055 X-40.616 Y68.836
N12060 X-41.847 Y68.631
N12065 X-41.877 Y68.626
N12070 X-43.114 Y68.457
N12075 X-43.144 Y68.454
N12080 X-44.388 Y68.322
N12085 X-44.418 Y68.319
N12090 X-45.669 Y68.225
N12095 X-45.699 Y68.223
N12100 X-46.957 Y68.165
N12105 X-46.987 Y68.164
N12110 X-48.252 Y68.143
N12115 X-48.281
N12120 X-49.553 Y68.159
N12125 X-49.582 Y68.16
N12130 X-50.86 Y68.213
N12135 X-50.889 Y68.215
N12140 X-52.175 Y68.305
N12145 X-52.202 Y68.307
N12150 X-53.495 Y68.434
N12155 X-53.523 Y68.437
N12160 X-54.822 Y68.601
N12165 X-54.849 Y68.605
N12170 X-56.155 Y68.806
N12175 X-56.182 Y68.81
N12180 X-57.495 Y69.048
N12185 X-57.521 Y69.053
N12190 X-58.841 Y69.328
N12195 X-58.866 Y69.334
N12200 X-60.193 Y69.645
N12205 X-60.217 Y69.651
N12210 X-61.551 Y70
N12215 X-61.575 Y70.007
N12220 X-62.916 Y70.392
N12225 X-62.939 Y70.399
N12230 X-63.607 Y70.609
N12235 X-67.043 Y65.968
N12240 X-66.751 Y65.529
N12245 X-66.742 Y65.515
N12250 X-66.085 Y64.491
N12255 X-66.076 Y64.476
N12260 X-65.445 Y63.451
N12265 X-65.436 Y63.436
N12270 X-64.83 Y62.411
N12275 X-64.82 Y62.395
N12280 X-64.239 Y61.371
N12285 X-64.23 Y61.354
N12290 X-63.675 Y60.329
N12295 X-63.666 Y60.313
N12300 X-63.135 Y59.287
N12305 X-63.126 Y59.27
N12310 X-62.62 Y58.245
N12315 X-62.612 Y58.227
N12320 X-62.131 Y57.202
N12325 X-62.123 Y57.183
N12330 X-61.667 Y56.158
N12335 X-61.659 Y56.139
N12340 X-61.228 Y55.113
N12345 X-61.22 Y55.094
N12350 X-60.814 Y54.068
N12355 X-60.807 Y54.049
N12360 X-60.426 Y53.023
N12365 X-60.419 Y53.003
N12370 X-60.063 Y51.977
N12375 X-60.056 Y51.956
N12380 X-59.725 Y50.931
N12385 X-59.718 Y50.91
N12390 X-59.413 Y49.884
N12395 X-59.406 Y49.863
N12400 X-59.125 Y48.837
N12405 X-59.12 Y48.815
N12410 X-58.864 Y47.79
N12415 X-58.858 Y47.767
N12420 X-58.627 Y46.742
N12425 X-58.623 Y46.719
N12430 X-58.416 Y45.694
N12435 X-58.412 Y45.671
N12440 X-58.231 Y44.646
N12445 X-58.227 Y44.623
N12450 X-58.071 Y43.598
N12455 X-58.067 Y43.574
N12460 X-57.936 Y42.549
N12465 X-57.933 Y42.525
N12470 X-57.826 Y41.501
N12475 X-57.824 Y41.477
N12480 X-57.742 Y40.453
N12485 X-57.741 Y40.428
N12490 X-57.684 Y39.404
N12495 X-57.683 Y39.38
N12500 X-57.651 Y38.356
N12505 X-57.65 Y38.332
N12510 X-57.643 Y37.308
N12515 Y37.284
N12520 X-57.661 Y36.261
N12525 X-57.662 Y36.237
N12530 X-57.704 Y35.213
N12535 X-57.705 Y35.189
N12540 X-57.773 Y34.167
N12545 X-57.774 Y34.143
N12550 X-57.866 Y33.12
N12555 X-57.869 Y33.096
N12560 X-57.986 Y32.074
N12565 X-57.989 Y32.051
N12570 X-58.13 Y31.029
N12575 X-58.134 Y31.006
N12580 X-58.3 Y29.984
N12585 X-58.304 Y29.961
N12590 X-58.495 Y28.94
N12595 X-58.5 Y28.917
N12600 X-58.716 Y27.897
N12605 X-58.721 Y27.874
N12610 X-58.961 Y26.855
N12615 X-58.967 Y26.832
N12620 X-59.232 Y25.813
N12625 X-59.238 Y25.791
N12630 X-59.528 Y24.772
N12635 X-59.534 Y24.751
N12640 X-59.849 Y23.732
N12645 X-59.856 Y23.711
N12650 X-60.195 Y22.694
N12655 X-60.202 Y22.673
N12660 X-60.566 Y21.656
N12665 X-60.574 Y21.636
N12670 X-60.963 Y20.619
N12675 X-60.97 Y20.599
N12680 X-61.384 Y19.583
N12685 X-61.392 Y19.564
N12690 X-61.83 Y18.549
N12695 X-61.838 Y18.53
N12700 X-62.301 Y17.515
N12705 X-62.309 Y17.497
N12710 X-62.797 Y16.483
N12715 X-62.806 Y16.465
N12720 X-63.317 Y15.452
N12725 X-63.326 Y15.435
N12730 X-63.863 Y14.422
N12735 X-63.872 Y14.405
N12740 X-64.433 Y13.393
N12745 X-64.442 Y13.377
N12750 X-65.028 Y12.366
N12755 X-65.037 Y12.35
N12760 X-65.648 Y11.34
N12765 X-65.657 Y11.325
N12770 X-66.292 Y10.315
N12775 X-66.302 Y10.3
N12780 X-66.961 Y9.292
N12785 X-66.971 Y9.277
N12790 X-67.655 Y8.269
N12795 X-67.664 Y8.255
N12800 X-68.373 Y7.248
N12805 X-68.382 Y7.235
N12810 X-69.115 Y6.229
N12815 X-69.125 Y6.216
N12820 X-69.882 Y5.211
N12825 X-69.892 Y5.198
N12830 X-70.674 Y4.194
N12835 X-70.684 Y4.181
N12840 X-71.49 Y3.178
N12845 X-71.5 Y3.166
N12850 X-72.331 Y2.164
N12855 X-72.34 Y2.153
N12860 X-73.196 Y1.151
N12865 X-73.206 Y1.14
N12870 X-73.474 Y0.835
N12875 X-73.319 Y0.676
N12880 X-72.938 Y0.284
N12885 X-72.57 Y-0.094
N12890 X-72.215 Y-0.459
N12895 X-71.872 Y-0.81
N12900 X-71.543 Y-1.148
N12905 X-71.226 Y-1.473
N12910 X-70.923 Y-1.785
N12915 X-70.632 Y-2.083
N12920 X-70.354 Y-2.369
N12925 X-70.089 Y-2.641
N12930 X-69.838 Y-2.899
N12935 X-69.598 Y-3.145
N12940 X-69.372 Y-3.377
N12945 X-69.159 Y-3.596
N12950 X-68.959 Y-3.801
N12955 X-68.772 Y-3.993
N12960 X-68.597 Y-4.172
N12965 X-68.436 Y-4.338
N12970 X-68.287 Y-4.491
N12975 X-68.152 Y-4.63
N12980 X-68.029 Y-4.756
N12985 X-67.919 Y-4.869
N12990 X-67.822 Y-4.968
N12995 X-67.738 Y-5.055
N13000 X-67.667 Y-5.127
N13005 X-67.609 Y-5.187
N13010 X-67.564 Y-5.233
N13015 Y-5.234
N13020 X-67.531 Y-5.267
N13025 X-67.53 Y-5.268
N13030 X-67.512 Y-5.286
N13035 X-67.507 Y-5.292
N13040 G02 X-67.224 Y-6.06 I-0.715 J-0.7
N13045 G01 X-67.299 Y-7.138
N13050 X-67.36 Y-8.201
N13055 X-67.408 Y-9.254
N13060 X-67.443 Y-10.297
N13065 X-67.465 Y-11.33
N13070 X-67.475 Y-12.354
N13075 X-67.471 Y-13.368
N13080 X-67.455 Y-14.372
N13085 X-67.426 Y-15.367
N13090 X-67.384 Y-16.352
N13095 X-67.328 Y-17.327
N13100 X-67.26 Y-18.293
N13105 X-67.179 Y-19.249
N13110 X-67.085 Y-20.196
N13115 X-66.978 Y-21.133
N13120 X-66.859 Y-22.061
N13125 X-66.726 Y-22.979
N13130 X-66.58 Y-23.888
N13135 X-66.422 Y-24.788
N13140 X-66.25 Y-25.678
N13145 X-66.065 Y-26.559
N13150 X-65.868 Y-27.431
N13155 X-65.657 Y-28.293
N13160 X-65.434 Y-29.147
N13165 X-65.198 Y-29.991
N13170 X-64.948 Y-30.826
N13175 X-64.686 Y-31.652
N13180 X-64.41 Y-32.469
N13185 X-64.122 Y-33.277
N13190 X-63.821 Y-34.076
N13195 X-63.506 Y-34.866
N13200 X-63.179 Y-35.648
N13205 X-62.838 Y-36.42
N13210 X-62.485 Y-37.184
N13215 X-62.118 Y-37.939
N13220 X-61.738 Y-38.686
N13225 X-61.345 Y-39.423
N13230 X-60.939 Y-40.152
N13235 X-60.52 Y-40.873
N13240 X-60.087 Y-41.585
N13245 X-59.642 Y-42.289
N13250 X-59.183 Y-42.984
N13255 X-58.711 Y-43.671
N13260 X-58.225 Y-44.35
N13265 X-57.727 Y-45.02
N13270 X-57.215 Y-45.682
N13275 X-56.689 Y-46.336
N13280 X-56.15 Y-46.981
N13285 X-55.598 Y-47.619
N13290 X-55.032 Y-48.248
N13295 X-54.453 Y-48.87
N13300 X-53.86 Y-49.483
N13305 X-53.254 Y-50.088
N13310 X-52.634 Y-50.686
N13315 X-52 Y-51.275
N13320 X-51.353 Y-51.857
N13325 X-50.692 Y-52.43
N13330 X-50.018 Y-52.996
N13335 X-49.329 Y-53.554
N13340 X-48.627 Y-54.104
N13345 X-47.911 Y-54.646
N13350 X-47.182 Y-55.18
N13355 X-46.438 Y-55.707
N13360 X-45.685 Y-56.223
N13365 X-44.835 Y-56.772
N13370 X-43.966 Y-57.309
N13375 X-43.081 Y-57.83
N13380 X-42.179 Y-58.337
N13385 X-41.261 Y-58.83
N13390 X-40.326 Y-59.307
N13395 X-39.375 Y-59.77
N13400 X-38.407 Y-60.218
N13405 X-37.423 Y-60.652
N13410 X-36.423 Y-61.071
N13415 X-35.406 Y-61.475
N13420 X-34.372 Y-61.864
N13425 X-33.322 Y-62.239
N13430 X-32.256 Y-62.598
N13435 X-31.172 Y-62.943
N13440 X-30.073 Y-63.273
N13445 X-28.956 Y-63.588
N13450 X-27.823 Y-63.889
N13455 X-26.674 Y-64.174
N13460 X-25.507 Y-64.445
N13465 X-24.325 Y-64.701
N13470 X-23.125 Y-64.942
N13475 X-21.909 Y-65.168
N13480 X-20.676 Y-65.379
N13485 X-19.427 Y-65.575
N13490 X-18.161 Y-65.757
N13495 X-16.879 Y-65.923
N13500 X-15.579 Y-66.074
N13505 X-14.264 Y-66.21
N13510 X-12.931 Y-66.332
N13515 X-11.582 Y-66.438
N13520 X-10.211 Y-66.53
N13525 G02 X-9.629 Y-66.767 I-0.067 J-0.998
N13530 G01 X0.213 Y-75.161
N13535 X3.714 Y-72.137
N13540 G03 X3.735 Y-71.855 I-0.131 J0.151 F1000
N13545 G01 X3.604 Y-71.704
N13550 X3.57 Y-71.665 Z-0.993
N13555 X3.539 Y-71.628 Z-0.973
N13560 X3.512 Y-71.597 Z-0.941
N13565 X3.491 Y-71.573 Z-0.9
N13570 X3.478 Y-71.558 Z-0.852
N13575 X3.473 Y-71.553 Z-0.8
N13580 G00 Z5
N13585 X0.419 Y-81.851
N13590 G01 Z0.4 F500
N13595 Z-0.8
N13600 Y-81.844 Z-0.852 F1000
N13605 Y-81.824 Z-0.9
N13610 Y-81.792 Z-0.941
N13615 Y-81.751 Z-0.973
N13620 Y-81.702 Z-0.993
N13625 Y-81.651 Z-1
N13630 Y-81.451
N13635 G03 X0.219 Y-81.25 I-0.2 J0
N13640 G02 X-0.408 Y-81.029 I0.001 J1 F2475
N13645 G01 X-12.079 Y-71.606
N13650 X-12.771 Y-71.543
N13655 X-12.779 Y-71.542
N13660 X-13.764 Y-71.445
N13665 X-13.772 Y-71.444
N13670 X-14.749 Y-71.34
N13675 X-14.756 Y-71.339
N13680 X-15.725 Y-71.228
N13685 X-15.733 Y-71.227
N13690 X-16.693 Y-71.109
N13695 X-16.701 Y-71.108
N13700 X-17.653 Y-70.984
N13705 X-17.661 Y-70.983
N13710 X-18.604 Y-70.851
N13715 X-18.612 Y-70.85
N13720 X-19.547 Y-70.712
N13725 X-19.555 Y-70.711
N13730 X-20.482 Y-70.565
N13735 X-20.49 Y-70.564
N13740 X-21.408 Y-70.412
N13745 X-21.417 Y-70.411
N13750 X-22.326 Y-70.252
N13755 X-22.335 Y-70.25
N13760 X-23.236 Y-70.085
N13765 X-23.245 Y-70.083
N13770 X-24.137 Y-69.911
N13775 X-24.146 Y-69.909
N13780 X-25.03 Y-69.73
N13785 X-25.04 Y-69.728
N13790 X-25.915 Y-69.542
N13795 X-25.925 Y-69.54
N13800 X-26.792 Y-69.347
N13805 X-26.801 Y-69.345
N13810 X-27.66 Y-69.145
N13815 X-27.67 Y-69.143
N13820 X-28.52 Y-68.936
N13825 X-28.529 Y-68.934
N13830 X-29.371 Y-68.72
N13835 X-29.381 Y-68.718
N13840 X-30.215 Y-68.498
N13845 X-30.224 Y-68.495
N13850 X-31.05 Y-68.268
N13855 X-31.06 Y-68.265
N13860 X-31.876 Y-68.031
N13865 X-31.886 Y-68.028
N13870 X-32.694 Y-67.788
N13875 X-32.705 Y-67.784
N13880 X-33.504 Y-67.537
N13885 X-33.515 Y-67.534
N13890 X-34.306 Y-67.279
N13895 X-34.316 Y-67.276
N13900 X-35.099 Y-67.015
N13905 X-35.11 Y-67.011
N13910 X-35.884 Y-66.743
N13915 X-35.895 Y-66.739
N13920 X-36.661 Y-66.465
N13925 X-36.672 Y-66.461
N13930 X-37.429 Y-66.179
N13935 X-37.44 Y-66.175
N13940 X-38.189 Y-65.886
N13945 X-38.2 Y-65.882
N13950 X-38.941 Y-65.587
N13955 X-38.952 Y-65.582
N13960 X-39.684 Y-65.28
N13965 X-39.695 Y-65.275
N13970 X-40.419 Y-64.966
N13975 X-40.43 Y-64.961
N13980 X-41.146 Y-64.645
N13985 X-41.157 Y-64.64
N13990 X-41.864 Y-64.318
N13995 X-41.875 Y-64.313
N14000 X-42.574 Y-63.983
N14005 X-42.585 Y-63.978
N14010 X-43.275 Y-63.641
N14015 X-43.287 Y-63.635
N14020 X-43.968 Y-63.292
N14025 X-43.98 Y-63.286
N14030 X-44.653 Y-62.936
N14035 X-44.665 Y-62.93
N14040 X-45.33 Y-62.573
N14045 X-45.341 Y-62.567
N14050 X-45.997 Y-62.203
N14055 X-46.009 Y-62.197
N14060 X-46.657 Y-61.826
N14065 X-46.669 Y-61.819
N14070 X-47.308 Y-61.442
N14075 X-47.32 Y-61.435
N14080 X-47.951 Y-61.051
N14085 X-47.963 Y-61.044
N14090 X-48.585 Y-60.653
N14095 X-48.597 Y-60.645
N14100 X-49.211 Y-60.247
N14105 X-49.223 Y-60.24
N14110 X-49.829 Y-59.835
N14115 X-49.841 Y-59.827
N14120 X-50.438 Y-59.415
N14125 X-50.45 Y-59.407
N14130 X-51.038 Y-58.989
N14135 X-51.05 Y-58.98
N14140 X-51.63 Y-58.555
N14145 X-51.642 Y-58.547
N14150 X-52.214 Y-58.115
N14155 X-52.226 Y-58.106
N14160 X-52.789 Y-57.667
N14165 X-52.801 Y-57.658
N14170 X-53.356 Y-57.212
N14175 X-53.368 Y-57.203
N14180 X-53.914 Y-56.75
N14185 X-53.926 Y-56.74
N14190 X-54.464 Y-56.281
N14195 X-54.475 Y-56.271
N14200 X-55.005 Y-55.805
N14205 X-55.016 Y-55.795
N14210 X-55.538 Y-55.322
N14215 X-55.549 Y-55.312
N14220 X-56.062 Y-54.832
N14225 X-56.073 Y-54.821
N14230 X-56.577 Y-54.335
N14235 X-56.588 Y-54.324
N14240 X-57.084 Y-53.831
N14245 X-57.095 Y-53.82
N14250 X-57.582 Y-53.319
N14255 X-57.593 Y-53.308
N14260 X-58.072 Y-52.801
N14265 X-58.083 Y-52.79
N14270 X-58.553 Y-52.276
N14275 X-58.564 Y-52.264
N14280 X-59.026 Y-51.744
N14285 X-59.036 Y-51.733
N14290 X-59.567 Y-51.115
N14295 X-59.577 Y-51.105
N14300 X-60.094 Y-50.486
N14305 X-60.103 Y-50.475
N14310 X-60.607 Y-49.855
N14315 X-60.617 Y-49.844
N14320 X-61.107 Y-49.223
N14325 X-61.116 Y-49.211
N14330 X-61.593 Y-48.589
N14335 X-61.602 Y-48.577
N14340 X-62.066 Y-47.952
N14345 X-62.075 Y-47.941
N14350 X-62.526 Y-47.315
N14355 X-62.535 Y-47.303
N14360 X-62.973 Y-46.675
N14365 X-62.981 Y-46.663
N14370 X-63.407 Y-46.033
N14375 X-63.415 Y-46.021
N14380 X-63.829 Y-45.39
N14385 X-63.837 Y-45.377
N14390 X-64.238 Y-44.744
N14395 X-64.246 Y-44.732
N14400 X-64.634 Y-44.097
N14405 X-64.642 Y-44.084
N14410 X-65.019 Y-43.447
N14415 X-65.027 Y-43.434
N14420 X-65.392 Y-42.796
N14425 X-65.399 Y-42.783
N14430 X-65.753 Y-42.142
N14435 X-65.76 Y-42.129
N14440 X-66.102 Y-41.486
N14445 X-66.109 Y-41.473
N14450 X-66.44 Y-40.829
N14455 X-66.447 Y-40.815
N14460 X-66.767 Y-40.168
N14465 X-66.774 Y-40.155
N14470 X-67.083 Y-39.506
N14475 X-67.089 Y-39.492
N14480 X-67.388 Y-38.841
N14485 X-67.394 Y-38.828
N14490 X-67.682 Y-38.174
N14495 X-67.688 Y-38.161
N14500 X-67.965 Y-37.505
N14505 X-67.971 Y-37.491
N14510 X-68.238 Y-36.833
N14515 X-68.244 Y-36.82
N14520 X-68.501 Y-36.159
N14525 X-68.509 Y-36.139
N14530 X-68.995 Y-34.81
N14535 X-69.004 Y-34.784
N14540 X-69.452 Y-33.445
N14545 X-69.46 Y-33.419
N14550 X-69.872 Y-32.069
N14555 X-69.88 Y-32.044
N14560 X-70.257 Y-30.683
N14565 X-70.263 Y-30.659
N14570 X-70.607 Y-29.286
N14575 X-70.613 Y-29.262
N14580 X-70.924 Y-27.877
N14585 X-70.929 Y-27.855
N14590 X-71.21 Y-26.457
N14595 X-71.214 Y-26.436
N14600 X-71.466 Y-25.026
N14605 X-71.47 Y-25.005
N14610 X-71.694 Y-23.582
N14615 X-71.697 Y-23.563
N14620 X-71.894 Y-22.126
N14625 X-71.897 Y-22.108
N14630 X-72.07 Y-20.657
N14635 X-72.072 Y-20.64
N14640 X-72.221 Y-19.175
N14645 X-72.223 Y-19.159
N14650 X-72.35 Y-17.679
N14655 X-72.351 Y-17.664
N14660 X-72.458 Y-16.169
N14665 X-72.459 Y-16.156
N14670 X-72.546 Y-14.645
N14675 X-72.547 Y-14.632
N14680 X-72.616 Y-13.105
N14685 X-72.617 Y-13.094
N14690 X-72.67 Y-11.551
N14695 Y-11.541
N14700 X-72.709 Y-9.981
N14705 Y-9.972
N14710 X-72.734 Y-8.395
N14715 Y-8.387
N14720 X-72.743 Y-7.199
N14725 X-72.921 Y-7.02
N14730 X-73.37 Y-6.567
N14735 X-73.804 Y-6.129
N14740 X-74.224 Y-5.705
N14745 X-74.629 Y-5.297
N14750 X-75.02 Y-4.903
N14755 X-75.395 Y-4.524
N14760 X-75.756 Y-4.16
N14765 X-76.102 Y-3.811
N14770 X-76.433 Y-3.477
N14775 X-76.75 Y-3.157
N14780 X-77.052 Y-2.853
N14785 X-77.339 Y-2.563
N14790 X-77.612 Y-2.288
N14795 X-77.869 Y-2.028
N14800 X-78.113 Y-1.783
N14805 X-78.341 Y-1.552
N14810 X-78.554 Y-1.337
N14815 X-78.753 Y-1.137
N14820 X-78.937 Y-0.951
N14825 X-79.107 Y-0.78
N14830 X-79.261 Y-0.624
N14835 X-79.401 Y-0.483
N14840 X-79.526 Y-0.356
N14845 X-79.637 Y-0.245
N14850 X-79.732 Y-0.149
N14855 X-79.814 Y-0.067
N14860 X-79.88 Y0
N14865 X-79.932 Y0.053
N14870 X-79.968 Y0.089
N14875 X-79.989 Y0.111
N14880 X-79.996 Y0.118
N14885 G02 X-80.04 Y1.481 I0.709 J0.706
N14890 G01 X-79.099 Y2.558
N14895 X-78.189 Y3.627
N14900 X-77.306 Y4.695
N14905 X-76.449 Y5.76
N14910 X-75.619 Y6.822
N14915 X-74.815 Y7.882
N14920 X-74.038 Y8.94
N14925 X-73.288 Y9.995
N14930 X-72.565 Y11.048
N14935 X-71.867 Y12.099
N14940 X-71.197 Y13.147
N14945 X-70.553 Y14.192
N14950 X-69.936 Y15.236
N14955 X-69.345 Y16.276
N14960 X-68.78 Y17.314
N14965 X-68.243 Y18.35
N14970 X-67.731 Y19.383
N14975 X-67.246 Y20.414
N14980 X-66.787 Y21.442
N14985 X-66.355 Y22.468
N14990 X-65.949 Y23.491
N14995 X-65.57 Y24.512
N15000 X-65.216 Y25.53
N15005 X-64.889 Y26.545
N15010 X-64.588 Y27.559
N15015 X-64.313 Y28.569
N15020 X-64.064 Y29.577
N15025 X-63.842 Y30.583
N15030 X-63.645 Y31.587
N15035 X-63.475 Y32.588
N15040 X-63.331 Y33.587
N15045 X-63.212 Y34.583
N15050 X-63.119 Y35.577
N15055 X-63.053 Y36.57
N15060 X-63.012 Y37.559
N15065 X-62.997 Y38.547
N15070 X-63.008 Y39.533
N15075 X-63.045 Y40.517
N15080 X-63.108 Y41.499
N15085 X-63.197 Y42.479
N15090 X-63.312 Y43.457
N15095 X-63.452 Y44.433
N15100 X-63.619 Y45.408
N15105 X-63.811 Y46.381
N15110 X-64.029 Y47.353
N15115 X-64.274 Y48.323
N15120 X-64.544 Y49.291
N15125 X-64.841 Y50.258
N15130 X-65.163 Y51.223
N15135 X-65.512 Y52.187
N15140 X-65.886 Y53.15
N15145 X-66.287 Y54.111
N15150 X-66.714 Y55.071
N15155 X-67.168 Y56.029
N15160 X-67.648 Y56.986
N15165 X-68.153 Y57.942
N15170 X-68.686 Y58.897
N15175 X-69.245 Y59.85
N15180 X-69.83 Y60.802
N15185 X-70.442 Y61.752
N15190 X-71.08 Y62.701
N15195 X-71.744 Y63.649
N15200 X-72.436 Y64.596
N15205 X-73.159 Y65.548
N15210 G02 X-73.166 Y66.749 I0.796 J0.605
N15215 G01 X-72.737 Y67.327
N15220 X-72.322 Y67.886
N15225 X-71.921 Y68.427
N15230 X-71.533 Y68.95
N15235 X-71.158 Y69.455
N15240 X-70.798 Y69.941
N15245 X-70.451 Y70.408
N15250 X-70.117 Y70.858
N15255 X-69.798 Y71.289
N15260 X-69.491 Y71.702
N15265 X-69.199 Y72.096
N15270 X-68.92 Y72.472
N15275 X-68.655 Y72.83
N15280 X-68.403 Y73.169
N15285 X-68.165 Y73.491
N15290 X-67.94 Y73.793
N15295 X-67.729 Y74.078
N15300 X-67.532 Y74.344
N15305 X-67.348 Y74.591
N15310 X-67.178 Y74.82
N15315 X-67.022 Y75.031
N15320 X-66.879 Y75.224
N15325 X-66.75 Y75.398
N15330 X-66.634 Y75.554
N15335 X-66.532 Y75.692
N15340 X-66.444 Y75.811
N15345 X-66.368 Y75.912
N15350 X-66.307 Y75.995
N15355 X-66.259 Y76.059
N15360 X-66.226 Y76.104
N15365 X-66.206 Y76.131
N15370 X-66.199 Y76.14
N15375 G02 X-65.043 Y76.481 I0.804 J-0.594
N15380 G01 X-64.405 Y76.241
N15385 X-63.773 Y76.014
N15390 X-63.138 Y75.797
N15395 X-62.502 Y75.59
N15400 X-61.863 Y75.393
N15405 X-61.222 Y75.206
N15410 X-60.58 Y75.03
N15415 X-59.936 Y74.863
N15420 X-59.29 Y74.706
N15425 X-58.643 Y74.559
N15430 X-57.995 Y74.423
N15435 X-57.345 Y74.296
N15440 X-56.694 Y74.179
N15445 X-56.042 Y74.072
N15450 X-55.389 Y73.975
N15455 X-54.736 Y73.888
N15460 X-54.082 Y73.811
N15465 X-53.427 Y73.744
N15470 X-52.772 Y73.687
N15475 X-52.116 Y73.639
N15480 X-51.46 Y73.602
N15485 X-50.804 Y73.574
N15490 X-50.148 Y73.556
N15495 X-49.493 Y73.548
N15500 X-48.837 Y73.55
N15505 X-48.182 Y73.561
N15510 X-47.527 Y73.583
N15515 X-46.873 Y73.614
N15520 X-46.219 Y73.655
N15525 X-45.57 Y73.705
N15530 X-44.264 Y73.836
N15535 X-42.962 Y74.006
N15540 X-42.318 Y74.104
N15545 X-41.673 Y74.213
N15550 X-41.028 Y74.332
N15555 X-40.386 Y74.46
N15560 X-39.745 Y74.598
N15565 X-39.106 Y74.745
N15570 X-38.47 Y74.902
N15575 X-37.835 Y75.069
N15580 X-37.203 Y75.245
N15585 X-36.573 Y75.431
N15590 X-35.945 Y75.626
N15595 X-35.32 Y75.831
N15600 X-34.698 Y76.045
N15605 X-34.078 Y76.269
N15610 X-33.462 Y76.502
N15615 X-32.848 Y76.745
N15620 X-32.238 Y76.998
N15625 X-31.631 Y77.259
N15630 X-31.027 Y77.531
N15635 X-30.426 Y77.811
N15640 X-29.829 Y78.102
N15645 X-29.236 Y78.401
N15650 X-28.647 Y78.71
N15655 X-28.062 Y79.028
N15660 X-27.48 Y79.356
N15665 X-26.903 Y79.693
N15670 X-26.33 Y80.039
N15675 X-25.762 Y80.395
N15680 X-25.198 Y80.76
N15685 X-24.632 Y81.139
N15690 G02 X-23.45 Y81.088 I0.556 J-0.831
N15695 G01 X-22.791 Y80.559
N15700 X-22.132 Y80.056
N15705 X-21.465 Y79.57
N15710 X-20.79 Y79.101
N15715 X-20.107 Y78.65
N15720 X-19.416 Y78.216
N15725 X-18.718 Y77.8
N15730 X-18.013 Y77.401
N15735 X-17.302 Y77.02
N15740 X-16.584 Y76.655
N15745 X-15.86 Y76.308
N15750 X-15.13 Y75.978
N15755 X-14.394 Y75.665
N15760 X-13.653 Y75.369
N15765 X-12.907 Y75.09
N15770 X-12.156 Y74.828
N15775 X-11.4 Y74.582
N15780 X-10.64 Y74.354
N15785 X-9.877 Y74.142
N15790 X-9.109 Y73.947
N15795 X-8.338 Y73.769
N15800 X-7.564 Y73.607
N15805 X-6.787 Y73.462
N15810 X-6.008 Y73.334
N15815 X-5.226 Y73.221
N15820 X-4.443 Y73.126
N15825 X-3.657 Y73.046
N15830 X-2.87 Y72.983
N15835 X-2.082 Y72.937
N15840 X-1.293 Y72.906
N15845 X-0.504 Y72.892
N15850 X0.286 Y72.894
N15855 X1.076 Y72.912
N15860 X1.865 Y72.946
N15865 X2.654 Y72.996
N15870 X3.442 Y73.062
N15875 X4.229 Y73.144
N15880 X5.015 Y73.242
N15885 X5.799 Y73.356
N15890 X6.58 Y73.485
N15895 X7.36 Y73.63
N15900 X8.137 Y73.791
N15905 X8.911 Y73.968
N15910 X9.682 Y74.16
N15915 X10.449 Y74.367
N15920 X11.213 Y74.59
N15925 X11.973 Y74.828
N15930 X12.728 Y75.082
N15935 X13.479 Y75.351
N15940 X14.225 Y75.635
N15945 X14.965 Y75.935
N15950 X15.701 Y76.249
N15955 X16.43 Y76.579
N15960 X17.154 Y76.924
N15965 X17.871 Y77.283
N15970 X18.582 Y77.658
N15975 X19.285 Y78.047
N15980 X19.982 Y78.452
N15985 X20.671 Y78.871
N15990 X21.352 Y79.304
N15995 X22.026 Y79.753
N16000 X22.691 Y80.216
N16005 X23.347 Y80.694
N16010 X24.003 Y81.192
N16015 G02 X25.149 Y81.237 I0.605 J-0.796
N16020 G01 X26.321 Y80.483
N16025 X27.486 Y79.775
N16030 X28.657 Y79.106
N16035 X29.833 Y78.475
N16040 X31.013 Y77.884
N16045 X32.199 Y77.331
N16050 X33.39 Y76.817
N16055 X34.586 Y76.341
N16060 X35.788 Y75.904
N16065 X36.994 Y75.505
N16070 X38.206 Y75.145
N16075 X39.423 Y74.824
N16080 X40.646 Y74.54
N16085 X41.874 Y74.295
N16090 X43.108 Y74.089
N16095 X44.348 Y73.92
N16100 X45.594 Y73.79
N16105 X46.845 Y73.698
N16110 X48.102 Y73.645
N16115 X49.366 Y73.629
N16120 X50.636 Y73.652
N16125 X51.912 Y73.714
N16130 X53.194 Y73.813
N16135 X54.482 Y73.951
N16140 X55.777 Y74.128
N16145 X57.079 Y74.343
N16150 X58.387 Y74.597
N16155 X59.701 Y74.889
N16160 X61.022 Y75.22
N16165 X62.35 Y75.59
N16170 X63.684 Y75.998
N16175 X65.037 Y76.449
N16180 G02 X66.159 Y76.093 I0.316 J-0.949
N16185 G01 X73.038 Y66.745
N16190 G02 X73.048 Y65.573 I-0.805 J-0.593
N16195 G01 X72.333 Y64.566
N16200 X71.649 Y63.566
N16205 X70.993 Y62.567
N16210 X70.363 Y61.568
N16215 X69.759 Y60.571
N16220 X69.182 Y59.573
N16225 X68.631 Y58.577
N16230 X68.107 Y57.581
N16235 X67.609 Y56.585
N16240 X67.138 Y55.591
N16245 X66.693 Y54.596
N16250 X66.274 Y53.603
N16255 X65.881 Y52.609
N16260 X65.515 Y51.617
N16265 X65.174 Y50.624
N16270 X64.86 Y49.633
N16275 X64.572 Y48.641
N16280 X64.309 Y47.65
N16285 X64.073 Y46.659
N16290 X63.862 Y45.669
N16295 X63.678 Y44.678
N16300 X63.519 Y43.688
N16305 X63.386 Y42.698
N16310 X63.278 Y41.707
N16315 X63.196 Y40.717
N16320 X63.14 Y39.726
N16325 X63.11 Y38.736
N16330 X63.105 Y37.745
N16335 X63.126 Y36.753
N16340 X63.173 Y35.761
N16345 X63.245 Y34.769
N16350 X63.343 Y33.776
N16355 X63.466 Y32.783
N16360 X63.615 Y31.789
N16365 X63.789 Y30.794
N16370 X63.99 Y29.798
N16375 X64.216 Y28.802
N16380 X64.467 Y27.804
N16385 X64.744 Y26.806
N16390 X65.047 Y25.807
N16395 X65.376 Y24.806
N16400 X65.73 Y23.805
N16405 X66.111 Y22.803
N16410 X66.517 Y21.799
N16415 X66.948 Y20.794
N16420 X67.406 Y19.788
N16425 X67.89 Y18.781
N16430 X68.399 Y17.773
N16435 X68.934 Y16.764
N16440 X69.495 Y15.753
N16445 X70.082 Y14.741
N16450 X70.695 Y13.728
N16455 X71.334 Y12.714
N16460 X71.999 Y11.698
N16465 X72.689 Y10.681
N16470 X73.406 Y9.663
N16475 X74.148 Y8.644
N16480 X74.917 Y7.623
N16485 X75.711 Y6.601
N16490 X76.531 Y5.578
N16495 X77.377 Y4.554
N16500 X78.249 Y3.528
N16505 X79.147 Y2.501
N16510 X80.076 Y1.468
N16515 G02 X80.039 Y0.093 I-0.744 J-0.668
N16520 G01 X79.572 Y-0.374
N16525 X79.121 Y-0.826
N16530 X78.683 Y-1.263
N16535 X78.261 Y-1.685
N16540 X77.854 Y-2.092
N16545 X77.461 Y-2.485
N16550 X77.083 Y-2.863
N16555 X76.72 Y-3.226
N16560 X76.372 Y-3.574
N16565 X76.039 Y-3.907
N16570 X75.72 Y-4.226
N16575 X75.417 Y-4.529
N16580 X75.128 Y-4.818
N16585 X74.854 Y-5.092
N16590 X74.594 Y-5.351
N16595 X74.35 Y-5.596
N16600 X74.12 Y-5.826
N16605 X73.906 Y-6.04
N16610 X73.705 Y-6.24
N16615 X73.52 Y-6.425
N16620 X73.35 Y-6.596
N16625 X73.195 Y-6.751
N16630 X73.054 Y-6.892
N16635 X72.928 Y-7.018
N16640 X72.817 Y-7.129
N16645 X72.749 Y-7.197
N16650 X72.753 Y-7.963
N16655 Y-7.972
N16660 X72.749 Y-9.142
N16665 X72.748 Y-9.152
N16670 X72.732 Y-10.308
N16675 Y-10.318
N16680 X72.704 Y-11.46
N16685 Y-11.471
N16690 X72.664 Y-12.599
N16695 Y-12.61
N16700 X72.613 Y-13.725
N16705 X72.612 Y-13.736
N16710 X72.55 Y-14.836
N16715 X72.549 Y-14.848
N16720 X72.475 Y-15.935
N16725 X72.474 Y-15.946
N16730 X72.389 Y-17.02
N16735 X72.388 Y-17.032
N16740 X72.291 Y-18.091
N16745 X72.289 Y-18.103
N16750 X72.181 Y-19.149
N16755 X72.179 Y-19.161
N16760 X72.059 Y-20.193
N16765 X72.057 Y-20.206
N16770 X71.926 Y-21.224
N16775 X71.924 Y-21.237
N16780 X71.78 Y-22.242
N16785 X71.778 Y-22.255
N16790 X71.624 Y-23.246
N16795 X71.621 Y-23.259
N16800 X71.455 Y-24.236
N16805 X71.452 Y-24.25
N16810 X71.274 Y-25.213
N16815 X71.272 Y-25.227
N16820 X71.082 Y-26.177
N16825 X71.079 Y-26.191
N16830 X70.878 Y-27.127
N16835 X70.875 Y-27.141
N16840 X70.662 Y-28.063
N16845 X70.658 Y-28.078
N16850 X70.434 Y-28.986
N16855 X70.43 Y-29.002
N16860 X70.195 Y-29.896
N16865 X70.19 Y-29.912
N16870 X69.943 Y-30.792
N16875 X69.938 Y-30.808
N16880 X69.679 Y-31.675
N16885 X69.675 Y-31.691
N16890 X69.404 Y-32.544
N16895 X69.399 Y-32.561
N16900 X69.117 Y-33.4
N16905 X69.111 Y-33.417
N16910 X68.817 Y-34.242
N16915 X68.811 Y-34.259
N16920 X68.506 Y-35.071
N16925 X68.5 Y-35.088
N16930 X68.183 Y-35.886
N16935 X68.176 Y-35.903
N16940 X67.848 Y-36.688
N16945 X67.84 Y-36.705
N16950 X67.5 Y-37.476
N16955 X67.492 Y-37.493
N16960 X67.141 Y-38.25
N16965 X67.132 Y-38.269
N16970 X66.686 Y-39.179
N16975 X66.679 Y-39.194
N16980 X66.22 Y-40.092
N16985 X66.212 Y-40.107
N16990 X65.741 Y-40.992
N16995 X65.733 Y-41.008
N17000 X65.248 Y-41.88
N17005 X65.24 Y-41.895
N17010 X64.742 Y-42.755
N17015 X64.733 Y-42.77
N17020 X64.223 Y-43.617
N17025 X64.214 Y-43.632
N17030 X63.691 Y-44.466
N17035 X63.682 Y-44.481
N17040 X63.146 Y-45.303
N17045 X63.136 Y-45.318
N17050 X62.588 Y-46.127
N17055 X62.577 Y-46.142
N17060 X62.016 Y-46.938
N17065 X62.005 Y-46.953
N17070 X61.431 Y-47.736
N17075 X61.42 Y-47.75
N17080 X60.833 Y-48.521
N17085 X60.821 Y-48.536
N17090 X60.221 Y-49.294
N17095 X60.21 Y-49.308
N17100 X59.597 Y-50.053
N17105 X59.585 Y-50.068
N17110 X58.96 Y-50.8
N17115 X58.947 Y-50.814
N17120 X58.309 Y-51.534
N17125 X58.296 Y-51.548
N17130 X57.645 Y-52.255
N17135 X57.632 Y-52.268
N17140 X56.968 Y-52.963
N17145 X56.955 Y-52.976
N17150 X56.278 Y-53.658
N17155 X56.265 Y-53.671
N17160 X55.575 Y-54.34
N17165 X55.561 Y-54.353
N17170 X54.859 Y-55.009
N17175 X54.845 Y-55.022
N17180 X54.129 Y-55.665
N17185 X54.115 Y-55.677
N17190 X53.387 Y-56.308
N17195 X53.373 Y-56.32
N17200 X52.632 Y-56.938
N17205 X52.617 Y-56.95
N17210 X51.864 Y-57.555
N17215 X51.849 Y-57.567
N17220 X51.082 Y-58.159
N17225 X51.067 Y-58.17
N17230 X50.288 Y-58.75
N17235 X50.273 Y-58.761
N17240 X49.481 Y-59.328
N17245 X49.466 Y-59.338
N17250 X48.66 Y-59.893
N17255 X48.645 Y-59.903
N17260 X47.827 Y-60.445
N17265 X47.812 Y-60.454
N17270 X46.981 Y-60.983
N17275 X46.966 Y-60.993
N17280 X46.122 Y-61.509
N17285 X46.107 Y-61.518
N17290 X45.25 Y-62.022
N17295 X45.235 Y-62.03
N17300 X44.366 Y-62.521
N17305 X44.35 Y-62.53
N17310 X43.468 Y-63.008
N17315 X43.453 Y-63.016
N17320 X42.558 Y-63.481
N17325 X42.543 Y-63.489
N17330 X41.635 Y-63.941
N17335 X41.619 Y-63.949
N17340 X40.699 Y-64.389
N17345 X40.684 Y-64.396
N17350 X39.75 Y-64.823
N17355 X39.735 Y-64.83
N17360 X38.788 Y-65.244
N17365 X38.774 Y-65.25
N17370 X37.814 Y-65.652
N17375 X37.799 Y-65.658
N17380 X36.827 Y-66.047
N17385 X36.812 Y-66.053
N17390 X35.827 Y-66.429
N17395 X35.813 Y-66.435
N17400 X34.815 Y-66.798
N17405 X34.801 Y-66.803
N17410 X33.79 Y-67.154
N17415 X33.776 Y-67.159
N17420 X32.752 Y-67.497
N17425 X32.738 Y-67.502
N17430 X31.701 Y-67.827
N17435 X31.687 Y-67.832
N17440 X30.638 Y-68.145
N17445 X30.624 Y-68.149
N17450 X29.562 Y-68.449
N17455 X29.549 Y-68.452
N17460 X28.474 Y-68.74
N17465 X28.46 Y-68.743
N17470 X27.372 Y-69.018
N17475 X27.359 Y-69.021
N17480 X26.258 Y-69.283
N17485 X26.245 Y-69.286
N17490 X25.132 Y-69.535
N17495 X25.119 Y-69.538
N17500 X23.992 Y-69.774
N17505 X23.98 Y-69.777
N17510 X22.841 Y-70.001
N17515 X22.828 Y-70.003
N17520 X21.676 Y-70.214
N17525 X21.664 Y-70.216
N17530 X20.499 Y-70.415
N17535 X20.487 Y-70.417
N17540 X19.309 Y-70.602
N17545 X19.297 Y-70.604
N17550 X18.106 Y-70.777
N17555 X18.095 Y-70.779
N17560 X16.891 Y-70.939
N17565 X16.88 Y-70.94
N17570 X15.663 Y-71.088
N17575 X15.652 Y-71.089
N17580 X14.423 Y-71.224
N17585 X14.412 Y-71.225
N17590 X13.17 Y-71.347
N17595 X13.159 Y-71.348
N17600 X12.219 Y-71.43
N17605 X11.768 Y-71.808
N17610 X11.095 Y-72.373
N17615 X10.443 Y-72.922
N17620 X9.81 Y-73.453
N17625 X9.199 Y-73.968
N17630 X8.607 Y-74.466
N17635 X8.037 Y-74.946
N17640 X7.487 Y-75.409
N17645 X6.958 Y-75.855
N17650 X6.451 Y-76.284
N17655 X5.964 Y-76.694
N17660 X5.499 Y-77.087
N17665 X5.055 Y-77.462
N17670 X4.633 Y-77.819
N17675 X4.232 Y-78.158
N17680 X3.854 Y-78.478
N17685 X3.497 Y-78.78
N17690 X3.162 Y-79.064
N17695 X2.85 Y-79.328
N17700 X2.56 Y-79.575
N17705 X2.292 Y-79.802
N17710 X2.047 Y-80.009
N17715 X1.825 Y-80.198
N17720 X1.626 Y-80.368
N17725 X1.449 Y-80.518
N17730 X1.296 Y-80.648
N17735 X1.166 Y-80.759
N17740 X1.059 Y-80.849
N17745 X0.976 Y-80.92
N17750 X0.917 Y-80.97
N17755 X0.881 Y-81.001
N17760 X0.88 Y-81.002
N17765 X0.868 Y-81.012
N17770 G02 X0.219 Y-81.25 I-0.648 J0.762
N17775 G03 X0.019 Y-81.45 I0 J-0.2 F1000
N17780 G01 Y-81.65
N17785 Y-81.702 Z-0.993
N17790 Y-81.75 Z-0.973
N17795 Y-81.792 Z-0.941
N17800 Y-81.824 Z-0.9
N17805 Y-81.844 Z-0.852
N17810 Y-81.85 Z-0.8
N17815 G00 Z5
N17820 X-28.641 Y-16.225
N17825 G01 Z0.4 F500
N17830 Z-0.8
N17835 X-28.634 Z-0.852 F1000
N17840 X-28.614 Z-0.9
N17845 X-28.583 Z-0.941
N17850 X-28.541 Z-0.973
N17855 X-28.493 Z-0.993
N17860 X-28.441 Z-1
N17865 X-28.241
N17870 G03 X-28.041 Y-16.025 I0 J0.2
N17875 G01 Y-8.49 F2475
N17880 Y-7.9
N17885 X-44.38 Y-7.861
N17890 X-44.378 Y-8.184
N17895 X-44.369 Y-9.495
N17900 X-44.362 Y-10.785
N17905 X-44.354 Y-12.053
N17910 X-44.346 Y-13.301
N17915 X-44.338 Y-14.528
N17920 X-44.331 Y-15.734
N17925 X-44.324 Y-16.919
N17930 X-44.317 Y-18.083
N17935 X-44.309 Y-19.226
N17940 X-44.303 Y-20.348
N17945 X-44.296 Y-21.449
N17950 X-44.289 Y-22.529
N17955 X-44.283 Y-23.588
N17960 X-44.276 Y-24.626
N17965 X-44.27 Y-25.643
N17970 X-44.264 Y-26.639
N17975 X-44.258 Y-27.615
N17980 X-44.252 Y-28.569
N17985 X-44.246 Y-29.502
N17990 X-44.241 Y-30.415
N17995 X-44.235 Y-31.306
N18000 X-44.23 Y-32.176
N18005 X-44.224 Y-33.026
N18010 X-44.219 Y-33.854
N18015 X-44.214 Y-34.661
N18020 X-44.21 Y-35.448
N18025 X-44.205 Y-36.213
N18030 X-44.2 Y-36.958
N18035 X-44.196 Y-37.681
N18040 X-44.191 Y-38.384
N18045 X-44.187 Y-39.065
N18050 X-44.183 Y-39.726
N18055 X-44.179 Y-40.366
N18060 X-44.175 Y-40.984
N18065 X-44.172 Y-41.582
N18070 X-44.168 Y-42.159
N18075 X-44.165 Y-42.715
N18080 X-44.161 Y-43.249
N18085 X-44.158 Y-43.763
N18090 X-44.155 Y-44.256
N18095 X-44.152 Y-44.728
N18100 X-44.15 Y-45.179
N18105 X-44.147 Y-45.609
N18110 X-44.144 Y-46.018
N18115 X-44.142 Y-46.406
N18120 X-44.14 Y-46.773
N18125 X-44.138 Y-47.119
N18130 X-44.136 Y-47.444
N18135 X-44.134 Y-47.748
N18140 X-44.132 Y-48.031
N18145 X-44.13 Y-48.293
N18150 X-44.129 Y-48.534
N18155 X-44.128 Y-48.754
N18160 X-44.126 Y-48.953
N18165 X-44.125 Y-49.132
N18170 X-44.124 Y-49.252
N18175 X-43.336 Y-49.743
N18180 X-42.104 Y-50.486
N18185 X-40.891 Y-51.193
N18190 X-39.695 Y-51.864
N18195 X-38.519 Y-52.499
N18200 X-37.36 Y-53.098
N18205 X-36.221 Y-53.661
N18210 X-35.1 Y-54.189
N18215 X-33.998 Y-54.681
N18220 X-32.914 Y-55.137
N18225 X-31.85 Y-55.557
N18230 X-30.804 Y-55.942
N18235 X-29.777 Y-56.291
N18240 X-28.77 Y-56.605
N18245 X-28.041 Y-56.81
N18250 Y-48.3
N18255 Y-47.588
N18260 Y-46.85
N18265 Y-22.989
N18270 Y-21.652
N18275 Y-20.289
N18280 Y-16.052
N18285 Y-16.025
N18290 G03 X-28.241 Y-15.825 I-0.2 J0 F1000
N18295 G01 X-28.441
N18300 X-28.493 Z-0.993
N18305 X-28.541 Z-0.973
N18310 X-28.583 Z-0.941
N18315 X-28.614 Z-0.9
N18320 X-28.634 Z-0.852
N18325 X-28.641 Z-0.8
N18330 G00 Z5
N18335 X-16.933 Y2.495
N18340 G01 Z0.4 F500
N18345 Z-0.8
N18350 X-16.939 Y2.499 Z-0.852 F1000
N18355 X-16.955 Y2.511 Z-0.9
N18360 X-16.98 Y2.53 Z-0.941
N18365 X-17.013 Y2.555 Z-0.973
N18370 X-17.052 Y2.584 Z-0.993
N18375 X-17.093 Y2.615 Z-1
N18380 X-17.253 Y2.735
N18385 G03 X-17.533 Y2.695 I-0.12 J-0.16
N18390 G02 X-18.333 Y2.296 I-0.799 J0.601 F2475
N18395 G01 X-22.073
N18400 Y-3.451
N18405 G02 X-23.073 Y-4.451 I-1 J0
N18410 G01 X-26.381
N18415 G02 X-27.381 Y-3.451 I0 J1
N18420 G01 Y12.513
N18425 G02 X-26.381 Y13.513 I1 J0
N18430 G01 X-14.971
N18435 G02 X-13.971 Y12.514 I0 J-1
N18440 G01 X-13.97 Y9.261
N18445 G02 X-14.97 Y8.26 I-1 J0
N18450 G01 X-22.194
N18455 Y7.427
N18460 X-18.333
N18465 G02 X-17.333 Y6.427 I0 J-1
N18470 G01 Y3.296
N18475 G02 X-17.533 Y2.695 I-1 J0
N18480 G03 X-17.494 Y2.415 I0.16 J-0.12 F1000
N18485 G01 X-17.334 Y2.295
N18490 X-17.292 Y2.264 Z-0.993
N18495 X-17.254 Y2.235 Z-0.973
N18500 X-17.221 Y2.21 Z-0.941
N18505 X-17.195 Y2.191 Z-0.9
N18510 X-17.179 Y2.179 Z-0.852
N18515 X-17.174 Y2.175 Z-0.8
N18520 G00 Z5
N18525 X-10.727 Y13.47
N18530 G01 Z0.4 F500
N18535 Z-0.8
N18540 Y13.477 Z-0.852 F1000
N18545 Y13.497 Z-0.9
N18550 Y13.528 Z-0.941
N18555 Y13.57 Z-0.973
N18560 Y13.618 Z-0.993
N18565 Y13.67 Z-1
N18570 Y13.87
N18575 G03 X-10.927 Y14.07 I-0.2 J0
N18580 G01 X-11.796 Y14.069 F2475
N18585 X-12.94
N18590 X-14.07 Y14.068
N18595 X-15.185 Y14.067
N18600 X-16.286
N18605 X-17.373 Y14.066
N18610 X-18.446 Y14.065
N18615 X-19.505
N18620 X-20.549 Y14.064
N18625 X-21.579
N18630 X-22.595 Y14.063
N18635 X-23.596
N18640 X-24.583 Y14.062
N18645 X-25.557 Y14.061
N18650 X-26.515
N18655 X-27.46 Y14.06
N18660 X-28.39
N18665 X-29.306 Y14.059
N18670 X-30.208
N18675 X-31.096 Y14.058
N18680 X-31.969
N18685 X-32.828 Y14.057
N18690 X-33.673
N18695 X-34.504 Y14.056
N18700 X-35.32
N18705 X-36.123 Y14.055
N18710 X-36.911
N18715 X-37.684 Y14.054
N18720 X-38.444
N18725 X-39.189
N18730 X-39.921 Y14.053
N18735 X-40.638
N18740 X-41.34 Y14.052
N18745 X-42.029
N18750 X-42.703
N18755 X-43.363 Y14.051
N18760 X-44.009
N18765 X-44.641 Y14.05
N18770 X-45.258
N18775 X-45.861
N18780 X-46.45 Y14.049
N18785 X-47.025
N18790 X-47.586
N18795 X-48.132
N18800 X-48.664 Y14.048
N18805 X-49.182
N18810 X-49.686
N18815 X-50.176 Y14.047
N18820 X-50.651
N18825 X-51.112
N18830 X-51.559
N18835 X-51.992 Y14.046
N18840 X-52.411
N18845 X-52.815
N18850 X-53.205
N18855 X-53.581 Y14.045
N18860 X-53.943
N18865 X-54.291
N18870 X-54.625
N18875 X-54.944
N18880 X-55.249 Y14.044
N18885 X-55.54
N18890 X-55.817
N18895 X-56.079
N18900 X-56.328
N18905 X-56.562
N18910 X-56.782 Y14.043
N18915 X-56.988
N18920 X-57.18
N18925 X-57.357
N18930 X-57.521
N18935 X-57.67
N18940 X-57.805
N18945 X-57.926
N18950 X-58.032
N18955 X-58.125
N18960 X-58.126
N18965 X-58.204
N18970 X-58.267
N18975 X-58.316
N18980 X-58.318
N18985 X-58.354
N18990 X-58.376
N18995 X-58.384
N19000 G02 X-59.324 Y15.384 I0 J1
N19005 G01 X-59.001 Y16.272
N19010 X-58.692 Y17.151
N19015 X-58.394 Y18.026
N19020 X-58.108 Y18.897
N19025 X-57.833 Y19.763
N19030 X-57.569 Y20.626
N19035 X-57.317 Y21.485
N19040 X-57.076 Y22.34
N19045 X-56.846 Y23.19
N19050 X-56.628 Y24.037
N19055 X-56.421 Y24.88
N19060 X-56.226 Y25.718
N19065 X-56.042 Y26.552
N19070 X-55.869 Y27.383
N19075 X-55.708 Y28.209
N19080 X-55.557 Y29.031
N19085 X-55.419 Y29.849
N19090 X-55.291 Y30.663
N19095 X-55.175 Y31.474
N19100 X-55.07 Y32.28
N19105 X-54.977 Y33.081
N19110 X-54.895 Y33.879
N19115 X-54.824 Y34.673
N19120 X-54.764 Y35.463
N19125 X-54.716 Y36.249
N19130 X-54.678 Y37.03
N19135 X-54.652 Y37.808
N19140 X-54.638 Y38.582
N19145 X-54.634 Y39.351
N19150 X-54.642 Y40.117
N19155 X-54.661 Y40.879
N19160 X-54.692 Y41.636
N19165 X-54.733 Y42.39
N19170 X-54.786 Y43.14
N19175 X-54.85 Y43.885
N19180 X-54.925 Y44.627
N19185 X-55.011 Y45.365
N19190 X-55.109 Y46.099
N19195 X-55.217 Y46.829
N19200 X-55.337 Y47.555
N19205 X-55.468 Y48.277
N19210 X-55.61 Y48.995
N19215 X-55.764 Y49.71
N19220 X-55.928 Y50.42
N19225 X-56.104 Y51.127
N19230 X-56.291 Y51.83
N19235 X-56.489 Y52.529
N19240 X-56.699 Y53.224
N19245 X-56.919 Y53.915
N19250 X-57.151 Y54.603
N19255 X-57.394 Y55.287
N19260 X-57.648 Y55.967
N19265 X-57.914 Y56.643
N19270 X-58.19 Y57.316
N19275 X-58.478 Y57.985
N19280 X-58.777 Y58.65
N19285 X-59.087 Y59.311
N19290 X-59.409 Y59.969
N19295 X-59.742 Y60.623
N19300 X-60.086 Y61.274
N19305 X-60.441 Y61.92
N19310 X-60.807 Y62.563
N19315 X-61.185 Y63.203
N19320 X-61.579 Y63.845
N19325 G02 X-60.588 Y65.358 I0.853 J0.522
N19330 G01 X-59.214 Y65.167
N19335 X-57.864 Y65
N19340 X-56.531 Y64.855
N19345 X-55.213 Y64.732
N19350 X-53.912 Y64.632
N19355 X-52.628 Y64.554
N19360 X-51.36 Y64.498
N19365 X-50.109 Y64.464
N19370 X-48.874 Y64.453
N19375 X-47.655 Y64.463
N19380 X-46.453 Y64.496
N19385 X-45.268 Y64.551
N19390 X-44.099 Y64.628
N19395 X-42.946 Y64.727
N19400 X-41.81 Y64.848
N19405 X-40.69 Y64.992
N19410 X-39.587 Y65.157
N19415 X-38.5 Y65.344
N19420 X-37.429 Y65.553
N19425 X-36.375 Y65.784
N19430 X-35.337 Y66.036
N19435 X-34.315 Y66.311
N19440 X-33.31 Y66.608
N19445 X-32.321 Y66.926
N19450 X-31.348 Y67.266
N19455 X-30.391 Y67.628
N19460 X-29.45 Y68.011
N19465 X-28.526 Y68.417
N19470 X-27.617 Y68.844
N19475 X-26.724 Y69.293
N19480 X-25.847 Y69.763
N19485 X-24.974 Y70.263
N19490 G02 X-23.972 Y70.257 I0.496 J-0.868
N19495 G01 X-23.233 Y69.824
N19500 X-22.5 Y69.408
N19505 X-21.767 Y69.006
N19510 X-21.033 Y68.619
N19515 X-20.299 Y68.244
N19520 X-19.564 Y67.884
N19525 X-18.829 Y67.538
N19530 X-18.094 Y67.205
N19535 X-17.358 Y66.886
N19540 X-16.622 Y66.581
N19545 X-15.885 Y66.29
N19550 X-15.148 Y66.013
N19555 X-14.41 Y65.749
N19560 X-13.672 Y65.499
N19565 X-12.934 Y65.263
N19570 X-12.195 Y65.04
N19575 X-11.455 Y64.832
N19580 X-10.715 Y64.636
N19585 X-9.975 Y64.455
N19590 X-9.234 Y64.287
N19595 X-8.493 Y64.133
N19600 X-7.751 Y63.993
N19605 X-7.008 Y63.866
N19610 X-6.265 Y63.753
N19615 X-5.521 Y63.653
N19620 X-4.777 Y63.567
N19625 X-4.032 Y63.495
N19630 X-3.287 Y63.437
N19635 X-2.54 Y63.392
N19640 X-1.793 Y63.36
N19645 X-1.046 Y63.342
N19650 X-0.297 Y63.338
N19655 X0.452 Y63.348
N19660 X1.201 Y63.371
N19665 X1.952 Y63.408
N19670 X2.703 Y63.458
N19675 X3.455 Y63.522
N19680 X4.209 Y63.6
N19685 X4.962 Y63.691
N19690 X5.717 Y63.796
N19695 X6.473 Y63.915
N19700 X7.229 Y64.047
N19705 X7.986 Y64.193
N19710 X8.744 Y64.353
N19715 X9.504 Y64.526
N19720 X10.264 Y64.713
N19725 X11.025 Y64.914
N19730 X11.786 Y65.129
N19735 X12.549 Y65.357
N19740 X13.313 Y65.599
N19745 X14.078 Y65.855
N19750 X14.844 Y66.125
N19755 X15.61 Y66.408
N19760 X16.378 Y66.705
N19765 X17.147 Y67.016
N19770 X17.916 Y67.341
N19775 X18.687 Y67.68
N19780 X19.458 Y68.033
N19785 X20.231 Y68.399
N19790 X21.005 Y68.779
N19795 X21.779 Y69.173
N19800 X22.554 Y69.582
N19805 X23.331 Y70.003
N19810 X24.114 Y70.443
N19815 G02 X25.175 Y70.391 I0.489 J-0.872
N19820 G01 X25.885 Y69.896
N19825 X26.605 Y69.431
N19830 X27.35 Y68.986
N19835 X28.119 Y68.561
N19840 X28.913 Y68.155
N19845 X29.732 Y67.77
N19850 X30.576 Y67.405
N19855 X31.445 Y67.06
N19860 X32.339 Y66.735
N19865 X33.258 Y66.43
N19870 X34.203 Y66.146
N19875 X35.172 Y65.882
N19880 X36.167 Y65.638
N19885 X37.187 Y65.415
N19890 X38.232 Y65.213
N19895 X39.303 Y65.031
N19900 X40.399 Y64.87
N19905 X41.52 Y64.729
N19910 X42.666 Y64.61
N19915 X43.838 Y64.511
N19920 X45.034 Y64.433
N19925 X46.257 Y64.376
N19930 X47.504 Y64.34
N19935 X48.776 Y64.325
N19940 X50.074 Y64.331
N19945 X51.396 Y64.358
N19950 X52.744 Y64.406
N19955 X54.117 Y64.475
N19960 X55.515 Y64.565
N19965 X56.938 Y64.677
N19970 X58.386 Y64.81
N19975 X59.865 Y64.964
N19980 G02 X60.846 Y63.49 I0.104 J-0.995
N19985 G01 X60.461 Y62.785
N19990 X60.091 Y62.084
N19995 X59.732 Y61.381
N20000 X59.384 Y60.676
N20005 X59.048 Y59.97
N20010 X58.723 Y59.261
N20015 X58.41 Y58.551
N20020 X58.108 Y57.839
N20025 X57.817 Y57.125
N20030 X57.537 Y56.41
N20035 X57.269 Y55.692
N20040 X57.012 Y54.973
N20045 X56.766 Y54.252
N20050 X56.531 Y53.53
N20055 X56.308 Y52.806
N20060 X56.096 Y52.08
N20065 X55.895 Y51.352
N20070 X55.705 Y50.623
N20075 X55.527 Y49.892
N20080 X55.36 Y49.16
N20085 X55.203 Y48.425
N20090 X55.058 Y47.69
N20095 X54.925 Y46.952
N20100 X54.802 Y46.213
N20105 X54.691 Y45.473
N20110 X54.59 Y44.73
N20115 X54.501 Y43.987
N20120 X54.423 Y43.241
N20125 X54.356 Y42.495
N20130 X54.3 Y41.746
N20135 X54.256 Y40.997
N20140 X54.222 Y40.245
N20145 X54.2 Y39.492
N20150 X54.188 Y38.738
N20155 Y37.982
N20160 X54.199 Y37.225
N20165 X54.221 Y36.466
N20170 X54.254 Y35.706
N20175 X54.298 Y34.945
N20180 X54.353 Y34.182
N20185 X54.419 Y33.418
N20190 X54.496 Y32.652
N20195 X54.585 Y31.885
N20200 X54.684 Y31.116
N20205 X54.794 Y30.347
N20210 X54.916 Y29.576
N20215 X55.049 Y28.803
N20220 X55.192 Y28.029
N20225 X55.347 Y27.254
N20230 X55.513 Y26.478
N20235 X55.69 Y25.701
N20240 X55.878 Y24.922
N20245 X56.077 Y24.142
N20250 X56.287 Y23.361
N20255 X56.508 Y22.579
N20260 X56.741 Y21.796
N20265 X56.984 Y21.011
N20270 X57.238 Y20.226
N20275 X57.504 Y19.439
N20280 X57.78 Y18.651
N20285 X58.068 Y17.863
N20290 X58.367 Y17.073
N20295 X58.676 Y16.282
N20300 X58.999 Y15.485
N20305 G02 X58.073 Y14.109 I-0.927 J-0.375
N20310 G01 X56.257 Y14.108
N20315 X54.457 Y14.107
N20320 X52.67 Y14.106
N20325 X50.897 Y14.105
N20330 X49.139 Y14.104
N20335 X47.396 Y14.103
N20340 X45.666 Y14.102
N20345 X43.951 Y14.101
N20350 X42.25 Y14.1
N20355 X40.564 Y14.099
N20360 X38.891 Y14.098
N20365 X37.233 Y14.097
N20370 X35.59 Y14.096
N20375 X33.96 Y14.095
N20380 X32.345
N20385 X30.744 Y14.094
N20390 X29.158 Y14.093
N20395 X27.586 Y14.092
N20400 X26.028 Y14.091
N20405 X24.484 Y14.09
N20410 X22.955 Y14.089
N20415 X21.44 Y14.088
N20420 X19.939 Y14.087
N20425 X18.453
N20430 X16.981 Y14.086
N20435 X15.523 Y14.085
N20440 X14.079 Y14.084
N20445 X12.65 Y14.083
N20450 X11.235 Y14.082
N20455 X9.834
N20460 X8.448 Y14.081
N20465 X7.075 Y14.08
N20470 X5.717 Y14.079
N20475 X4.374 Y14.078
N20480 X3.044
N20485 X1.729 Y14.077
N20490 X0.428 Y14.076
N20495 X-0.858
N20500 X-2.131 Y14.075
N20505 X-3.389 Y14.074
N20510 X-4.633 Y14.073
N20515 X-5.862
N20520 X-7.077 Y14.072
N20525 X-8.278 Y14.071
N20530 X-9.465
N20535 X-10.638 Y14.07
N20540 X-10.927
N20545 G03 X-11.127 Y13.87 I0 J-0.2 F1000
N20550 G01 Y13.67
N20555 Y13.618 Z-0.993
N20560 Y13.57 Z-0.973
N20565 Y13.528 Z-0.941
N20570 Y13.496 Z-0.9
N20575 Y13.476 Z-0.852
N20580 Y13.47 Z-0.8
N20585 G00 Z5
N20590 X-10.985 Y17.367
N20595 G01 Z0.4 F500
N20600 Z-0.8
N20605 Y17.36 Z-0.852 F1000
N20610 Y17.34 Z-0.9
N20615 Y17.308 Z-0.941
N20620 Y17.267 Z-0.973
N20625 Y17.218 Z-0.993
N20630 Y17.167 Z-1
N20635 X-10.984 Y16.967
N20640 G03 X-10.784 Y16.767 I0.2 J0
N20645 G01 X-1.45 Y16.79 F2475
N20650 Y30.182
N20655 X-17.527
N20660 X-17.489 Y16.751
N20665 X-10.784 Y16.767
N20670 G03 X-10.584 Y16.968 I0 J0.2 F1000
N20675 G01 X-10.585 Y17.168
N20680 Y17.219 Z-0.993
N20685 Y17.268 Z-0.973
N20690 Y17.309 Z-0.941
N20695 Y17.341 Z-0.9
N20700 Y17.361 Z-0.852
N20705 Y17.368 Z-0.8
N20710 G00 Z5
N20715 X4.324 Y58.788
N20720 G01 Z0.4 F500
N20725 Z-0.8
N20730 X4.331 Z-0.852 F1000
N20735 X4.351 Z-0.9
N20740 X4.383 Z-0.941
N20745 X4.424 Y58.789 Z-0.973
N20750 X4.473 Z-0.993
N20755 X4.524 Z-1
N20760 X4.724
N20765 G03 X4.924 Y58.989 I0 J0.2
N20770 G01 Y59.183 F2475
N20775 X4.923 Y60.594
N20780 Y60.881
N20785 X4.455 Y60.825
N20790 X4.431 Y60.823
N20795 X3.585 Y60.742
N20800 X3.563 Y60.74
N20805 X2.68 Y60.676
N20810 X2.66 Y60.674
N20815 X1.742 Y60.626
N20820 X1.723 Y60.625
N20825 X1.479 Y60.617
N20830 X1.48 Y60.17
N20835 X1.482 Y58.773
N20840 X1.485 Y57.399
N20845 X1.487 Y56.046
N20850 X1.49 Y54.717
N20855 X1.493 Y53.409
N20860 X1.495 Y52.124
N20865 X1.498 Y50.861
N20870 X1.5 Y49.621
N20875 X1.502 Y48.403
N20880 X1.505 Y47.207
N20885 X1.507 Y46.033
N20890 X1.509 Y44.882
N20895 X1.511 Y43.754
N20900 X1.513 Y42.647
N20905 X1.515 Y41.563
N20910 X1.517 Y40.502
N20915 X1.519 Y39.462
N20920 X1.521 Y38.446
N20925 X1.523 Y37.451
N20930 X1.525 Y36.479
N20935 X1.527 Y35.529
N20940 X1.529 Y34.601
N20945 X1.531 Y33.696
N20950 X1.532 Y32.813
N20955 X1.534 Y31.953
N20960 X1.536 Y31.115
N20965 X1.537 Y30.299
N20970 X1.539 Y29.505
N20975 X1.54 Y28.734
N20980 X1.542 Y27.986
N20985 X1.543 Y27.259
N20990 X1.544 Y26.555
N20995 X1.546 Y25.874
N21000 X1.547 Y25.214
N21005 X1.548 Y24.577
N21010 X1.549 Y23.963
N21015 X1.551 Y23.37
N21020 X1.552 Y22.8
N21025 X1.553 Y22.253
N21030 X1.554 Y21.728
N21035 X1.555 Y21.225
N21040 X1.556 Y20.744
N21045 Y20.286
N21050 X1.557 Y19.85
N21055 X1.558 Y19.437
N21060 X1.559 Y19.045
N21065 X1.56 Y18.677
N21070 Y18.33
N21075 X1.561 Y18.006
N21080 Y17.704
N21085 X1.562 Y17.425
N21090 Y17.168
N21095 X1.563 Y16.933
N21100 Y16.81
N21105 X1.83 Y16.809
N21110 X2.119 Y16.807
N21115 X2.397 Y16.806
N21120 X2.666 Y16.805
N21125 X2.923 Y16.804
N21130 X3.17 Y16.803
N21135 X3.406 Y16.802
N21140 X3.632 Y16.801
N21145 X3.848 Y16.8
N21150 X4.052
N21155 X4.247 Y16.799
N21160 X4.431 Y16.798
N21165 X4.604 Y16.797
N21170 X4.767
N21175 X4.919 Y16.796
N21180 X4.945
N21185 Y16.92
N21190 X4.944 Y17.157
N21195 Y17.417
N21200 Y17.699
N21205 Y18.004
N21210 Y18.331
N21215 Y18.681
N21220 Y19.054
N21225 X4.943 Y19.449
N21230 Y19.866
N21235 Y20.307
N21240 Y20.769
N21245 X4.942 Y21.255
N21250 Y21.763
N21255 Y22.293
N21260 Y22.847
N21265 X4.941 Y23.422
N21270 Y24.02
N21275 Y24.641
N21280 Y25.285
N21285 X4.94 Y25.951
N21290 Y26.639
N21295 Y27.351
N21300 X4.939 Y28.084
N21305 Y28.841
N21310 X4.938 Y29.619
N21315 Y30.421
N21320 Y31.245
N21325 X4.937 Y32.092
N21330 Y32.961
N21335 X4.936 Y33.853
N21340 Y34.767
N21345 Y35.704
N21350 X4.935 Y36.663
N21355 Y37.645
N21360 X4.934 Y38.65
N21365 Y39.677
N21370 X4.933 Y40.727
N21375 Y41.799
N21380 X4.932 Y42.894
N21385 X4.931 Y44.012
N21390 Y45.152
N21395 X4.93 Y46.315
N21400 Y47.5
N21405 X4.929 Y48.708
N21410 Y49.938
N21415 X4.928 Y51.191
N21420 X4.927 Y52.467
N21425 Y53.765
N21430 X4.926 Y55.086
N21435 Y56.429
N21440 X4.925 Y57.795
N21445 X4.924 Y58.989
N21450 G03 X4.724 Y59.189 I-0.2 J0 F1000
N21455 G01 X4.524
N21460 X4.472 Z-0.993
N21465 X4.424 Z-0.973
N21470 X4.383 Y59.188 Z-0.941
N21475 X4.351 Z-0.9
N21480 X4.331 Z-0.852
N21485 X4.324 Z-0.8
N21490 G00 Z5
N21495 X-10.037 Y60.929
N21500 G01 Z0.4 F500
N21505 Z-0.8
N21510 X-10.036 Y60.936 Z-0.852 F1000
N21515 X-10.032 Y60.956 Z-0.9
N21520 X-10.025 Y60.987 Z-0.941
N21525 X-10.015 Y61.027 Z-0.973
N21530 X-10.005 Y61.074 Z-0.993
N21535 X-9.993 Y61.125 Z-1
N21540 X-9.949 Y61.32
N21545 G03 X-10.101 Y61.559 I-0.195 J0.044
N21550 G01 X-10.628 Y61.678 F2475
N21555 X-10.657 Y61.685
N21560 X-11.793 Y61.976
N21565 X-11.82 Y61.983
N21570 X-12.962 Y62.31
N21575 X-12.988 Y62.318
N21580 X-14.136 Y62.681
N21585 X-14.162 Y62.689
N21590 X-15.316 Y63.088
N21595 X-15.34 Y63.097
N21600 X-16.5 Y63.532
N21605 X-16.524 Y63.541
N21610 X-17.475 Y63.926
N21615 X-17.471 Y63.425
N21620 X-17.464 Y62.46
N21625 X-17.456 Y61.527
N21630 X-17.449 Y60.627
N21635 X-17.442 Y59.76
N21640 X-17.436 Y58.925
N21645 X-17.429 Y58.123
N21650 X-17.423 Y57.354
N21655 X-17.417 Y56.618
N21660 X-17.412 Y55.914
N21665 X-17.407 Y55.243
N21670 X-17.402 Y54.605
N21675 X-17.397 Y53.999
N21680 X-17.392 Y53.427
N21685 X-17.388 Y52.887
N21690 X-17.384 Y52.379
N21695 X-17.38 Y51.905
N21700 X-17.377 Y51.463
N21705 X-17.373 Y51.054
N21710 X-17.37 Y50.677
N21715 X-17.368 Y50.334
N21720 X-17.365 Y50.023
N21725 X-17.363 Y49.745
N21730 Y49.694
N21735 X-1.451 Y49.773
N21740 Y49.796
N21745 Y50.035
N21750 Y50.299
N21755 Y50.588
N21760 Y50.903
N21765 Y51.242
N21770 Y51.607
N21775 Y51.997
N21780 Y52.412
N21785 Y52.852
N21790 Y53.317
